; generated by SuperSlicer 2.4 on 2022-08-04 at 14:59:33 UTC

; 

; external perimeters extrusion width = 0.42mm
; perimeters extrusion width = 0.46mm
; infill extrusion width = 0.44mm
; solid infill extrusion width = 0.46mm
; top infill extrusion width = 0.44mm
; first layer extrusion width = 0.60mm

; object:{"name":"Black - Bearing Holder","id":"Black - Bearing Holder.stl id:0 copy 0","object_center":[101.135696,131.311346,0.000000],"boundingbox_center":[101.135696,131.311346,12.000000],"boundingbox_size":[28.000000,21.622692,24.000000]}
; object:{"name":"Black - Bearing Holder","id":"Black - Bearing Holder.stl id:0 copy 1","object_center":[101.135696,103.688654,0.000000],"boundingbox_center":[101.135696,103.688654,12.000000],"boundingbox_size":[28.000000,21.622692,24.000000]}
; object:{"name":"Black - Bearing Holder","id":"Black - Bearing Holder.stl id:0 copy 2","object_center":[133.864305,117.500000,0.000000],"boundingbox_center":[133.864305,117.500000,12.000000],"boundingbox_size":[28.000000,21.622692,24.000000]}
; plater:{"center":[117.500000,117.500000,0.000000],"boundingbox_center":[117.500000,117.500000,12.000000],"boundingbox_size":[60.728609,49.245384,24.000000]}

M140 S60 ; set bed temperature
M104 S190 T0 ; set temperature
;TYPE:Custom
G28 ; home all axes
G1 Z5 F5000 ; lift nozzle
M127
; Filament gcode
M109 S60 ; set bed temperature and wait for it to be reached
M127
;LAYER_CHANGE
;Z:0.3
;HEIGHT:0.3
M73 P0
G1 Z0.3 F7800
G1 E-2 F2400
M103 ; extruder off
G1 X82.484 Y88.797 F7800
M101 ; extruder on
G1 E0 F2400
;TYPE:Skirt
;WIDTH:0.44
G1 F1800
G1 X81.345 Y90.697 E0.10381
G1 X80.948 Y92.877 E0.20763
G1 X80.948 Y130.324 E1.962
G1 X81.155 Y131.912 E2.037
G1 X82.098 Y133.917 E2.14081
G1 X87.665 Y141.723 E2.58998
G1 X88.218 Y142.394 E2.63072
G1 X89.324 Y143.557 E2.70594
G1 X91.264 Y145.158 E2.82377
G1 X93.418 Y146.457 E2.9416
G1 X95.739 Y147.425 E3.05943
G1 X98.178 Y148.042 E3.17726
G1 X99.079 Y148.175 E3.21995
G1 X101.591 Y148.294 E3.33778
G1 X104.094 Y148.042 E3.45561
G1 X106.532 Y147.425 E3.57344
G1 X108.207 Y146.775 E3.6576
G1 X141.582 Y132.645 E5.35556
G1 X143.736 Y131.347 E5.47339
G1 X145.001 Y130.358 E5.54861
G1 X146.782 Y128.583 E5.66643
G1 X147.335 Y127.912 E5.70718
G1 X152.902 Y120.106 E6.15635
G1 X153.655 Y118.693 E6.23135
G1 X154.052 Y116.513 E6.33516
G1 X154.052 Y106.689 E6.79543
G1 X153.432 Y103.99 E6.92517
G1 X152.124 Y102.201 E7.02898
G1 X150.27 Y100.988 E7.1328
G1 X117.541 Y87.176 E8.79705
G1 X115.136 Y86.689 E8.91204
G1 X87.136 Y86.689 E10.22382
G1 X84.22 Y87.419 E10.36464
G1 X82.531 Y88.759 E10.46564
G1 E8.46564 F2400
M103 ; extruder off
; printing object Black - Bearing Holder.stl id:0 copy 0
G1 X88.517 Y121.881 F7800
M101 ; extruder on
G1 E10.46564 F2400
;TYPE:Internal perimeter
;WIDTH:0.604
G1 F1800
G1 X93.856 Y121.881 E10.82497
G1 X93.856 Y125.764 E11.08631
G1 X93.174 Y126.653 E11.16168
G1 X92.256 Y128.87 E11.3232
G1 X91.943 Y131.249 E11.48473
G1 X92.256 Y133.628 E11.64625
G1 X93.083 Y135.625 E11.79173
G1 X92.746 Y135.812 E11.81766
G1 X88.517 Y129.882 E12.30788
G1 X88.517 Y121.941 E12.84234
G1 E10.84234 F2400
M103 ; extruder off
G1 X108.415 Y121.881 F7800
M101 ; extruder on
G1 E12.84234 F2400
G1 F1800
G1 X113.754 Y121.881 E13.20168
G1 X113.754 Y129.882 E13.74018
G1 X109.525 Y135.812 E14.2304
G1 X109.188 Y135.626 E14.25634
G1 X110.016 Y133.628 E14.40183
G1 X110.329 Y131.249 E14.56335
G1 X110.016 Y128.87 E14.72487
G1 X109.097 Y126.653 E14.8864
G1 X108.415 Y125.764 E14.96177
G1 X108.415 Y121.941 E15.21906
G1 E13.21906 F2400
M103 ; extruder off
G1 X87.977 Y121.342 F7800
M101 ; extruder on
G1 E15.21906 F2400
G1 F1800
G1 X94.396 Y121.342 E15.65104
G1 X94.396 Y125.947 E15.96102
G1 X93.646 Y126.925 E16.04394
G1 X92.782 Y129.011 E16.1959
G1 X92.487 Y131.249 E16.34786
G1 X92.782 Y133.488 E16.49982
G1 X93.646 Y135.574 E16.65178
G1 X95.02 Y137.365 E16.80374
G1 X96.811 Y138.739 E16.9557
G1 X98.877 Y139.595 E17.10618
G1 X101.135 Y139.898 E17.25953
G1 X103.374 Y139.603 E17.41153
G1 X105.46 Y138.739 E17.56349
G1 X107.251 Y137.365 E17.71545
G1 X108.626 Y135.574 E17.86742
G1 X109.49 Y133.488 E18.01938
G1 X109.785 Y131.249 E18.17134
G1 X109.49 Y129.011 E18.3233
G1 X108.626 Y126.925 E18.47526
G1 X107.876 Y125.947 E18.55818
G1 X107.876 Y121.342 E18.86816
G1 X114.294 Y121.342 E19.30013
G1 X114.294 Y130.055 E19.88658
G1 X108.918 Y137.593 E20.50974
G1 X107.896 Y138.669 E20.60962
G1 X106.728 Y139.581 E20.70931
G1 X105.44 Y140.311 E20.80901
G1 X104.058 Y140.845 E20.9087
G1 X102.613 Y141.17 E21.00839
G1 X101.136 Y141.279 E21.10809
G1 X99.658 Y141.17 E21.20778
G1 X98.213 Y140.845 E21.30747
G1 X96.832 Y140.311 E21.40716
G1 X95.543 Y139.581 E21.50686
G1 X94.376 Y138.669 E21.60655
G1 X93.353 Y137.593 E21.70644
G1 X87.977 Y130.055 E22.32959
G1 X87.977 Y121.402 E22.912
G1 X87.438 Y120.802 F7800
M101 ; extruder on
;TYPE:External perimeter
G1 F1800
G1 X94.935 Y120.802 E23.41661
G1 X94.935 Y126.13 E23.77524
G1 X94.117 Y127.197 E23.86571
G1 X93.307 Y129.152 E24.00811
G1 X93.031 Y131.249 E24.1505
G1 X93.307 Y133.347 E24.2929
G1 X94.117 Y135.301 E24.4353
G1 X95.405 Y136.98 E24.5777
G1 X97.083 Y138.268 E24.72009
G1 X99.018 Y139.069 E24.86106
G1 X101.136 Y139.354 E25.00484
G1 X103.233 Y139.078 E25.14724
G1 X105.188 Y138.268 E25.28963
G1 X106.867 Y136.98 E25.43203
G1 X108.154 Y135.301 E25.57443
G1 X108.964 Y133.347 E25.71683
G1 X109.24 Y131.249 E25.85922
G1 X108.964 Y129.152 E26.00162
G1 X108.154 Y127.197 E26.14402
G1 X107.336 Y126.13 E26.23449
G1 X107.336 Y120.802 E26.59311
G1 X114.834 Y120.802 E27.09773
G1 X114.834 Y130.228 E27.73211
G1 X109.335 Y137.938 E28.36946
G1 X108.259 Y139.069 E28.47458
G1 X107.029 Y140.03 E28.57964
G1 X105.671 Y140.8 E28.68469
G1 X104.215 Y141.363 E28.78975
G1 X102.692 Y141.705 E28.8948
G1 X101.136 Y141.82 E28.99986
G1 X99.579 Y141.705 E29.10492
G1 X98.056 Y141.363 E29.20997
G1 X96.6 Y140.8 E29.31503
G1 X95.242 Y140.03 E29.42008
G1 X94.012 Y139.069 E29.52514
G1 X92.936 Y137.937 E29.63026
G1 X87.438 Y130.228 E30.2676
G1 X87.438 Y120.862 E30.89795
;WIPE_START
G1 X87.784 Y121.002 F7800
;WIPE_END
G1 E28.89795 F2400
M103 ; extruder off
G1 X93.694 Y123.134 F7800
M101 ; extruder on
G1 E30.89795 F2400
;TYPE:Solid infill
;WIDTH:0.602224
G1 F1800
G1 X92.835 Y122.275 E30.97945
G1 X92.072 Y122.275 E31.03066
G1 X93.462 Y123.665 E31.16257
G1 X93.462 Y124.428 E31.21378
G1 X91.309 Y122.275 E31.41811
G1 X90.546 Y122.275 E31.46932
G1 X93.462 Y125.191 E31.74607
G1 X93.462 Y125.63 E31.77554
G1 X93.321 Y125.814 E31.79104
G1 X89.783 Y122.275 E32.12687
G1 X89.02 Y122.275 E32.17808
G1 X92.99 Y126.246 E32.55488
G1 X92.83 Y126.454 E32.57251
G1 X92.714 Y126.733 E32.59279
G1 X88.911 Y122.929 E32.95376
G1 X88.911 Y123.693 E33.00498
G1 X92.491 Y127.273 E33.34474
G1 X92.267 Y127.812 E33.38393
G1 X88.911 Y124.456 E33.70249
G1 X88.911 Y125.219 E33.7537
G1 X92.044 Y128.352 E34.05104
G1 X91.872 Y128.767 E34.08118
G1 X91.852 Y128.923 E34.09172
G1 X88.911 Y125.982 E34.3708
G1 X88.911 Y126.745 E34.42201
G1 X91.763 Y129.597 E34.69267
G1 X91.674 Y130.271 E34.73831
G1 X88.911 Y127.508 E35.00054
G1 X88.911 Y128.271 E35.05175
G1 X91.585 Y130.946 E35.30556
G1 X91.545 Y131.249 E35.32609
G1 X91.609 Y131.733 E35.35881
G1 X88.911 Y129.035 E35.61487
G1 X88.911 Y129.756 E35.6633
G1 X89.014 Y129.901 E35.67523
G1 X91.725 Y132.611 E35.93246
G1 X91.84 Y133.49 E35.99195
G1 X89.918 Y131.568 E36.1744
G1 E34.1744 F2400
M103 ; extruder off
G1 X93.029 Y135.939 F7800
M101 ; extruder on
G1 E36.1744 F2400
;TYPE:Gap fill
;WIDTH:0.91008
G1 F1800
G1 X93.171 Y136.125 E36.19915
M101 ; extruder on
;WIDTH:0.992757
G1 X93.314 Y136.312 E36.22632
G1 X93.616 Y136.72 E36.28507
M101 ; extruder on
;WIDTH:1.028271
G1 X93.918 Y137.127 E36.34607
G1 X94.208 Y137.467 E36.39977
M101 ; extruder on
;WIDTH:0.936818
G1 X94.498 Y137.806 E36.44836
G1 X94.538 Y137.847 E36.45455
G1 X94.578 Y137.888 E36.46074
G1 X94.717 Y138.013 E36.48116
M101 ; extruder on
;WIDTH:1.007418
G1 X94.857 Y138.139 E36.50324
G1 X95.944 Y138.981 E36.66502
G1 X96.184 Y139.14 E36.69883
M101 ; extruder on
;WIDTH:0.926917
G1 X96.423 Y139.298 E36.72974
G1 X96.472 Y139.326 E36.7358
G1 X96.521 Y139.354 E36.74186
G1 X96.831 Y139.506 E36.77898
M101 ; extruder on
;WIDTH:1.011856
G1 X97.141 Y139.657 E36.81976
G1 X97.78 Y139.913 E36.90106
M101 ; extruder on
;WIDTH:0.978524
G1 X98.419 Y140.168 E36.9795
G1 X98.532 Y140.204 E36.99302
M101 ; extruder on
;WIDTH:0.933137
G1 X98.645 Y140.24 E37.00586
G1 X98.754 Y140.267 E37.01806
G1 X99.26 Y140.358 E37.07374
M101 ; extruder on
;WIDTH:1.023138
G1 X99.766 Y140.448 E37.13518
G1 X100.421 Y140.516 E37.21396
M101 ; extruder on
;WIDTH:0.944471
G1 X101.076 Y140.584 E37.28628
G1 X101.136 Y140.589 E37.29283
G1 X101.192 Y140.585 E37.29904
G1 X101.849 Y140.517 E37.37153
M101 ; extruder on
;WIDTH:1.020018
G1 X102.506 Y140.45 E37.45025
G1 X103.001 Y140.362 E37.51014
M101 ; extruder on
;WIDTH:0.934055
G1 X103.495 Y140.274 E37.56464
G1 X103.55 Y140.26 E37.57078
G1 X103.605 Y140.247 E37.57692
G1 X103.729 Y140.208 E37.59099
M101 ; extruder on
;WIDTH:0.978524
G1 X103.853 Y140.168 E37.60578
G1 X104.491 Y139.913 E37.68422
M101 ; extruder on
;WIDTH:1.011857
G1 X105.13 Y139.657 E37.76553
G1 X105.44 Y139.506 E37.8063
M101 ; extruder on
;WIDTH:0.927795
G1 X105.75 Y139.354 E37.84346
G1 X105.799 Y139.326 E37.84952
G1 X105.848 Y139.298 E37.85559
G1 X106.088 Y139.14 E37.88654
M101 ; extruder on
;WIDTH:0.995383
G1 X106.327 Y138.981 E37.91991
G1 X106.871 Y138.56 E37.99977
G1 X107.415 Y138.139 E38.07963
G1 X107.554 Y138.013 E38.10143
M101 ; extruder on
;WIDTH:0.933953
G1 X107.694 Y137.888 E38.12178
G1 X107.734 Y137.847 E38.12795
G1 X107.773 Y137.806 E38.13412
G1 X108.063 Y137.467 E38.18255
M101 ; extruder on
;WIDTH:1.028306
G1 X108.354 Y137.127 E38.23625
G1 X108.655 Y136.72 E38.29724
M101 ; extruder on
;WIDTH:0.992794
G1 X108.957 Y136.312 E38.35599
G1 X109.1 Y136.126 E38.38316
M101 ; extruder on
;WIDTH:0.910111
G1 X109.243 Y135.939 E38.40791
G1 E36.40791 F2400
M103 ; extruder off
G1 X113.593 Y123.134 F7800
M101 ; extruder on
G1 E38.40791 F2400
;TYPE:Solid infill
;WIDTH:0.601378
G1 F1800
G1 X112.734 Y122.275 E38.4893
G1 X111.971 Y122.275 E38.54044
G1 X113.361 Y123.665 E38.67216
G1 X113.361 Y124.428 E38.7233
G1 X111.208 Y122.275 E38.92734
G1 X110.444 Y122.275 E38.97847
G1 X113.361 Y125.191 E39.25484
G1 X113.361 Y125.954 E39.30598
G1 X109.681 Y122.275 E39.65466
G1 X108.918 Y122.275 E39.7058
G1 X113.361 Y126.718 E40.12681
G1 X113.361 Y127.481 E40.17795
G1 X108.809 Y122.929 E40.60926
G1 X108.809 Y123.693 E40.6604
G1 X113.361 Y128.244 E41.09172
G1 X113.361 Y129.007 E41.14286
G1 X108.809 Y124.456 E41.57417
G1 X108.809 Y125.219 E41.62531
G1 X113.355 Y129.764 E42.05608
G1 X113.037 Y130.21 E42.09274
G1 X109.554 Y126.727 E42.4228
G1 X110.094 Y128.03 E42.51729
G1 X112.719 Y130.655 E42.7661
G1 X112.402 Y131.101 E42.80276
G1 X110.45 Y129.149 E42.98777
G1 X110.565 Y130.027 E43.04717
G1 X112.084 Y131.546 E43.1911
G1 X111.766 Y131.992 E43.22777
G1 X110.681 Y130.906 E43.33063
G1 X110.726 Y131.249 E43.35381
G1 X110.672 Y131.66 E43.38161
G1 X111.449 Y132.437 E43.45521
G1 X111.131 Y132.883 E43.49188
G1 X110.583 Y132.335 E43.5438
G1 X110.494 Y133.009 E43.58938
G1 X110.813 Y133.328 E43.6196
G1 X110.496 Y133.773 E43.65626
G1 X110.199 Y133.477 E43.68439
G1 E41.68439 F2400
M103 ; extruder off
; stop printing object Black - Bearing Holder.stl id:0 copy 0
; printing object Black - Bearing Holder.stl id:0 copy 1
G1 X93.856 Y94.259 F7800
M101 ; extruder on
G1 E43.68439 F2400
;TYPE:Internal perimeter
;WIDTH:0.604
G1 F1800
G1 X93.856 Y98.141 E43.94573
G1 X93.174 Y99.03 E44.0211
G1 X92.256 Y101.247 E44.18262
G1 X91.943 Y103.626 E44.34415
G1 X92.256 Y106.006 E44.50567
G1 X93.083 Y108.003 E44.65115
G1 X92.746 Y108.19 E44.67708
G1 X88.517 Y102.26 E45.1673
G1 X88.517 Y94.259 E45.7058
G1 X93.796 Y94.259 E46.0611
G1 E44.0611 F2400
M103 ; extruder off
G1 X108.415 Y94.259 F7800
M101 ; extruder on
G1 E46.0611 F2400
G1 F1800
G1 X113.754 Y94.259 E46.42044
G1 X113.754 Y102.26 E46.95894
G1 X109.525 Y108.19 E47.44916
G1 X109.188 Y108.003 E47.47509
G1 X110.016 Y106.006 E47.62058
G1 X110.329 Y103.626 E47.78211
G1 X110.016 Y101.247 E47.94363
G1 X109.097 Y99.03 E48.10515
G1 X108.415 Y98.141 E48.18053
G1 X108.415 Y94.319 E48.43782
G1 X107.876 Y93.719 F7800
M101 ; extruder on
G1 F1800
G1 X114.294 Y93.719 E48.8698
G1 X114.294 Y102.432 E49.45624
G1 X108.918 Y109.971 E50.0794
G1 X107.896 Y111.046 E50.17929
G1 X106.728 Y111.958 E50.27898
G1 X105.44 Y112.689 E50.37867
G1 X104.058 Y113.222 E50.47837
G1 X102.613 Y113.547 E50.57806
G1 X101.136 Y113.656 E50.67775
G1 X99.658 Y113.547 E50.77744
G1 X98.213 Y113.222 E50.87714
G1 X96.832 Y112.689 E50.97683
G1 X95.543 Y111.958 E51.07652
G1 X94.376 Y111.046 E51.17622
G1 X93.353 Y109.971 E51.2761
G1 X87.977 Y102.432 E51.89926
G1 X87.977 Y93.719 E52.48571
G1 X94.396 Y93.719 E52.91768
G1 X94.396 Y98.325 E53.22766
G1 X93.646 Y99.302 E53.31058
G1 X92.782 Y101.388 E53.46254
G1 X92.487 Y103.626 E53.6145
G1 X92.782 Y105.865 E53.76646
G1 X93.646 Y107.951 E53.91842
G1 X95.02 Y109.742 E54.07038
G1 X96.811 Y111.117 E54.22234
G1 X98.877 Y111.972 E54.37282
G1 X101.135 Y112.275 E54.52617
G1 X103.374 Y111.981 E54.67817
G1 X105.46 Y111.117 E54.83013
G1 X107.251 Y109.742 E54.9821
G1 X108.626 Y107.951 E55.13406
G1 X109.49 Y105.865 E55.28602
G1 X109.785 Y103.626 E55.43798
G1 X109.49 Y101.388 E55.58994
G1 X108.626 Y99.302 E55.7419
G1 X107.876 Y98.325 E55.82482
G1 X107.876 Y93.779 E56.13076
G1 X107.336 Y93.179 F7800
M101 ; extruder on
;TYPE:External perimeter
G1 F1800
G1 X114.834 Y93.179 E56.63537
G1 X114.834 Y102.605 E57.26976
G1 X109.335 Y110.315 E57.9071
G1 X108.259 Y111.447 E58.01223
G1 X107.029 Y112.408 E58.11728
G1 X105.671 Y113.178 E58.22234
G1 X104.215 Y113.74 E58.32739
G1 X102.692 Y114.082 E58.43245
G1 X101.136 Y114.197 E58.5375
G1 X99.579 Y114.082 E58.64256
G1 X98.056 Y113.74 E58.74762
G1 X96.6 Y113.178 E58.85267
G1 X95.242 Y112.408 E58.95773
G1 X94.012 Y111.447 E59.06278
G1 X92.936 Y110.315 E59.16791
G1 X87.438 Y102.605 E59.80525
G1 X87.438 Y93.179 E60.43964
G1 X94.935 Y93.179 E60.94425
G1 X94.935 Y98.508 E61.30288
G1 X94.117 Y99.574 E61.39334
G1 X93.307 Y101.529 E61.53574
G1 X93.031 Y103.626 E61.67814
G1 X93.307 Y105.724 E61.82053
G1 X94.117 Y107.679 E61.96293
G1 X95.405 Y109.357 E62.10533
G1 X97.083 Y110.645 E62.24773
G1 X99.018 Y111.447 E62.38869
G1 X101.136 Y111.731 E62.53247
G1 X103.233 Y111.455 E62.67487
G1 X105.188 Y110.645 E62.81727
G1 X106.867 Y109.357 E62.95967
G1 X108.154 Y107.679 E63.10206
G1 X108.964 Y105.724 E63.24446
G1 X109.24 Y103.626 E63.38686
G1 X108.964 Y101.529 E63.52926
G1 X108.154 Y99.574 E63.67165
G1 X107.336 Y98.508 E63.76212
G1 X107.336 Y93.239 E64.11671
;WIPE_START
G1 X107.683 Y93.379 F7800
;WIPE_END
G1 E62.11671 F2400
M103 ; extruder off
G1 X113.593 Y95.511 F7800
M101 ; extruder on
G1 E64.11671 F2400
;TYPE:Solid infill
;WIDTH:0.601378
G1 F1800
G1 X112.734 Y94.652 E64.1981
G1 X111.971 Y94.652 E64.24924
G1 X113.361 Y96.042 E64.38095
G1 X113.361 Y96.805 E64.43209
G1 X111.208 Y94.652 E64.63613
G1 X110.444 Y94.652 E64.68727
G1 X113.361 Y97.569 E64.96363
G1 X113.361 Y98.332 E65.01477
G1 X109.681 Y94.652 E65.36346
G1 X108.918 Y94.652 E65.4146
G1 X113.361 Y99.095 E65.8356
G1 X113.361 Y99.858 E65.88674
G1 X108.809 Y95.307 E66.31806
G1 X108.809 Y96.07 E66.3692
G1 X113.361 Y100.621 E66.80051
G1 X113.361 Y101.384 E66.85165
G1 X108.809 Y96.833 E67.28297
G1 X108.809 Y97.596 E67.33411
G1 X113.355 Y102.142 E67.76488
G1 X113.037 Y102.587 E67.80154
G1 X109.554 Y99.104 E68.1316
G1 X110.094 Y100.407 E68.22609
G1 X112.719 Y103.033 E68.4749
G1 X112.402 Y103.478 E68.51156
G1 X110.45 Y101.526 E68.69657
G1 X110.565 Y102.405 E68.75597
G1 X112.084 Y103.923 E68.8999
G1 X111.766 Y104.369 E68.93657
G1 X110.681 Y103.284 E69.03943
G1 X110.726 Y103.626 E69.06261
G1 X110.672 Y104.038 E69.0904
G1 X111.449 Y104.814 E69.16401
G1 X111.131 Y105.26 E69.20068
G1 X110.583 Y104.712 E69.25259
G1 X110.494 Y105.386 E69.29817
G1 X110.813 Y105.705 E69.3284
G1 X110.496 Y106.151 E69.36506
G1 X110.199 Y105.854 E69.39319
G1 E67.39319 F2400
M103 ; extruder off
G1 X109.243 Y108.317 F7800
M101 ; extruder on
G1 E69.39319 F2400
;TYPE:Gap fill
