; generated by SuperSlicer 2.3.57 on 2022-03-16 at 08:30:33 UTC

; 

; external perimeters extrusion width = 0.45mm
; perimeters extrusion width = 0.45mm
; infill extrusion width = 0.45mm
; solid infill extrusion width = 0.45mm
; top infill extrusion width = 0.40mm
; first layer extrusion width = 0.42mm

; object:{"name":"Blue - LCD Suporte L","id":"Blue - LCD Suporte L.stl id:0 copy 0","object_center":[149.366899,129.366899,0.000000],"boundingbox_center":[149.366899,129.366899,8.750000],"boundingbox_size":[51.618797,62.556339,17.500000]}
; object:{"name":"Blue - LCD Suporte R","id":"Blue - LCD Suporte R.stl id:1 copy 0","object_center":[100.633101,80.633102,0.000000],"boundingbox_center":[100.633101,80.633102,8.750000],"boundingbox_size":[51.618797,62.556339,17.500000]}
; Total objects to print: 2
M486 T2
; plater:{"center":[125.000000,105.000000,0.000000],"boundingbox_center":[125.000000,105.000000,8.750000],"boundingbox_size":[100.352595,111.290136,17.500000]}

M73 P0 R97
M73 Q0 S98
;TYPE:Custom
M862.3 P "MK3S" ; printer model check
M862.1 P0.4 ; nozzle diameter check
M115 U3.10.0 ; tell printer latest fw version
G90 ; use absolute coordinates
M83 ; extruder relative mode
M104 S230 ; set extruder temp
M140 S85 ; set bed temp
M190 S85 ; wait for bed temp
M109 S230 ; wait for extruder temp
G28 W ; home all without mesh bed level
G80 ; mesh bed leveling
G1 Y-3.0 F1000.0 ; go outside print area
G92 E0.0
G1 X60.0 E9.0 F1000.0 ; intro line
G1 X100.0 E12.5 F1000.0 ; intro line
G92 E0.0
M221 S95

; Don't change E values below. Excessive value can damage the printer.
M907 E430 ; set extruder motor current
M107
G21 ; set units to millimeters
G90 ; use absolute coordinates
M83 ; use relative distances for extrusion
M900 K0.08 ; Filament gcode LA 1.5
M900 K45 ; Filament gcode LA 1.0
;LAYER_CHANGE
;Z:0.2
;HEIGHT:0.2
;BEFORE_LAYER_CHANGE
G92 E0.0
;0.2


G1 E-1 F2100
G1 Z0.2 F10800
G1 Z0.2
;AFTER_LAYER_CHANGE
;0.2
G1 Z0.4
M204 P1500
G1 X72.782 Y49.849
G1 Z0.2
G1 E1 F2100
;TYPE:Skirt
;WIDTH:0.45
G1 F1200
G1 X72.402 Y50.502 E0.02558
G1 X72.224 Y51.241 E0.02572
G1 X72.213 Y106.503 E1.87054
G1 X72.364 Y107.352 E0.02919
G1 X72.786 Y108.108 E0.02932
G1 X78.539 Y113.876 E0.27574
G1 X134.909 Y162.62 E2.52249
G1 X135.351 Y162.928 E0.01825
G1 X135.953 Y163.17 E0.02197
G1 X136.592 Y163.256 E0.02183
G1 X169.76 Y163.256 E1.12268
G1 X170.617 Y163.105 E0.02945
G1 X171.376 Y162.68 E0.02945
G1 X177.131 Y156.941 E0.2751
G1 X177.574 Y156.243 E0.02799
G1 X177.776 Y155.445 E0.02785
G1 X177.787 Y100.183 E1.87054
G1 X177.634 Y99.331 E0.02932
G1 X177.214 Y98.578 E0.02919
G1 X174.853 Y96.196 E0.11353
G1 X174.267 Y95.777 E0.02438
G1 X79.547 Y47.03 E3.60583
G1 X78.972 Y46.817 E0.02076
G1 X78.363 Y46.744 E0.02076
G1 X76.505 Y46.782 E0.0629
G1 X75.925 Y46.952 E0.02049
G1 X75.402 Y47.249 E0.02036
G1 X72.825 Y49.807 E0.12291
G1 X72.97 Y49.945 F10800
M204 P1000
G1 X73.116 Y50.084
G1 F1200
G1 X72.782 Y50.646 E0.02214
G1 X72.628 Y51.286 E0.02226
G1 X72.62 Y106.494 E1.86874
G1 X72.748 Y107.217 E0.02483
G1 X73.106 Y107.857 E0.02483
G1 X78.806 Y113.568 E0.27313
G1 X135.175 Y162.312 E2.52244
G1 X135.545 Y162.571 E0.01529
G1 X136.054 Y162.776 E0.01857
G1 X136.598 Y162.849 E0.01857
G1 X169.756 Y162.849 E1.12234
M73 P0 R96
G1 X170.482 Y162.72 E0.02496
G1 X171.122 Y162.362 E0.02483
G1 X176.815 Y156.683 E0.27218
G1 X177.196 Y156.091 E0.02386
G1 X177.371 Y155.408 E0.02386
G1 X177.38 Y100.192 E1.86899
G1 X177.252 Y99.47 E0.02483
G1 X176.894 Y98.829 E0.02483
G1 X174.578 Y96.496 E0.11125
G1 X174.08 Y96.138 E0.02079
G1 X79.362 Y47.393 E3.60572
M73 Q0 S97
G1 X78.875 Y47.213 E0.01759
G1 X78.363 Y47.151 E0.01746
G1 X76.609 Y47.177 E0.05936
G1 X76.109 Y47.316 E0.01759
G1 X75.658 Y47.567 E0.01746
G1 X73.159 Y50.042 E0.11905
; INIT printing object Blue - LCD Suporte L.stl id:0 copy 0
;WIPE_START
G1 F8640
G1 X72.782 Y50.646 E-0.16446
G1 X72.628 Y51.286 E-0.15185
G1 X72.628 Y54.03 E-0.63369
;WIPE_END
G1 E-0.05 F2100
G1 Z0.4 F10800
; printing object Blue - LCD Suporte L.stl id:0 copy 0
M486 S0
M204 P1500
G1 X114.383 Y89.108
M204 P1000
G1 X155.607 Y128.174
G1 Z0.2
G1 E1 F2100
;TYPE:Internal perimeter
;WIDTH:0.42
G1 F1200
G1 X155.607 Y151.423 E0.72894
G1 X157.044 Y152.018 E0.04878
G1 X170.34 Y138.722 E0.58959
G1 X170.34 Y115.473 E0.72894
G1 X168.903 Y114.878 E0.04878
G1 X168.009 Y115.772 E0.03967
G1 X155.649 Y128.132 E0.54804
M204 P1500
G1 X155.816 Y128.231 F10800
M204 P1000
G1 X155.984 Y128.331
G1 F1200
G1 X155.984 Y151.171 E0.71615
G1 X156.955 Y151.573 E0.03298
G1 X169.963 Y138.565 E0.5768
G1 X169.963 Y115.725 E0.71615
G1 X168.992 Y115.323 E0.03298
G1 X168.275 Y116.039 E0.03177
G1 X156.026 Y128.288 E0.54315
M204 P1500
G1 X156.193 Y128.387 F10800
M204 P1000
G1 X156.361 Y128.487
;TYPE:External perimeter
G1 F1200
G1 X156.361 Y150.919 E0.70335
G1 X156.867 Y151.129 E0.01718
G1 X169.586 Y138.409 E0.564
G1 X169.586 Y115.977 E0.70335
G1 X169.08 Y115.767 E0.01718
G1 X168.542 Y116.306 E0.02387
G1 X156.403 Y128.444 E0.53825
G1 X155.974 Y128.59 F10800
;WIPE_START
G1 F8640
G1 X156.395 Y132.559 E-0.95
;WIPE_END
G1 E-0.05 F2100
G1 Z0.4 F10800
M204 P1500
G1 X154.838 Y126.88
M204 P1000
G1 X153.274 Y125.315
G1 Z0.2
G1 E1 F2100
;TYPE:Internal perimeter
G1 F1200
G1 X171.108 Y107.48 E0.7908
M73 P1 R96
M73 Q1 S97
G1 X171.108 Y105.809 E0.05241
G1 X170.529 Y105.231 E0.02565
G1 X174.012 Y101.748 E0.15443
G1 X174.012 Y154.728 E1.66115
G1 X169.259 Y159.481 E0.21076
G1 X137.099 Y159.481 E1.00837
G1 X126.689 Y149.071 E0.46159
G1 X129.285 Y146.475 E0.11512
G1 X135.477 Y152.667 E0.27457
G1 X145.584 Y152.667 E0.31688
G1 X151.266 Y146.985 E0.25195
G1 X151.266 Y127.323 E0.61651
G1 X153.231 Y125.357 E0.08715
M204 P1500
G1 X153.098 Y125.224 F10800
M204 P1000
G1 X152.965 Y125.091
G1 F1200
G1 X170.731 Y107.324 E0.78779
G1 X170.731 Y105.965 E0.04261
G1 X169.996 Y105.231 E0.03258
G1 X174.239 Y100.988 E0.18813
G1 X172.127 Y98.876 E0.09365
G1 X172.729 Y98.876 E0.01888
G1 X173.206 Y99.352 E0.02113
G1 X174.389 Y100.536 E0.05249
G1 X174.389 Y154.884 E1.70404
G1 X169.415 Y159.858 E0.22055
G1 X136.942 Y159.858 E1.01816
G1 X124.345 Y147.26 E0.55861
G1 X124.345 Y146.658 E0.01888
G1 X126.457 Y148.77 E0.09365
G1 X129.285 Y145.942 E0.12542
G1 X135.634 Y152.29 E0.2815
G1 X145.428 Y152.29 E0.30709
G1 X150.889 Y146.829 E0.24215
G1 X150.889 Y127.166 E0.61651
G1 X152.922 Y125.133 E0.09016
M204 P1500
G1 X152.789 Y125. F10800
M204 P1000
G1 X152.655 Y124.866
;TYPE:External perimeter
G1 F1200
G1 X170.354 Y107.168 E0.78477
G1 X170.354 Y106.121 E0.03282
G1 X169.647 Y105.414 E0.03135
G1 X169.647 Y105.047 E0.01152
G1 X173.706 Y100.988 E0.17998
G1 X171.994 Y99.277 E0.07588
G1 X170.227 Y101.044 E0.07839
G1 X169.746 Y100.564 E0.02132
G1 X171.811 Y98.499 E0.09156
G1 X172.885 Y98.499 E0.03369
G1 X173.472 Y99.086 E0.02603
G1 X174.766 Y100.38 E0.05738
G1 X174.766 Y155.04 E1.71384
G1 X169.571 Y160.235 E0.23035
G1 X136.786 Y160.235 E1.02796
G1 X123.967 Y147.416 E0.5684
G1 X123.967 Y146.342 E0.03369
G1 X126.032 Y144.277 E0.09156
G1 X126.513 Y144.758 E0.02132
G1 X124.745 Y146.526 E0.07839
G1 X126.457 Y148.237 E0.07588
G1 X129.101 Y145.592 E0.11727
G1 X129.469 Y145.592 E0.01152
G1 X135.79 Y151.913 E0.28028
G1 X145.271 Y151.913 E0.29729
G1 X150.512 Y146.673 E0.23236
G1 X150.512 Y127.01 E0.61651
G1 X152.613 Y124.909 E0.09318
G1 X153.042 Y124.97 F10800
;WIPE_START
G1 F8640
G1 X155.522 Y122. E-0.95
;WIPE_END
G1 E-0.05 F2100
G1 Z0.4 F10800
M204 P1500
G1 X161.361 Y112.795
M204 P1000
G1 X170.109 Y100.681
G1 Z0.2
G1 E1 F2100
;TYPE:Gap fill
;WIDTH:0.376083
G1 F1200
G1 X170.227 Y100.564 E0.00461
G1 X171.78 Y99.01 E0.06086
G1 X171.898 Y98.892 E0.00461
;WIPE_START
G1 F8640
G1 X171.78 Y99.01 E-0.03846
G1 X170.227 Y100.564 E-0.50731
G1 X170.109 Y100.681 E-0.03846
;WIPE_END
G1 E-0.41576 F2100
G1 Z0.4 F10800
M204 P1500
G1 X172.715 Y100.64
M204 P1000
G1 X173.531 Y102.389
G1 Z0.2
G1 E1 F2100
;TYPE:Solid infill
;WIDTH:0.424156
G1 F1200
G1 X173.737 Y102.594 E0.00921
G1 X173.737 Y103.128 E0.01689
G1 X173.379 Y102.77 E0.01602
G1 X173.113 Y103.037 E0.01194
G1 X173.737 Y103.661 E0.02796
G1 X173.737 Y104.194 E0.01689
G1 X172.846 Y103.303 E0.0399
G1 X172.579 Y103.57 E0.01194
G1 X173.737 Y104.727 E0.05184
G1 X173.737 Y105.261 E0.01689
G1 X172.313 Y103.836 E0.06378
G1 X172.046 Y104.103 E0.01194
G1 X173.737 Y105.794 E0.07572
G1 X173.737 Y106.327 E0.01689
G1 X171.779 Y104.37 E0.08766
G1 X171.513 Y104.636 E0.01194
G1 X173.737 Y106.86 E0.0996
G1 X173.737 Y107.394 E0.01689
G1 X171.246 Y104.903 E0.11154
G1 X170.98 Y105.17 E0.01194
G1 X173.737 Y107.927 E0.12348
G1 X173.737 Y108.46 E0.01689
G1 X171.383 Y106.107 E0.1054
G1 X171.383 Y106.64 E0.01689
G1 X173.737 Y108.994 E0.1054
G1 X173.737 Y109.527 E0.01689
G1 X171.383 Y107.173 E0.1054
G1 X171.383 Y107.594 E0.01334
G1 X171.327 Y107.65 E0.0025
G1 X173.737 Y110.06 E0.10791
G1 X173.737 Y110.593 E0.01689
G1 X171.061 Y107.917 E0.11985
G1 X170.794 Y108.184 E0.01194
G1 X173.737 Y111.127 E0.13179
M73 P1 R95
G1 X173.737 Y111.66 E0.01689
G1 X170.527 Y108.45 E0.14373
G1 X170.261 Y108.717 E0.01194
G1 X173.737 Y112.193 E0.15567
G1 X173.737 Y112.726 E0.01689
G1 X169.994 Y108.984 E0.16761
G1 X169.727 Y109.25 E0.01194
G1 X173.737 Y113.26 E0.17955
G1 X173.737 Y113.793 E0.01689
G1 X169.461 Y109.517 E0.19149
G1 X169.194 Y109.783 E0.01194
G1 X173.737 Y114.326 E0.20343
G1 X173.737 Y114.86 E0.01689
G1 X168.927 Y110.05 E0.21537
G1 X168.661 Y110.317 E0.01194
G1 X173.737 Y115.393 E0.22731
G1 X173.737 Y115.926 E0.01689
G1 X168.394 Y110.583 E0.23925
G1 X168.128 Y110.85 E0.01194
G1 X173.737 Y116.459 E0.25119
G1 X173.737 Y116.993 E0.01689
G1 X167.861 Y111.117 E0.26313
G1 X167.594 Y111.383 E0.01194
G1 X173.737 Y117.526 E0.27507
G1 X173.737 Y118.059 E0.01689
G1 X167.328 Y111.65 E0.28701
G1 X167.061 Y111.917 E0.01194
G1 X173.737 Y118.592 E0.29895
G1 X173.737 Y119.126 E0.01689
G1 X170.616 Y116.005 E0.13977
M73 Q1 S96
G1 X170.616 Y116.538 E0.01689
G1 X173.737 Y119.659 E0.13977
G1 X173.737 Y120.192 E0.01689
G1 X170.616 Y117.071 E0.13977
G1 X170.616 Y117.604 E0.01689
G1 X173.737 Y120.726 E0.13977
G1 X173.737 Y121.259 E0.01689
G1 X170.616 Y118.138 E0.13977
G1 X170.616 Y118.671 E0.01689
G1 X173.737 Y121.792 E0.13977
G1 X173.737 Y122.325 E0.01689
G1 X170.616 Y119.204 E0.13977
G1 X170.616 Y119.737 E0.01689
G1 X173.737 Y122.859 E0.13977
G1 X173.737 Y123.392 E0.01689
G1 X170.616 Y120.271 E0.13977
G1 X170.616 Y120.804 E0.01689
G1 X173.737 Y123.925 E0.13977
G1 X173.737 Y124.458 E0.01689
G1 X170.616 Y121.337 E0.13977
G1 X170.616 Y121.87 E0.01689
G1 X173.737 Y124.992 E0.13977
G1 X173.737 Y125.525 E0.01689
G1 X170.616 Y122.404 E0.13977
G1 X170.616 Y122.937 E0.01689
G1 X173.737 Y126.058 E0.13977
G1 X173.737 Y126.591 E0.01689
G1 X170.616 Y123.47 E0.13977
G1 X170.616 Y124.004 E0.01689
G1 X173.737 Y127.125 E0.13977
G1 X173.737 Y127.658 E0.01689
G1 X170.616 Y124.537 E0.13977
G1 X170.616 Y125.07 E0.01689
G1 X173.737 Y128.191 E0.13977
G1 X173.737 Y128.725 E0.01689
G1 X170.616 Y125.603 E0.13977
G1 X170.616 Y126.137 E0.01689
G1 X173.737 Y129.258 E0.13977
G1 X173.737 Y129.791 E0.01689
G1 X170.616 Y126.67 E0.13977
G1 X170.616 Y127.203 E0.01689
G1 X173.737 Y130.324 E0.13977
G1 X173.737 Y130.858 E0.01689
G1 X170.616 Y127.736 E0.13977
G1 X170.616 Y128.27 E0.01689
G1 X173.737 Y131.391 E0.13977
G1 X173.737 Y131.924 E0.01689
G1 X170.616 Y128.803 E0.13977
G1 X170.616 Y129.336 E0.01689
G1 X173.737 Y132.457 E0.13977
G1 X173.737 Y132.991 E0.01689
G1 X170.616 Y129.87 E0.13977
G1 X170.616 Y130.403 E0.01689
G1 X173.737 Y133.524 E0.13977
G1 X173.737 Y134.057 E0.01689
G1 X170.616 Y130.936 E0.13977
G1 X170.616 Y131.469 E0.01689
G1 X173.737 Y134.591 E0.13977
G1 X173.737 Y135.124 E0.01689
G1 X170.616 Y132.003 E0.13977
G1 X170.616 Y132.536 E0.01689
G1 X173.737 Y135.657 E0.13977
G1 X173.737 Y136.19 E0.01689
G1 X170.616 Y133.069 E0.13977
G1 X170.616 Y133.602 E0.01689
G1 X173.737 Y136.724 E0.13977
G1 X173.737 Y137.257 E0.01689
G1 X170.616 Y134.136 E0.13977
G1 X170.616 Y134.669 E0.01689
G1 X173.737 Y137.79 E0.13977
G1 X173.737 Y138.323 E0.01689
G1 X170.616 Y135.202 E0.13977
G1 X170.616 Y135.736 E0.01689
G1 X173.737 Y138.857 E0.13977
G1 X173.737 Y139.39 E0.01689
G1 X170.616 Y136.269 E0.13977
G1 X170.616 Y136.802 E0.01689
G1 X173.737 Y139.923 E0.13977
G1 X173.737 Y140.457 E0.01689
G1 X170.616 Y137.335 E0.13977
G1 X170.616 Y137.869 E0.01689
G1 X173.737 Y140.99 E0.13977
G1 X173.737 Y141.523 E0.01689
G1 X170.616 Y138.402 E0.13977
G1 X170.616 Y138.836 E0.01374
G1 X170.566 Y138.885 E0.00223
G1 X173.737 Y142.056 E0.14199
G1 X173.737 Y142.59 E0.01689
G1 X170.299 Y139.152 E0.15393
G1 X170.033 Y139.419 E0.01194
G1 X173.737 Y143.123 E0.16587
G1 X173.737 Y143.656 E0.01689
G1 X169.766 Y139.685 E0.17781
G1 X169.499 Y139.952 E0.01194
G1 X173.737 Y144.189 E0.18975
G1 X173.737 Y144.723 E0.01689
G1 X169.233 Y140.219 E0.20169
G1 X168.966 Y140.485 E0.01194
G1 X173.737 Y145.256 E0.21363
G1 X173.737 Y145.789 E0.01689
G1 X168.7 Y140.752 E0.22557
G1 X168.433 Y141.018 E0.01194
G1 X173.737 Y146.322 E0.23751
G1 X173.737 Y146.856 E0.01689
G1 X168.166 Y141.285 E0.24946
G1 X167.9 Y141.552 E0.01194
G1 X173.737 Y147.389 E0.2614
G1 X173.737 Y147.922 E0.01689
G1 X167.633 Y141.818 E0.27334
G1 X167.366 Y142.085 E0.01194
G1 X173.737 Y148.456 E0.28528
G1 X173.737 Y148.989 E0.01689
G1 X167.1 Y142.352 E0.29722
G1 X166.833 Y142.618 E0.01194
G1 X173.737 Y149.522 E0.30916
G1 X173.737 Y150.055 E0.01689
G1 X166.566 Y142.885 E0.3211
G1 X166.3 Y143.152 E0.01194
G1 X173.737 Y150.589 E0.33304
G1 X173.737 Y151.122 E0.01689
G1 X166.033 Y143.418 E0.34498
M73 P2 R95
G1 X165.767 Y143.685 E0.01194
G1 X173.737 Y151.655 E0.35692
M73 Q2 S96
G1 X173.737 Y152.188 E0.01689
G1 X165.5 Y143.951 E0.36886
G1 X165.233 Y144.218 E0.01194
G1 X173.737 Y152.722 E0.3808
G1 X173.737 Y153.255 E0.01689
G1 X164.967 Y144.485 E0.39274
G1 X164.7 Y144.751 E0.01194
G1 X173.737 Y153.788 E0.40468
G1 X173.737 Y154.322 E0.01689
G1 X164.433 Y145.018 E0.41662
G1 X164.167 Y145.285 E0.01194
G1 X173.616 Y154.734 E0.42316
G1 X173.35 Y155.001 E0.01194
G1 X163.9 Y145.551 E0.42316
G1 X163.633 Y145.818 E0.01194
G1 X173.083 Y155.268 E0.42316
G1 X172.816 Y155.534 E0.01194
G1 X163.367 Y146.085 E0.42316
G1 X163.1 Y146.351 E0.01194
G1 X172.55 Y155.801 E0.42316
G1 X172.283 Y156.067 E0.01194
G1 X162.834 Y146.618 E0.42316
G1 X162.567 Y146.884 E0.01194
G1 X172.017 Y156.334 E0.42316
G1 X171.75 Y156.601 E0.01194
G1 X162.3 Y147.151 E0.42316
G1 X162.034 Y147.418 E0.01194
G1 X171.483 Y156.867 E0.42316
G1 X171.217 Y157.134 E0.01194
G1 X161.767 Y147.684 E0.42316
G1 X161.5 Y147.951 E0.01194
G1 X170.95 Y157.401 E0.42316
G1 X170.683 Y157.667 E0.01194
G1 X161.234 Y148.218 E0.42316
G1 X160.967 Y148.484 E0.01194
G1 X170.417 Y157.934 E0.42316
G1 X170.15 Y158.201 E0.01194
G1 X160.7 Y148.751 E0.42316
G1 X160.434 Y149.018 E0.01194
G1 X169.884 Y158.467 E0.42316
G1 X169.617 Y158.734 E0.01194
G1 X160.167 Y149.284 E0.42316
G1 X159.901 Y149.551 E0.01194
G1 X169.35 Y159. E0.42316
G1 X169.145 Y159.206 E0.00919
G1 X169.022 Y159.206 E0.00389
G1 X159.634 Y149.817 E0.42041
G1 X159.367 Y150.084 E0.01194
G1 X168.489 Y159.206 E0.40847
G1 X167.956 Y159.206 E0.01689
G1 X159.101 Y150.351 E0.39653
G1 X158.834 Y150.617 E0.01194
G1 X167.422 Y159.206 E0.38459
G1 X166.889 Y159.206 E0.01689
G1 X158.567 Y150.884 E0.37265
G1 X158.301 Y151.151 E0.01194
G1 X166.356 Y159.206 E0.36071
G1 X165.823 Y159.206 E0.01689
G1 X158.034 Y151.417 E0.34877
G1 X157.768 Y151.684 E0.01194
G1 X165.289 Y159.206 E0.33683
G1 X164.756 Y159.206 E0.01689
G1 X157.501 Y151.951 E0.32489
G1 X157.234 Y152.217 E0.01194
G1 X164.223 Y159.206 E0.31295
G1 X163.689 Y159.206 E0.01689
G1 X156.328 Y151.844 E0.32965
;WIPE_START
G1 F8640
G1 X159.237 Y154.753 E-0.95
;WIPE_END
G1 E-0.05 F2100
G1 Z0.4 F10800
M204 P1500
G1 X163.011 Y133.464
M204 P1000
G1 X169.694 Y115.083
G1 Z0.2
G1 E1 F2100
G1 F1200
G1 X166.794 Y112.183 E0.12985
G1 X166.528 Y112.45 E0.01194
G1 X168.735 Y114.657 E0.09883
G1 X168.468 Y114.923 E0.01194
G1 X166.261 Y112.716 E0.09883
G1 X165.994 Y112.983 E0.01194
G1 X168.202 Y115.19 E0.09883
G1 X167.935 Y115.457 E0.01194
G1 X165.728 Y113.25 E0.09883
G1 X165.461 Y113.516 E0.01194
G1 X167.668 Y115.723 E0.09883
G1 X167.402 Y115.99 E0.01194
G1 X165.195 Y113.783 E0.09883
