; generated by SuperSlicer 2.3.57 on 2022-03-16 at 08:32:34 UTC

; 

; external perimeters extrusion width = 0.45mm
; perimeters extrusion width = 0.45mm
; infill extrusion width = 0.45mm
; solid infill extrusion width = 0.45mm
; top infill extrusion width = 0.40mm
; first layer extrusion width = 0.42mm

; object:{"name":"Blue - Idler Holder","id":"Blue - Idler Holder.stl id:0 copy 0","object_center":[125.000000,105.000000,0.000000],"boundingbox_center":[125.000000,105.000000,18.512354],"boundingbox_size":[12.035936,15.783999,37.024708]}
; Total objects to print: 1
M486 T1
; plater:{"center":[125.000000,105.000000,0.000000],"boundingbox_center":[125.000000,105.000000,18.512354],"boundingbox_size":[12.035936,15.783999,37.024708]}

M73 P0 R36
M73 Q0 S36
;TYPE:Custom
M862.3 P "MK3S" ; printer model check
M862.1 P0.4 ; nozzle diameter check
M115 U3.10.0 ; tell printer latest fw version
G90 ; use absolute coordinates
M83 ; extruder relative mode
M104 S230 ; set extruder temp
M140 S85 ; set bed temp
M190 S85 ; wait for bed temp
M109 S230 ; wait for extruder temp
G28 W ; home all without mesh bed level
G80 ; mesh bed leveling
G1 Y-3.0 F1000.0 ; go outside print area
G92 E0.0
G1 X60.0 E9.0 F1000.0 ; intro line
G1 X100.0 E12.5 F1000.0 ; intro line
G92 E0.0
M221 S95

; Don't change E values below. Excessive value can damage the printer.
M907 E430 ; set extruder motor current
M107
G21 ; set units to millimeters
G90 ; use absolute coordinates
M83 ; use relative distances for extrusion
M900 K0.08 ; Filament gcode LA 1.5
M900 K45 ; Filament gcode LA 1.0
;LAYER_CHANGE
;Z:0.2
;HEIGHT:0.2
;BEFORE_LAYER_CHANGE
G92 E0.0
;0.2


G1 E-1 F2100
G1 Z0.2 F10800
G1 Z0.2
;AFTER_LAYER_CHANGE
;0.2
G1 Z0.4
M204 P1500
G1 X118.416 Y95.442
G1 Z0.2
G1 E1 F2100
;TYPE:Skirt
;WIDTH:0.45
G1 F914
G1 X118.102 Y95.855 E0.01754
G1 X117.878 Y96.317 E0.0174
G1 X117.748 Y96.819 E0.01754
G1 X117.716 Y112.812 E0.54136
G1 X117.783 Y113.37 E0.01901
G1 X117.969 Y113.9 E0.01901
G1 X118.37 Y114.508 E0.02465
G1 X118.927 Y114.983 E0.02478
G1 X119.532 Y115.267 E0.02264
G1 X120.428 Y115.464 E0.03106
G1 X129.099 Y115.501 E0.29351
G1 X129.951 Y115.407 E0.029
G1 X130.794 Y115.137 E0.02998
G1 X131.375 Y114.759 E0.02344
G1 X131.833 Y114.245 E0.02331
G1 X132.142 Y113.625 E0.02344
G1 X132.278 Y112.95 E0.02331
G1 X132.283 Y97.182 E0.53374
G1 X132.215 Y96.628 E0.01888
G1 X132.03 Y96.098 E0.01901
G1 X131.631 Y95.494 E0.02451
G1 X131.081 Y95.022 E0.02451
G1 X130.484 Y94.739 E0.02237
G1 X129.584 Y94.534 E0.03122
G1 X120.985 Y94.497 E0.29108
G1 X119.719 Y94.674 E0.04327
G1 X119.224 Y94.854 E0.01783
G1 X118.805 Y95.1 E0.01646
G1 X118.461 Y95.403 E0.01551
G1 X118.594 Y95.555 F10800
M204 P1000
G1 X118.727 Y95.708
G1 F914
G1 X118.444 Y96.076 E0.01575
G1 X118.252 Y96.48 E0.01512
G1 X118.145 Y96.917 E0.01524
G1 X118.123 Y112.807 E0.53786
G1 X118.182 Y113.287 E0.01635
G1 X118.346 Y113.745 E0.01648
G1 X118.731 Y114.3 E0.02287
G1 X119.267 Y114.712 E0.02287
G1 X120.035 Y114.986 E0.02759
G1 X120.799 Y115.088 E0.0261
G1 X129.091 Y115.094 E0.28068
G1 X129.869 Y115.008 E0.02648
G1 X130.637 Y114.761 E0.02731
G1 X131.121 Y114.44 E0.01968
G1 X131.507 Y114. E0.0198
G1 X131.764 Y113.474 E0.0198
G1 X131.873 Y112.899 E0.0198
G1 X131.876 Y97.193 E0.53165
G1 X131.817 Y96.713 E0.01635
G1 X131.655 Y96.258 E0.01635
G1 X131.305 Y95.74 E0.02116
G1 X130.824 Y95.342 E0.02116
G1 X130.32 Y95.114 E0.0187
G1 X129.488 Y94.932 E0.02883
G1 X120.985 Y94.904 E0.28784
G1 X119.843 Y95.062 E0.03901
G1 X119.052 Y95.424 E0.02943
G1 X118.773 Y95.668 E0.01257
; INIT printing object Blue - Idler Holder.stl id:0 copy 0
;WIPE_START
G1 F8640
G1 X118.716 Y95.718 E-0.01736
G1 X118.444 Y96.076 E-0.10397
G1 X118.252 Y96.48 E-0.10313
G1 X118.145 Y96.917 E-0.10397
G1 X118.141 Y99.609 E-0.62156
;WIPE_END
G1 E-0.05 F2100
G1 Z0.4 F10800
; printing object Blue - Idler Holder.stl id:0 copy 0
M486 S0
M204 P1500
G1 X120.396 Y103.39
M204 P1000
G1 X122.018 Y111.111
G1 Z0.2
G1 E1 F2100
;TYPE:Internal perimeter
;WIDTH:0.42
G1 F914
G1 X127.988 Y111.111 E0.18718
G1 X127.987 Y112.105 E0.03116
G1 X122.015 Y112.105 E0.18723
G1 X122.018 Y111.171 E0.02928
M204 P1500
G1 X121.83 Y111.171 F10800
M204 P1000
G1 X121.641 Y111.17
;TYPE:External perimeter
G1 F914
G1 X121.643 Y110.734 E0.01367
G1 X128.36 Y110.734 E0.21061
G1 X128.365 Y111.15 E0.01303
G1 X128.364 Y112.482 E0.04177
G1 X121.637 Y112.482 E0.2109
G1 X121.641 Y111.23 E0.03926
G1 X121.988 Y110.971 F10800
;WIPE_START
G1 F8640
G1 X121.643 Y110.734 E-0.11452
G1 X125.261 Y110.734 E-0.83548
;WIPE_END
G1 E-0.05 F2100
G1 Z0.4 F10800
M204 P1500
G1 X124.728 Y111.419
M204 P1000
G1 X127.814 Y111.608
G1 Z0.2
G1 E1 F2100
;TYPE:Gap fill
;WIDTH:0.689499
G1 F914
G1 X127.653 Y111.608 E0.0087
G1 X127.491 Y111.608 E0.0087
G1 X122.352 Y111.608 E0.27627
G1 X122.19 Y111.608 E0.0087
;WIPE_START
G1 F8640
G1 X122.352 Y111.608 E-0.03735
G1 X126.305 Y111.608 E-0.91265
;WIPE_END
G1 E-0.05 F2100
G1 Z0.4 F10800
M204 P1500
G1 X122.19 Y105.273
M204 P1000
G1 X122.19 Y98.937
G1 Z0.2
G1 E1 F2100
;TYPE:Internal perimeter
;WIDTH:0.42
G1 F914
G1 X122.019 Y98.937 E0.00539
G1 X122.015 Y97.895 E0.03267
G1 X127.992 Y97.895 E0.18738
G1 X127.984 Y98.937 E0.03267
G1 X122.25 Y98.937 E0.17978
M204 P1500
G1 X122.25 Y99.126 F10800
M204 P1000
G1 X122.25 Y99.314
;TYPE:External perimeter
G1 F914
G1 X121.643 Y99.314 E0.01906
G1 X121.637 Y97.518 E0.05632
G1 X128.365 Y97.518 E0.21093
G1 X128.368 Y98.016 E0.01562
G1 X128.358 Y99.314 E0.0407
M73 Q1 S36
G1 X122.31 Y99.314 E0.18963
M73 P1 R36
G1 X122.05 Y98.968 F10800
;WIPE_START
G1 F8640
G1 X121.643 Y99.314 E-0.1542
G1 X121.637 Y97.518 E-0.41476
G1 X123.288 Y97.518 E-0.38104
;WIPE_END
G1 E-0.05 F2100
G1 Z0.4 F10800
M204 P1500
G1 X125.062 Y98.865
M204 P1000
G1 X127.814 Y98.416
G1 Z0.2
G1 E1 F2100
;TYPE:Gap fill
;WIDTH:0.737143
G1 F914
G1 X127.641 Y98.416 E0.01003
G1 X127.467 Y98.416 E0.01003
G1 X122.364 Y98.416 E0.29455
G1 X122.19 Y98.416 E0.01003
; INIT stop printing object Blue - Idler Holder.stl id:0 copy 0
;LAYER_CHANGE
;Z:0.4
;HEIGHT:0.2
;BEFORE_LAYER_CHANGE
G92 E0.0
;0.4


;WIPE_START
G1 F8640
G1 X122.364 Y98.416 E-0.04013
G1 X126.305 Y98.416 E-0.90987
;WIPE_END
G1 E-0.05 F2100
G1 Z0.4 F10800
; stop printing object Blue - Idler Holder.stl id:0 copy 0
M486 S-1
G1 Z0.4
;AFTER_LAYER_CHANGE
;0.4
M104 S240 ; set temperature
M140 S90 ; set bed temperature
G1 Z0.6
M204 P1500
G1 X126.313 Y96.468
M204 P1000
G1 X126.321 Y94.52
G1 Z0.4
G1 E1 F2100
;TYPE:Skirt
;WIDTH:0.45
G1 F1260
G1 X120.985 Y94.497 E0.18062
G1 X119.719 Y94.674 E0.04327
G1 X119.224 Y94.854 E0.01783
G1 X118.805 Y95.1 E0.01646
G1 X118.416 Y95.442 E0.01754
G1 X118.102 Y95.855 E0.01754
G1 X117.878 Y96.317 E0.0174
G1 X117.748 Y96.819 E0.01754
G1 X117.716 Y112.812 E0.54136
G1 X117.783 Y113.37 E0.01901
G1 X117.969 Y113.9 E0.01901
G1 X118.37 Y114.508 E0.02465
G1 X118.927 Y114.983 E0.02478
G1 X119.532 Y115.267 E0.02264
G1 X120.428 Y115.464 E0.03106
G1 X129.099 Y115.501 E0.29351
G1 X129.951 Y115.407 E0.029
G1 X130.794 Y115.137 E0.02998
G1 X131.375 Y114.759 E0.02344
G1 X131.833 Y114.245 E0.02331
G1 X132.142 Y113.625 E0.02344
G1 X132.278 Y112.95 E0.02331
G1 X132.283 Y97.182 E0.53374
G1 X132.215 Y96.628 E0.01888
G1 X132.03 Y96.098 E0.01901
G1 X131.631 Y95.494 E0.02451
G1 X131.081 Y95.022 E0.02451
G1 X130.484 Y94.739 E0.02237
G1 X129.584 Y94.534 E0.03122
G1 X126.381 Y94.52 E0.10843
M204 P1500
G1 X126.381 Y94.721 F10800
M204 P1000
G1 X126.38 Y94.922
G1 F1260
G1 X120.985 Y94.904 E0.18263
G1 X119.843 Y95.062 E0.03901
G1 X119.052 Y95.424 E0.02943
G1 X118.716 Y95.718 E0.01512
G1 X118.444 Y96.076 E0.01524
G1 X118.252 Y96.48 E0.01512
G1 X118.145 Y96.917 E0.01524
G1 X118.123 Y112.807 E0.53786
G1 X118.182 Y113.287 E0.01635
G1 X118.346 Y113.745 E0.01648
G1 X118.731 Y114.3 E0.02287
G1 X119.267 Y114.712 E0.02287
G1 X120.035 Y114.986 E0.02759
G1 X120.799 Y115.088 E0.0261
G1 X129.091 Y115.094 E0.28068
G1 X129.869 Y115.008 E0.02648
G1 X130.637 Y114.761 E0.02731
G1 X131.121 Y114.44 E0.01968
G1 X131.507 Y114. E0.0198
G1 X131.764 Y113.474 E0.0198
G1 X131.873 Y112.899 E0.0198
G1 X131.876 Y97.193 E0.53165
M73 P1 R35
G1 X131.817 Y96.713 E0.01635
G1 X131.655 Y96.258 E0.01635
G1 X131.305 Y95.74 E0.02116
G1 X130.824 Y95.342 E0.02116
G1 X130.32 Y95.114 E0.0187
G1 X129.488 Y94.932 E0.02883
G1 X126.44 Y94.922 E0.10319
; INIT printing object Blue - Idler Holder.stl id:0 copy 0
;WIPE_START
G1 F8640
G1 X122.326 Y94.909 E-0.95
;WIPE_END
G1 E-0.05 F2100
G1 Z0.6 F10800
; printing object Blue - Idler Holder.stl id:0 copy 0
M486 S0
M204 P1500
G1 X126.44 Y103.143
M204 P800
G1 X126.44 Y111.363
G1 Z0.4
G1 E1 F2100
;TYPE:Internal perimeter
G1 F1260
G1 X128.284 Y111.363 E0.06242
G1 X128.283 Y111.853 E0.01658
G1 X121.72 Y111.853 E0.22214
G1 X121.721 Y111.363 E0.01657
G1 X126.38 Y111.363 E0.1577
M204 P1500
G1 X126.38 Y111.16 F10800
M204 P800
G1 X126.38 Y110.956
G1 F1260
G1 X128.688 Y110.956 E0.07814
G1 X128.691 Y111.407 E0.01525
G1 X128.69 Y112.26 E0.02888
G1 X121.313 Y112.26 E0.24969
G1 X121.314 Y110.956 E0.04413
G1 X126.32 Y110.956 E0.16943
M204 P1500
G1 X126.32 Y110.753 F10800
M204 P800
G1 X126.32 Y110.549
;TYPE:External perimeter
G1 F1260
G1 X129.093 Y110.549 E0.09388
G1 X129.098 Y111.406 E0.02901
G1 X129.096 Y112.66 E0.04243
G1 X129.008 Y112.667 E0.00297
G1 X120.99 Y112.667 E0.27141
G1 X120.906 Y112.66 E0.00288
G1 X120.908 Y110.549 E0.07144
G1 X126.26 Y110.549 E0.18117
M204 P1000
G1 X126.52 Y110.895 F10800
;WIPE_START
G1 F8640
G1 X129.093 Y110.549 E-0.65424
G1 X129.098 Y111.406 E-0.19787
G1 X129.097 Y111.83 E-0.09789
;WIPE_END
G1 E-0.05 F2100
G1 Z0.6 F10800
M204 P1500
G1 X124.084 Y111.078
M204 P1000
G1 X121.908 Y111.608
G1 Z0.4
G1 E1 F2100
;TYPE:Gap fill
;WIDTH:0.157872
G1 F1260
G1 X121.966 Y111.608 E0.00055
G1 X125.002 Y111.608 E0.02902
G1 X128.039 Y111.608 E0.02902
G1 X128.096 Y111.608 E0.00055
;WIPE_START
G1 F8640
G1 X128.039 Y111.608 E-0.01328
G1 X125.002 Y111.608 E-0.70115
G1 X123.982 Y111.608 E-0.23557
;WIPE_END
G1 E-0.05 F2100
G1 Z0.6 F10800
M204 P1500
G1 X128.096 Y105.147
M204 P800
G1 X128.096 Y98.685
G1 Z0.4
G1 E1 F2100
;TYPE:Internal perimeter
;WIDTH:0.45
G1 F1260
G1 X121.721 Y98.685 E0.2158
G1 X121.72 Y98.148 E0.01818
G1 X128.28 Y98.156 E0.22205
G1 X128.279 Y98.685 E0.01792
G1 X128.156 Y98.685 E0.00417
M204 P1500
G1 X128.156 Y98.889 F10800
M204 P800
G1 X128.156 Y99.092
G1 F1260
G1 X121.314 Y99.092 E0.2316
G1 X121.312 Y97.74 E0.04575
G1 X128.688 Y97.749 E0.24965
G1 X128.686 Y99.092 E0.04546
G1 X128.216 Y99.092 E0.0159
M204 P1500
G1 X128.216 Y99.296 F10800
M204 P800
G1 X128.216 Y99.499
;TYPE:External perimeter
G1 F1260
G1 X120.908 Y99.499 E0.24739
G1 X120.905 Y97.34 E0.07307
G1 X120.991 Y97.333 E0.00295
G1 X129.095 Y97.342 E0.27431
G1 X129.092 Y99.499 E0.073
G1 X128.276 Y99.499 E0.02763
M204 P1000
G1 X128.016 Y99.153 F10800
;WIPE_START
G1 F8640
G1 X124.162 Y99.499 E-0.95
;WIPE_END
G1 E-0.05 F2100
G1 Z0.6 F10800
M204 P1500
G1 X125.092 Y98.958
M204 P1000
G1 X121.908 Y98.417
G1 Z0.4
G1 E1 F2100
;TYPE:Gap fill
;WIDTH:0.204986
G1 F1260
G1 X121.989 Y98.417 E0.00109
G1 X128.015 Y98.42 E0.08121
G1 X128.092 Y98.42 E0.00104
; INIT stop printing object Blue - Idler Holder.stl id:0 copy 0
;LAYER_CHANGE
;Z:0.6
;HEIGHT:0.2
;BEFORE_LAYER_CHANGE
G92 E0.0
;0.6


;WIPE_START
G1 F8640
G1 X128.015 Y98.42 E-0.0179
G1 X123.978 Y98.418 E-0.9321
;WIPE_END
G1 E-0.05 F2100
G1 Z0.6 F10800
; stop printing object Blue - Idler Holder.stl id:0 copy 0
M486 S-1
G1 Z0.6
;AFTER_LAYER_CHANGE
;0.6
G1 Z0.8
M204 P1500
G1 X123.986 Y96.464
M204 P1000
G1 X123.995 Y94.51
G1 Z0.6
G1 E1 F2100
;TYPE:Skirt
;WIDTH:0.45
G1 F1081
G1 X120.985 Y94.497 E0.10187
G1 X119.719 Y94.674 E0.04327
G1 X119.224 Y94.854 E0.01783
G1 X118.805 Y95.1 E0.01646
G1 X118.416 Y95.442 E0.01754
G1 X118.102 Y95.855 E0.01754
G1 X117.878 Y96.317 E0.0174
G1 X117.748 Y96.819 E0.01754
G1 X117.716 Y112.812 E0.54136
G1 X117.783 Y113.37 E0.01901
G1 X117.969 Y113.9 E0.01901
G1 X118.37 Y114.508 E0.02465
G1 X118.927 Y114.983 E0.02478
G1 X119.532 Y115.267 E0.02264
G1 X120.428 Y115.464 E0.03106
G1 X129.099 Y115.501 E0.29351
G1 X129.951 Y115.407 E0.029
G1 X130.794 Y115.137 E0.02998
G1 X131.375 Y114.759 E0.02344
G1 X131.833 Y114.245 E0.02331
G1 X132.142 Y113.625 E0.02344
G1 X132.278 Y112.95 E0.02331
G1 X132.283 Y97.182 E0.53374
G1 X132.215 Y96.628 E0.01888
G1 X132.03 Y96.098 E0.01901
G1 X131.631 Y95.494 E0.02451
G1 X131.081 Y95.022 E0.02451
G1 X130.484 Y94.739 E0.02237
G1 X129.584 Y94.534 E0.03122
G1 X124.055 Y94.51 E0.18718
M204 P1500
G1 X124.054 Y94.712 F10800
M204 P1000
G1 X124.053 Y94.914
G1 F1081
G1 X120.985 Y94.904 E0.10387
G1 X119.843 Y95.062 E0.03901
G1 X119.052 Y95.424 E0.02943
G1 X118.716 Y95.718 E0.01512
G1 X118.444 Y96.076 E0.01524
G1 X118.252 Y96.48 E0.01512
G1 X118.145 Y96.917 E0.01524
G1 X118.123 Y112.807 E0.53786
G1 X118.182 Y113.287 E0.01635
G1 X118.346 Y113.745 E0.01648
G1 X118.731 Y114.3 E0.02287
G1 X119.267 Y114.712 E0.02287
G1 X120.035 Y114.986 E0.02759
M73 Q2 S36
G1 X120.799 Y115.088 E0.0261
G1 X129.091 Y115.094 E0.28068
M73 P2 R35
G1 X129.869 Y115.008 E0.02648
G1 X130.637 Y114.761 E0.02731
G1 X131.121 Y114.44 E0.01968
G1 X131.507 Y114. E0.0198
G1 X131.764 Y113.474 E0.0198
G1 X131.873 Y112.899 E0.0198
G1 X131.876 Y97.193 E0.53165
G1 X131.817 Y96.713 E0.01635
G1 X131.655 Y96.258 E0.01635
G1 X131.305 Y95.74 E0.02116
G1 X130.824 Y95.342 E0.02116
G1 X130.32 Y95.114 E0.0187
G1 X129.488 Y94.932 E0.02883
G1 X124.113 Y94.914 E0.18194
; INIT printing object Blue - Idler Holder.stl id:0 copy 0
;WIPE_START
G1 F8640
G1 X120.985 Y94.904 E-0.72244
G1 X120.008 Y95.04 E-0.22756
;WIPE_END
G1 E-0.05 F2100
G1 Z0.8 F10800
; printing object Blue - Idler Holder.stl id:0 copy 0
M486 S0
M204 P1500
G1 X124.113 Y103.139
M204 P800
G1 X124.113 Y111.363
G1 Z0.6
G1 E1 F2100
;TYPE:Internal perimeter
G1 F1081
G1 X128.635 Y111.363 E0.15306
M73 Q2 S35
G1 X128.635 Y111.853 E0.01658
G1 X121.366 Y111.853 E0.24603
G1 X121.367 Y111.363 E0.01658
G1 X124.053 Y111.363 E0.09094
M204 P1500
G1 X124.053 Y111.16 F10800
M204 P800
G1 X124.053 Y110.956
G1 F1081
G1 X129.043 Y110.956 E0.16889
G1 X129.041 Y112.26 E0.04413
G1 X120.959 Y112.26 E0.27358
G1 X120.96 Y110.956 E0.04413
G1 X123.993 Y110.956 E0.10268
M204 P1500
G1 X123.993 Y110.753 F10800
M204 P800
G1 X123.993 Y110.549
;TYPE:External perimeter
G1 F1081
G1 X129.448 Y110.549 E0.18462
G1 X129.45 Y111.025 E0.01611
G1 X129.448 Y112.608 E0.05359
G1 X129.36 Y112.632 E0.00307
G1 X129.007 Y112.667 E0.01202
G1 X120.994 Y112.667 E0.27122
G1 X120.603 Y112.625 E0.01331
G1 X120.552 Y112.61 E0.00182
G1 X120.553 Y110.549 E0.06976
G1 X123.933 Y110.549 E0.11441
M204 P1000
G1 X124.193 Y110.895 F10800
;WIPE_START
G1 F8640
G1 X128.048 Y110.549 E-0.95
;WIPE_END
G1 E-0.05 F2100
G1 Z0.8 F10800
M204 P1500
G1 X126.191 Y111.078
M204 P1000
G1 X128.448 Y111.608
G1 Z0.6
G1 E1 F2100
;TYPE:Gap fill
;WIDTH:0.157905
G1 F1081
G1 X128.39 Y111.608 E0.00055
G1 X121.554 Y111.608 E0.06536
;WIPE_START
G1 F8640
G1 X125.668 Y111.608 E-0.95
;WIPE_END
G1 E-0.05 F2100
G1 Z0.8 F10800
M204 P1500
G1 X121.554 Y105.147
M204 P800
G1 X121.554 Y98.685
G1 Z0.6
G1 E1 F2100
;TYPE:Internal perimeter
;WIDTH:0.45
G1 F1081
G1 X121.367 Y98.685 E0.00632
G1 X121.367 Y98.148 E0.01819
G1 X128.633 Y98.156 E0.24596
G1 X128.633 Y98.685 E0.0179
G1 X121.614 Y98.685 E0.23759
M204 P1500
G1 X121.614 Y98.889 F10800
M204 P800
G1 X121.614 Y99.092
G1 F1081
G1 X120.96 Y99.092 E0.02213
G1 X120.96 Y97.74 E0.04577
G1 X129.04 Y97.75 E0.27353
G1 X129.04 Y99.092 E0.04545
G1 X121.674 Y99.092 E0.24933
M204 P1500
G1 X121.674 Y99.296 F10800
M204 P800
G1 X121.674 Y99.499
;TYPE:External perimeter
G1 F1081
G1 X120.553 Y99.499 E0.03793
G1 X120.552 Y97.393 E0.0713
G1 X120.816 Y97.342 E0.00908
G1 X120.988 Y97.333 E0.00582
G1 X129.195 Y97.343 E0.27781
G1 X129.355 Y97.366 E0.00549
G1 X129.448 Y97.392 E0.00325
G1 X129.447 Y99.499 E0.07133
G1 X121.734 Y99.499 E0.26107
M204 P1000
G1 X121.474 Y99.153 F10800
;WIPE_START
G1 F8640
G1 X120.553 Y99.499 E-0.2726
G1 X120.552 Y97.393 E-0.48637
G1 X120.816 Y97.342 E-0.06197
G1 X120.988 Y97.333 E-0.0397
G1 X121.375 Y97.333 E-0.08936
;WIPE_END
G1 E-0.05 F2100
G1 Z0.8 F10800
M204 P1500
G1 X125.09 Y98.96
M204 P1000
G1 X128.446 Y98.42
G1 Z0.6
G1 E1 F2100
;TYPE:Gap fill
;WIDTH:0.205434
