; generated by SuperSlicer 2.3.57 on 2022-03-16 at 08:40:03 UTC

; 

; external perimeters extrusion width = 0.45mm
; perimeters extrusion width = 0.45mm
; infill extrusion width = 0.45mm
; solid infill extrusion width = 0.45mm
; top infill extrusion width = 0.40mm
; support material extrusion width = 0.35mm
; first layer extrusion width = 0.42mm

; object:{"name":"Blue - Y Belt Holder","id":"Blue - Y Belt Holder.stl id:0 copy 0","object_center":[125.000000,105.000000,0.000000],"boundingbox_center":[125.000000,105.000000,7.849758],"boundingbox_size":[15.169998,29.809998,15.699540]}
; Total objects to print: 1
M486 T1
; plater:{"center":[125.000000,105.000000,0.000000],"boundingbox_center":[125.000000,105.000000,7.849758],"boundingbox_size":[15.169998,29.809998,15.699540]}

M73 P0 R43
M73 Q0 S44
;TYPE:Custom
M862.3 P "MK3S" ; printer model check
M862.1 P0.4 ; nozzle diameter check
M115 U3.10.0 ; tell printer latest fw version
G90 ; use absolute coordinates
M83 ; extruder relative mode
M104 S230 ; set extruder temp
M140 S85 ; set bed temp
M190 S85 ; wait for bed temp
M109 S230 ; wait for extruder temp
G28 W ; home all without mesh bed level
G80 ; mesh bed leveling
G1 Y-3.0 F1000.0 ; go outside print area
G92 E0.0
G1 X60.0 E9.0 F1000.0 ; intro line
G1 X100.0 E12.5 F1000.0 ; intro line
G92 E0.0
M221 S95

; Don't change E values below. Excessive value can damage the printer.
M907 E430 ; set extruder motor current
M107
G21 ; set units to millimeters
G90 ; use absolute coordinates
M83 ; use relative distances for extrusion
M900 K0.08 ; Filament gcode LA 1.5
M900 K45 ; Filament gcode LA 1.0
;LAYER_CHANGE
;Z:0.2
;HEIGHT:0.2
;BEFORE_LAYER_CHANGE
G92 E0.0
;0.2


G1 E-1 F2100
G1 Z0.2 F10800
G1 Z0.2
;AFTER_LAYER_CHANGE
;0.2
G1 Z0.4
M204 P1500
G1 X115.416 Y88.416
G1 Z0.2
G1 E1 F2100
;TYPE:Skirt
;WIDTH:0.45
G1 F1200
G1 X115.05 Y88.989 E0.02304
G1 X114.868 Y89.521 E0.01901
G1 X114.804 Y90.075 E0.01888
G1 X114.806 Y120.002 E1.01299
G1 X114.93 Y120.704 E0.02411
G1 X115.238 Y121.346 E0.02411
G1 X115.708 Y121.88 E0.02411
G1 X116.309 Y122.27 E0.02424
G1 X116.829 Y122.449 E0.01861
G1 X117.375 Y122.515 E0.01861
G1 X132.762 Y122.51 E0.52082
G1 X133.44 Y122.372 E0.02344
G1 X134.062 Y122.058 E0.02357
G1 X134.576 Y121.593 E0.02344
G1 X134.95 Y121.011 E0.02344
G1 X135.132 Y120.479 E0.01901
G1 X135.196 Y119.925 E0.01888
G1 X135.189 Y89.91 E1.01596
G1 X135.109 Y89.427 E0.01659
G1 X134.941 Y88.97 E0.01646
G1 X134.689 Y88.55 E0.01659
G1 X134.366 Y88.186 E0.01646
G1 X133.981 Y87.889 E0.01646
G1 X133.544 Y87.667 E0.01659
G1 X133.073 Y87.53 E0.01659
G1 X132.589 Y87.484 E0.01646
G1 X117.191 Y87.494 E0.52122
G1 X116.526 Y87.64 E0.02304
G1 X115.922 Y87.954 E0.02304
G1 X115.461 Y88.375 E0.02114
G1 X115.6 Y88.519 F10800
M204 P1000
G1 X115.74 Y88.663
G1 F1200
G1 X115.424 Y89.151 E0.01968
G1 X115.267 Y89.604 E0.01623
G1 X115.212 Y90.08 E0.01623
G1 X115.213 Y119.974 E1.01187
G1 X115.314 Y120.569 E0.02042
G1 X115.57 Y121.111 E0.02029
G1 X115.966 Y121.566 E0.02042
G1 X116.471 Y121.896 E0.02042
G1 X116.917 Y122.052 E0.01598
G1 X117.386 Y122.108 E0.01598
G1 X132.713 Y122.105 E0.5188
G1 X133.29 Y121.993 E0.01993
G1 X133.815 Y121.733 E0.0198
G1 X134.255 Y121.342 E0.01993
G1 X134.576 Y120.849 E0.01993
G1 X134.733 Y120.396 E0.01623
G1 X134.788 Y119.92 E0.01623
G1 X134.785 Y89.964 E1.01397
G1 X134.581 Y89.162 E0.02801
G1 X134.096 Y88.491 E0.02801
G1 X133.401 Y88.048 E0.02789
G1 X132.589 Y87.891 E0.02801
G1 X117.254 Y87.897 E0.51905
G1 X116.685 Y88.016 E0.01968
G1 X116.17 Y88.277 E0.01956
G1 X115.785 Y88.623 E0.01753
; INIT printing object Blue - Y Belt Holder.stl id:0 copy 0
;WIPE_START
G1 F8640
G1 X115.424 Y89.151 E-0.14767
G1 X115.267 Y89.604 E-0.11071
G1 X115.212 Y90.08 E-0.11071
G1 X115.212 Y92.596 E-0.58091
;WIPE_END
G1 E-0.05 F2100
G1 Z0.4 F10800
; printing object Blue - Y Belt Holder.stl id:0 copy 0
M486 S0
M204 P1500
G1 X119.337 Y98.021
M204 P1000
G1 X122.889 Y107.419
G1 Z0.2
G1 E1 F2100
;TYPE:Internal perimeter
;WIDTH:0.42
G1 F1200
G1 X122.268 Y107.676 E0.02107
G1 X121.735 Y108.085 E0.02107
G1 X121.326 Y108.618 E0.02107
G1 X121.069 Y109.239 E0.02107
G1 X120.981 Y109.905 E0.02107
G1 X121.069 Y110.571 E0.02107
G1 X121.326 Y111.192 E0.02107
G1 X121.735 Y111.725 E0.02107
G1 X122.268 Y112.134 E0.02107
G1 X122.889 Y112.391 E0.02107
G1 X123.555 Y112.479 E0.02107
G1 X124.221 Y112.391 E0.02107
G1 X124.842 Y112.134 E0.02107
G1 X125.375 Y111.725 E0.02107
G1 X125.784 Y111.192 E0.02107
G1 X126.041 Y110.571 E0.02107
G1 X126.129 Y109.905 E0.02107
G1 X126.041 Y109.239 E0.02107
G1 X125.784 Y108.618 E0.02107
G1 X125.375 Y108.085 E0.02107
G1 X124.842 Y107.676 E0.02107
G1 X124.221 Y107.419 E0.02107
G1 X123.555 Y107.331 E0.02107
G1 X122.948 Y107.411 E0.01919
M204 P1500
G1 X122.973 Y107.598 F10800
M204 P1000
G1 X122.997 Y107.785
G1 F1200
G1 X122.458 Y108.005 E0.01827
G1 X122.004 Y108.354 E0.01796
G1 X121.655 Y108.808 E0.01796
G1 X121.436 Y109.337 E0.01796
G1 X121.361 Y109.905 E0.01796
G1 X121.436 Y110.473 E0.01796
G1 X121.655 Y111.002 E0.01796
G1 X122.004 Y111.456 E0.01796
G1 X122.458 Y111.805 E0.01796
G1 X122.987 Y112.024 E0.01796
G1 X123.555 Y112.099 E0.01796
G1 X124.123 Y112.024 E0.01796
G1 X124.652 Y111.805 E0.01796
G1 X125.106 Y111.456 E0.01796
G1 X125.455 Y111.002 E0.01796
G1 X125.674 Y110.473 E0.01796
G1 X125.749 Y109.905 E0.01796
G1 X125.674 Y109.337 E0.01796
G1 X125.455 Y108.808 E0.01796
G1 X125.106 Y108.354 E0.01796
G1 X124.652 Y108.005 E0.01796
G1 X124.123 Y107.786 E0.01796
G1 X123.555 Y107.711 E0.01796
G1 X123.057 Y107.777 E0.01575
M204 P1500
G1 X123.082 Y107.964 F10800
M204 P1000
G1 X123.106 Y108.151
;TYPE:External perimeter
G1 F1200
G1 X123.086 Y108.153 E0.00065
G1 X122.648 Y108.334 E0.01484
G1 X122.273 Y108.623 E0.01484
G1 X121.984 Y108.998 E0.01484
G1 X121.803 Y109.436 E0.01484
G1 X121.741 Y109.905 E0.01484
G1 X121.803 Y110.374 E0.01484
G1 X121.984 Y110.812 E0.01484
G1 X122.273 Y111.187 E0.01484
G1 X122.648 Y111.476 E0.01484
G1 X123.086 Y111.657 E0.01484
G1 X123.555 Y111.719 E0.01484
G1 X124.024 Y111.657 E0.01484
G1 X124.462 Y111.476 E0.01484
G1 X124.837 Y111.187 E0.01484
G1 X125.126 Y110.812 E0.01484
G1 X125.307 Y110.374 E0.01484
G1 X125.369 Y109.905 E0.01484
G1 X125.307 Y109.436 E0.01484
G1 X125.126 Y108.998 E0.01484
G1 X124.837 Y108.623 E0.01484
G1 X124.462 Y108.334 E0.01484
G1 X124.024 Y108.153 E0.01484
G1 X123.555 Y108.091 E0.01484
G1 X123.166 Y108.143 E0.01231
G1 X123.094 Y108.134 F10800
;WIPE_START
G1 F8640
G1 X123.086 Y108.153 E-0.01864
G1 X122.648 Y108.334 E-0.10932
G1 X122.273 Y108.623 E-0.10932
G1 X121.984 Y108.998 E-0.10932
G1 X121.803 Y109.436 E-0.10932
G1 X121.741 Y109.905 E-0.10932
G1 X121.803 Y110.374 E-0.10932
G1 X121.984 Y110.812 E-0.10932
G1 X122.273 Y111.187 E-0.10932
G1 X122.468 Y111.337 E-0.05684
;WIPE_END
G1 E-0.05 F2100
G1 Z0.4 F10800
M204 P1500
G1 X123.36 Y105.406
M204 P1000
G1 X123.555 Y102.669
G1 Z0.2
G1 E1 F2100
;TYPE:Internal perimeter
G1 F1200
G1 X124.221 Y102.581 E0.02107
G1 X124.842 Y102.324 E0.02107
G1 X125.375 Y101.915 E0.02107
G1 X125.784 Y101.382 E0.02107
G1 X126.041 Y100.761 E0.02107
G1 X126.129 Y100.095 E0.02107
G1 X126.041 Y99.429 E0.02107
G1 X125.784 Y98.808 E0.02107
G1 X125.375 Y98.275 E0.02107
G1 X124.842 Y97.866 E0.02107
G1 X124.221 Y97.609 E0.02107
G1 X123.555 Y97.521 E0.02107
G1 X122.889 Y97.609 E0.02107
G1 X122.268 Y97.866 E0.02107
G1 X121.735 Y98.275 E0.02107
G1 X121.326 Y98.808 E0.02107
G1 X121.069 Y99.429 E0.02107
G1 X120.981 Y100.095 E0.02107
G1 X121.069 Y100.761 E0.02107
G1 X121.326 Y101.382 E0.02107
G1 X121.735 Y101.915 E0.02107
G1 X122.268 Y102.324 E0.02107
G1 X122.889 Y102.581 E0.02107
G1 X123.496 Y102.661 E0.01919
M204 P1500
G1 X123.52 Y102.474 F10800
M204 P1000
G1 X123.545 Y102.288
G1 F1200
G1 X124.123 Y102.214 E0.01827
G1 X124.652 Y101.995 E0.01796
G1 X125.106 Y101.646 E0.01796
G1 X125.455 Y101.192 E0.01796
G1 X125.674 Y100.663 E0.01796
G1 X125.749 Y100.095 E0.01796
G1 X125.674 Y99.527 E0.01796
G1 X125.455 Y98.998 E0.01796
G1 X125.106 Y98.544 E0.01796
G1 X124.652 Y98.195 E0.01796
G1 X124.123 Y97.976 E0.01796
G1 X123.555 Y97.901 E0.01796
G1 X122.987 Y97.976 E0.01796
G1 X122.458 Y98.195 E0.01796
G1 X122.004 Y98.544 E0.01796
G1 X121.655 Y98.998 E0.01796
G1 X121.436 Y99.527 E0.01796
G1 X121.361 Y100.095 E0.01796
G1 X121.436 Y100.663 E0.01796
G1 X121.655 Y101.192 E0.01796
G1 X122.004 Y101.646 E0.01796
G1 X122.458 Y101.995 E0.01796
G1 X122.987 Y102.214 E0.01796
G1 X123.485 Y102.28 E0.01575
M204 P1500
G1 X123.51 Y102.093 F10800
M204 P1000
G1 X123.534 Y101.906
;TYPE:External perimeter
G1 F1200
G1 X123.555 Y101.909 E0.00065
G1 X124.024 Y101.847 E0.01484
G1 X124.462 Y101.666 E0.01484
G1 X124.837 Y101.377 E0.01484
G1 X125.126 Y101.002 E0.01484
G1 X125.307 Y100.564 E0.01484
G1 X125.369 Y100.095 E0.01484
G1 X125.307 Y99.626 E0.01484
G1 X125.126 Y99.188 E0.01484
G1 X124.837 Y98.813 E0.01484
G1 X124.462 Y98.524 E0.01484
G1 X124.024 Y98.343 E0.01484
G1 X123.555 Y98.281 E0.01484
G1 X123.086 Y98.343 E0.01484
G1 X122.648 Y98.524 E0.01484
G1 X122.273 Y98.813 E0.01484
G1 X121.984 Y99.188 E0.01484
G1 X121.803 Y99.626 E0.01484
G1 X121.741 Y100.095 E0.01484
G1 X121.803 Y100.564 E0.01484
G1 X121.984 Y101.002 E0.01484
G1 X122.273 Y101.377 E0.01484
G1 X122.648 Y101.666 E0.01484
G1 X123.086 Y101.847 E0.01484
G1 X123.475 Y101.898 E0.01231
G1 X123.542 Y101.925 F10800
;WIPE_START
G1 F8640
G1 X123.555 Y101.909 E-0.01864
G1 X124.024 Y101.847 E-0.10931
G1 X124.462 Y101.666 E-0.10932
G1 X124.837 Y101.377 E-0.10932
G1 X125.126 Y101.002 E-0.10932
G1 X125.307 Y100.564 E-0.10932
G1 X125.369 Y100.095 E-0.10932
G1 X125.307 Y99.626 E-0.10932
G1 X125.126 Y99.188 E-0.10932
G1 X124.976 Y98.993 E-0.05684
;WIPE_END
G1 E-0.05 F2100
G1 Z0.4 F10800
M204 P1500
G1 X121.027 Y101.898
M204 P1000
G1 X118.579 Y101.898
G1 Z0.2
G1 E1 F2100
;TYPE:Internal perimeter
G1 F1200
G1 X118.579 Y91.259 E0.33357
G1 X121.747 Y91.259 E0.09932
G1 X121.326 Y91.808 E0.02169
G1 X121.069 Y92.429 E0.02107
G1 X120.981 Y93.095 E0.02107
G1 X121.069 Y93.761 E0.02107
G1 X121.326 Y94.382 E0.02107
G1 X121.735 Y94.915 E0.02107
G1 X122.268 Y95.324 E0.02107
G1 X122.889 Y95.581 E0.02107
G1 X123.555 Y95.669 E0.02107
G1 X124.221 Y95.581 E0.02107
G1 X124.842 Y95.324 E0.02107
G1 X125.375 Y94.915 E0.02107
G1 X125.784 Y94.382 E0.02107
G1 X126.041 Y93.761 E0.02107
G1 X126.129 Y93.095 E0.02107
G1 X126.041 Y92.429 E0.02107
G1 X125.784 Y91.808 E0.02107
G1 X125.363 Y91.259 E0.02169
G1 X131.421 Y91.259 E0.18993
G1 X131.421 Y118.741 E0.86167
M73 P1 R43
M73 Q1 S44
G1 X125.363 Y118.741 E0.18993
G1 X125.784 Y118.192 E0.02169
G1 X126.041 Y117.571 E0.02107
G1 X126.129 Y116.905 E0.02107
G1 X126.041 Y116.239 E0.02107
G1 X125.784 Y115.618 E0.02107
G1 X125.375 Y115.085 E0.02107
G1 X124.842 Y114.676 E0.02107
G1 X124.221 Y114.419 E0.02107
G1 X123.555 Y114.331 E0.02107
G1 X122.889 Y114.419 E0.02107
G1 X122.268 Y114.676 E0.02107
G1 X121.735 Y115.085 E0.02107
G1 X121.326 Y115.618 E0.02107
G1 X121.069 Y116.239 E0.02107
G1 X120.981 Y116.905 E0.02107
G1 X121.069 Y117.571 E0.02107
G1 X121.326 Y118.192 E0.02107
G1 X121.747 Y118.741 E0.02169
G1 X118.579 Y118.741 E0.09932
G1 X118.579 Y101.958 E0.52621
M204 P1500
G1 X118.391 Y101.958 F10800
M204 P1000
G1 X118.202 Y101.958
G1 F1200
G1 X118.202 Y90.882 E0.34728
G1 X122.467 Y90.882 E0.13371
G1 X122.549 Y91.125 E0.00805
G1 X122.004 Y91.544 E0.02156
G1 X121.655 Y91.998 E0.01796
G1 X121.436 Y92.527 E0.01796
G1 X121.361 Y93.095 E0.01796
G1 X121.436 Y93.663 E0.01796
G1 X121.655 Y94.192 E0.01796
G1 X122.004 Y94.646 E0.01796
G1 X122.458 Y94.995 E0.01796
G1 X122.987 Y95.214 E0.01796
G1 X123.555 Y95.289 E0.01796
G1 X124.123 Y95.214 E0.01796
G1 X124.652 Y94.995 E0.01796
G1 X125.106 Y94.646 E0.01796
G1 X125.455 Y94.192 E0.01796
G1 X125.674 Y93.663 E0.01796
G1 X125.749 Y93.095 E0.01796
G1 X125.674 Y92.527 E0.01796
G1 X125.455 Y91.998 E0.01796
G1 X125.106 Y91.544 E0.01796
G1 X124.561 Y91.125 E0.02156
G1 X124.643 Y90.882 E0.00805
G1 X131.798 Y90.882 E0.22433
G1 X131.798 Y119.118 E0.88531
G1 X124.643 Y119.118 E0.22433
G1 X124.561 Y118.875 E0.00805
G1 X125.106 Y118.456 E0.02156
G1 X125.455 Y118.002 E0.01796
G1 X125.674 Y117.473 E0.01796
G1 X125.749 Y116.905 E0.01796
G1 X125.674 Y116.337 E0.01796
G1 X125.455 Y115.808 E0.01796
G1 X125.106 Y115.354 E0.01796
G1 X124.652 Y115.005 E0.01796
G1 X124.123 Y114.786 E0.01796
G1 X123.555 Y114.711 E0.01796
G1 X122.987 Y114.786 E0.01796
G1 X122.458 Y115.005 E0.01796
G1 X122.004 Y115.354 E0.01796
G1 X121.655 Y115.808 E0.01796
G1 X121.436 Y116.337 E0.01796
G1 X121.361 Y116.905 E0.01796
G1 X121.436 Y117.473 E0.01796
G1 X121.655 Y118.002 E0.01796
G1 X122.004 Y118.456 E0.01796
G1 X122.549 Y118.875 E0.02156
G1 X122.467 Y119.118 E0.00805
G1 X118.202 Y119.118 E0.13371
G1 X118.202 Y102.018 E0.53616
;WIPE_START
M73 Q1 S43
G1 F8640
G1 X118.202 Y97.904 E-0.95
;WIPE_END
G1 E-0.05 F2100
G1 Z0.4 F10800
M204 P1500
G1 X120.644 Y108.586
M204 P1000
G1 X123.086 Y115.153
G1 Z0.2
G1 E1 F2100
;TYPE:External perimeter
G1 F1200
G1 X122.648 Y115.334 E0.01484
G1 X122.273 Y115.623 E0.01484
G1 X121.984 Y115.998 E0.01484
G1 X121.803 Y116.436 E0.01484
G1 X121.741 Y116.905 E0.01484
G1 X121.803 Y117.374 E0.01484
G1 X121.984 Y117.812 E0.01484
G1 X122.273 Y118.187 E0.01484
G1 X122.648 Y118.476 E0.01484
G1 X123.086 Y118.657 E0.01484
G1 X123.555 Y118.719 E0.01484
G1 X124.024 Y118.657 E0.01484
G1 X124.462 Y118.476 E0.01484
G1 X124.837 Y118.187 E0.01484
G1 X125.126 Y117.812 E0.01484
G1 X125.307 Y117.374 E0.01484
G1 X125.369 Y116.905 E0.01484
G1 X125.307 Y116.436 E0.01484
G1 X125.126 Y115.998 E0.01484
G1 X124.837 Y115.623 E0.01484
G1 X124.462 Y115.334 E0.01484
G1 X124.024 Y115.153 E0.01484
G1 X123.555 Y115.091 E0.01484
G1 X123.145 Y115.145 E0.01296
G1 X122.791 Y114.883 F10800
;WIPE_START
G1 F8640
G1 X122.648 Y115.334 E-0.12275
G1 X122.273 Y115.623 E-0.10932
G1 X121.984 Y115.998 E-0.10932
G1 X121.803 Y116.436 E-0.10932
G1 X121.741 Y116.905 E-0.10931
G1 X121.803 Y117.374 E-0.10932
G1 X121.984 Y117.812 E-0.10932
G1 X122.273 Y118.187 E-0.10932
G1 X122.486 Y118.351 E-0.06204
;WIPE_END
G1 E-0.05 F2100
G1 Z0.4 F10800
M204 P1500
G1 X123.35 Y105.027
M204 P1000
G1 X123.555 Y94.909
G1 Z0.2
G1 E1 F2100
G1 F1200
G1 X124.024 Y94.847 E0.01484
G1 X124.462 Y94.666 E0.01484
G1 X124.837 Y94.377 E0.01484
G1 X125.126 Y94.002 E0.01484
G1 X125.307 Y93.564 E0.01484
G1 X125.369 Y93.095 E0.01484
G1 X125.307 Y92.626 E0.01484
G1 X125.126 Y92.188 E0.01484
G1 X124.837 Y91.813 E0.01484
G1 X124.462 Y91.524 E0.01484
G1 X124.024 Y91.343 E0.01484
G1 X123.555 Y91.281 E0.01484
G1 X123.086 Y91.343 E0.01484
G1 X122.648 Y91.524 E0.01484
G1 X122.273 Y91.813 E0.01484
G1 X121.984 Y92.188 E0.01484
G1 X121.803 Y92.626 E0.01484
G1 X121.741 Y93.095 E0.01484
G1 X121.803 Y93.564 E0.01484
G1 X121.984 Y94.002 E0.01484
G1 X122.273 Y94.377 E0.01484
G1 X122.648 Y94.666 E0.01484
G1 X123.086 Y94.847 E0.01484
G1 X123.496 Y94.901 E0.01296
G1 X123.77 Y95.246 F10800
;WIPE_START
G1 F8640
G1 X124.024 Y94.847 E-0.12275
G1 X124.462 Y94.666 E-0.10932
G1 X124.837 Y94.377 E-0.10932
G1 X125.126 Y94.002 E-0.10932
G1 X125.307 Y93.564 E-0.10932
G1 X125.369 Y93.095 E-0.10932
G1 X125.307 Y92.626 E-0.10932
G1 X125.126 Y92.188 E-0.10932
G1 X124.962 Y91.975 E-0.06204
;WIPE_END
G1 E-0.05 F2100
G1 Z0.4 F10800
M204 P1500
G1 X123.496 Y92.703
M204 P1000
G1 X123.496 Y90.505
G1 Z0.2
G1 E1 F2100
G1 F1200
G1 X132.175 Y90.505 E0.27214
G1 X132.175 Y119.495 E0.90896
G1 X117.825 Y119.495 E0.44993
G1 X117.825 Y90.505 E0.90896
G1 X123.436 Y90.505 E0.17591
G1 X123.696 Y90.851 F10800
;WIPE_START
G1 F8640
G1 X127.55 Y90.505 E-0.95
;WIPE_END
G1 E-0.05 F2100
G1 Z0.4 F10800
M204 P1500
G1 X123.06 Y90.894
M204 P1000
G1 X122.685 Y91.283
G1 Z0.2
G1 E1 F2100
;TYPE:Gap fill
;WIDTH:0.129903
G1 F1200
G1 X122.784 Y91.227 E0.00082
;WIDTH:0.210046
G1 X122.863 Y91.108 E0.00198
;WIDTH:0.434633
G1 X122.941 Y90.936 E0.00615
;WIDTH:0.541131
G1 X123.008 Y90.927 E0.00281
G1 X123.267 Y90.91 E0.01077
;WIDTH:0.473097
G1 X123.527 Y90.893 E0.0093
G1 X123.583 Y90.893 E0.00201
G1 X123.843 Y90.91 E0.0093
;WIDTH:0.541131
G1 X124.102 Y90.927 E0.01077
;WIDTH:0.615746
G1 X124.192 Y90.986 E0.00508
;WIDTH:0.351689
G1 X124.269 Y91.157 E0.00485
;WIDTH:0.185051
G1 X124.326 Y91.227 E0.00106
;WIDTH:0.129903
