; generated by SuperSlicer 2.3.57 on 2022-03-16 at 08:32:03 UTC

; 

; external perimeters extrusion width = 0.45mm
; perimeters extrusion width = 0.45mm
; infill extrusion width = 0.45mm
; solid infill extrusion width = 0.45mm
; top infill extrusion width = 0.40mm
; first layer extrusion width = 0.42mm

; object:{"name":"Blue - Tensioner Base","id":"Blue - Tensioner Base.stl id:0 copy 0","object_center":[125.000000,105.000000,0.000000],"boundingbox_center":[125.000000,105.000000,14.420930],"boundingbox_size":[19.999891,19.972004,28.841860]}
; Total objects to print: 1
M486 T1
; plater:{"center":[125.000000,105.000000,0.000000],"boundingbox_center":[125.000000,105.000000,14.420930],"boundingbox_size":[19.999891,19.972004,28.841860]}

M73 P0 R42
M73 Q0 S43
;TYPE:Custom
M862.3 P "MK3S" ; printer model check
M862.1 P0.4 ; nozzle diameter check
M115 U3.10.0 ; tell printer latest fw version
G90 ; use absolute coordinates
M83 ; extruder relative mode
M104 S230 ; set extruder temp
M140 S85 ; set bed temp
M190 S85 ; wait for bed temp
M109 S230 ; wait for extruder temp
G28 W ; home all without mesh bed level
G80 ; mesh bed leveling
G1 Y-3.0 F1000.0 ; go outside print area
G92 E0.0
G1 X60.0 E9.0 F1000.0 ; intro line
G1 X100.0 E12.5 F1000.0 ; intro line
G92 E0.0
M221 S95

; Don't change E values below. Excessive value can damage the printer.
M907 E430 ; set extruder motor current
M107
G21 ; set units to millimeters
G90 ; use absolute coordinates
M83 ; use relative distances for extrusion
M900 K0.08 ; Filament gcode LA 1.5
M900 K45 ; Filament gcode LA 1.0
;LAYER_CHANGE
;Z:0.2
;HEIGHT:0.2
;BEFORE_LAYER_CHANGE
G92 E0.0
;0.2


G1 E-1 F2100
G1 Z0.2 F10800
G1 Z0.2
;AFTER_LAYER_CHANGE
;0.2
G1 Z0.4
M204 P1500
G1 X112.87 Y95.505
G1 Z0.2
G1 E1 F2100
;TYPE:Skirt
;WIDTH:0.45
G1 F1200
G1 X112.523 Y96.19 E0.02598
G1 X112.39 Y96.946 E0.02598
G1 X112.408 Y113.299 E0.55353
G1 X112.596 Y114.003 E0.02465
G1 X112.97 Y114.627 E0.02465
G1 X115.491 Y117.116 E0.11993
G1 X116.176 Y117.463 E0.02598
G1 X116.932 Y117.596 E0.02598
G1 X133.313 Y117.578 E0.55448
G1 X134.017 Y117.39 E0.02465
G1 X134.641 Y117.016 E0.02465
G1 X137.13 Y114.495 E0.11993
G1 X137.478 Y113.806 E0.02612
G1 X137.61 Y113.05 E0.02598
G1 X137.566 Y96.535 E0.55901
G1 X137.369 Y95.917 E0.02197
G1 X137.025 Y95.366 E0.02197
G1 X134.751 Y93.078 E0.10919
G1 X133.94 Y92.579 E0.03225
G1 X133.004 Y92.403 E0.03225
G1 X116.604 Y92.434 E0.55513
G1 X115.932 Y92.632 E0.02371
G1 X115.34 Y92.999 E0.02357
G1 X112.912 Y95.462 E0.11709
G1 X113.063 Y95.593 F10800
M204 P1000
G1 X113.214 Y95.723
G1 F1200
G1 X112.912 Y96.311 E0.02238
G1 X112.797 Y96.963 E0.02238
G1 X112.812 Y113.245 E0.55115
M73 Q0 S42
G1 X112.973 Y113.849 E0.02116
G1 X113.297 Y114.384 E0.02116
G1 X115.709 Y116.772 E0.11491
G1 X116.297 Y117.075 E0.02238
G1 X116.949 Y117.189 E0.02238
G1 X133.259 Y117.174 E0.5521
G1 X133.863 Y117.013 E0.02116
G1 X134.398 Y116.689 E0.02116
G1 X136.786 Y114.277 E0.11491
G1 X137.088 Y113.689 E0.02238
G1 X137.203 Y113.034 E0.02251
G1 X137.17 Y96.631 E0.5552
G1 X137.001 Y96.09 E0.01919
G1 X136.699 Y95.61 E0.01919
G1 X134.489 Y93.39 E0.10602
G1 X133.803 Y92.962 E0.0274
G1 X133.004 Y92.81 E0.02752
G1 X116.679 Y92.834 E0.55258
G1 X116.1 Y93.003 E0.02042
G1 X115.588 Y93.322 E0.02042
G1 X113.256 Y95.681 E0.11226
; INIT printing object Blue - Tensioner Base.stl id:0 copy 0
;WIPE_START
G1 F8640
G1 X112.912 Y96.311 E-0.16596
G1 X112.797 Y96.963 E-0.15269
G1 X112.8 Y99.697 E-0.63135
;WIPE_END
G1 E-0.05 F2100
G1 Z0.4 F10800
; printing object Blue - Tensioner Base.stl id:0 copy 0
M486 S0
M204 P1500
G1 X114.71 Y103.621
M204 P1000
G1 X116.164 Y111.562
G1 Z0.2
G1 E1 F2100
;TYPE:Internal perimeter
;WIDTH:0.42
G1 F1200
G1 X133.836 Y111.562 E0.55408
G1 X133.836 Y112.504 E0.02952
G1 X132.518 Y113.822 E0.05844
G1 X117.482 Y113.822 E0.47143
G1 X116.164 Y112.504 E0.05844
G1 X116.164 Y111.622 E0.02764
M204 P1500
G1 X115.976 Y111.622 F10800
M204 P1000
G1 X115.787 Y111.622
G1 F1200
G1 X115.787 Y111.185 E0.0137
G1 X134.213 Y111.185 E0.57773
G1 X134.213 Y112.66 E0.04624
G1 X132.674 Y114.199 E0.06824
G1 X117.326 Y114.199 E0.48122
G1 X115.787 Y112.66 E0.06824
G1 X115.787 Y111.682 E0.03066
M204 P1500
G1 X115.599 Y111.682 F10800
M204 P1000
G1 X115.41 Y111.682
;TYPE:External perimeter
G1 F1200
G1 X115.41 Y110.808 E0.02741
G1 X134.59 Y110.808 E0.60137
G1 X134.59 Y112.816 E0.06296
G1 X132.83 Y114.576 E0.07803
G1 X117.17 Y114.576 E0.49102
G1 X115.41 Y112.816 E0.07803
G1 X115.41 Y111.742 E0.03367
G1 X115.756 Y111.482 F10800
;WIPE_START
G1 F8640
G1 X115.41 Y110.808 E-0.2157
G1 X118.59 Y110.808 E-0.7343
;WIPE_END
G1 E-0.05 F2100
G1 Z0.4 F10800
M204 P1500
G1 X124.185 Y111.709
M204 P1000
G1 X132.96 Y111.675
G1 Z0.2
G1 E1 F2100
;TYPE:Solid infill
;WIDTH:0.426874
G1 F1200
G1 X133.561 Y112.275 E0.02705
G1 X133.561 Y112.39 E0.00365
G1 X133.351 Y112.599 E0.00944
G1 X132.589 Y111.837 E0.03433
G1 X132.056 Y111.837 E0.01699
G1 X133.084 Y112.866 E0.04635
G1 X132.818 Y113.132 E0.01202
G1 X131.523 Y111.837 E0.05837
G1 X130.989 Y111.837 E0.01699
G1 X132.551 Y113.399 E0.07038
G1 X132.404 Y113.547 E0.00665
G1 X132.165 Y113.547 E0.00759
G1 X130.456 Y111.837 E0.07703
G1 X129.923 Y111.837 E0.01699
G1 X131.632 Y113.547 E0.07703
G1 X131.099 Y113.547 E0.01699
G1 X129.39 Y111.837 E0.07703
G1 X128.856 Y111.837 E0.01699
G1 X130.566 Y113.547 E0.07703
G1 X130.032 Y113.547 E0.01699
G1 X128.323 Y111.837 E0.07703
G1 X127.79 Y111.837 E0.01699
G1 X129.499 Y113.547 E0.07703
G1 X128.966 Y113.547 E0.01699
G1 X127.257 Y111.837 E0.07703
M73 Q1 S42
G1 X126.723 Y111.837 E0.01699
M73 P1 R42
G1 X128.433 Y113.547 E0.07703
G1 X127.899 Y113.547 E0.01699
G1 X126.19 Y111.837 E0.07703
G1 X125.657 Y111.837 E0.01699
G1 X127.366 Y113.547 E0.07703
G1 X126.833 Y113.547 E0.01699
G1 X125.124 Y111.837 E0.07703
G1 X124.59 Y111.837 E0.01699
G1 X126.299 Y113.547 E0.07703
G1 X125.766 Y113.547 E0.01699
G1 X124.057 Y111.837 E0.07703
G1 X123.524 Y111.837 E0.01699
G1 X125.233 Y113.547 E0.07703
G1 X124.7 Y113.547 E0.01699
G1 X122.99 Y111.837 E0.07703
G1 X122.457 Y111.837 E0.01699
G1 X124.166 Y113.547 E0.07703
G1 X123.633 Y113.547 E0.01699
G1 X121.924 Y111.837 E0.07703
G1 X121.391 Y111.837 E0.01699
G1 X123.1 Y113.547 E0.07703
G1 X122.567 Y113.547 E0.01699
G1 X120.857 Y111.837 E0.07703
G1 X120.324 Y111.837 E0.01699
G1 X122.033 Y113.547 E0.07703
G1 X121.5 Y113.547 E0.01699
G1 X119.791 Y111.837 E0.07703
G1 X119.258 Y111.837 E0.01699
G1 X120.967 Y113.547 E0.07703
G1 X120.433 Y113.547 E0.01699
G1 X118.724 Y111.837 E0.07703
G1 X118.191 Y111.837 E0.01699
G1 X119.9 Y113.547 E0.07703
G1 X119.367 Y113.547 E0.01699
G1 X117.658 Y111.837 E0.07703
G1 X117.124 Y111.837 E0.01699
G1 X118.834 Y113.547 E0.07703
G1 X118.3 Y113.547 E0.01699
G1 X116.591 Y111.837 E0.07703
G1 X116.439 Y111.837 E0.00484
G1 X116.439 Y112.219 E0.01216
G1 X117.929 Y113.709 E0.06714
;WIPE_START
G1 F8640
G1 X116.439 Y112.219 E-0.4865
G1 X116.439 Y111.837 E-0.0881
G1 X116.591 Y111.837 E-0.03504
G1 X117.634 Y112.88 E-0.34037
;WIPE_END
G1 E-0.05 F2100
G1 Z0.4 F10800
M204 P1500
G1 X117.929 Y106.063
M204 P1000
G1 X117.929 Y98.418
G1 Z0.2
G1 E1 F2100
;TYPE:Internal perimeter
;WIDTH:0.42
G1 F1200
G1 X116.164 Y98.418 E0.05534
G1 X116.164 Y97.496 E0.0289
G1 X117.482 Y96.178 E0.05844
G1 X132.518 Y96.178 E0.47143
G1 X133.836 Y97.496 E0.05844
G1 X133.836 Y98.418 E0.0289
G1 X117.989 Y98.418 E0.49686
M204 P1500
G1 X117.989 Y98.606 F10800
M204 P1000
G1 X117.989 Y98.795
G1 F1200
G1 X115.787 Y98.795 E0.06905
G1 X115.787 Y97.34 E0.04562
G1 X117.326 Y95.801 E0.06824
G1 X132.674 Y95.801 E0.48122
G1 X132.777 Y95.904 E0.00456
G1 X134.213 Y97.34 E0.06368
G1 X134.213 Y98.795 E0.04562
G1 X118.049 Y98.795 E0.5068
M204 P1500
G1 X118.049 Y98.983 F10800
M204 P1000
G1 X118.049 Y99.172
;TYPE:External perimeter
G1 F1200
G1 X115.41 Y99.172 E0.08275
G1 X115.41 Y97.184 E0.06234
G1 X117.17 Y95.424 E0.07803
G1 X132.83 Y95.424 E0.49102
G1 X133.043 Y95.637 E0.00946
G1 X134.59 Y97.184 E0.06858
G1 X134.59 Y99.172 E0.06234
G1 X118.109 Y99.172 E0.51674
G1 X117.849 Y98.826 F10800
;WIPE_START
G1 F8640
G1 X115.41 Y99.172 E-0.62326
G1 X115.41 Y97.757 E-0.32674
;WIPE_END
G1 E-0.05 F2100
G1 Z0.4 F10800
M204 P1500
G1 X125.17 Y97.732
M204 P1000
G1 X132.231 Y96.291
G1 Z0.2
G1 E1 F2100
;TYPE:Solid infill
;WIDTH:0.422032
G1 F1200
G1 X133.561 Y97.621 E0.05925
G1 X133.561 Y98.143 E0.01644
G1 X133.549 Y98.143 E0.00037
G1 X131.86 Y96.453 E0.07526
G1 X131.326 Y96.453 E0.0168
G1 X133.016 Y98.143 E0.07526
G1 X132.482 Y98.143 E0.0168
G1 X130.793 Y96.453 E0.07526
G1 X130.26 Y96.453 E0.0168
G1 X131.949 Y98.143 E0.07526
G1 X131.416 Y98.143 E0.0168
G1 X129.727 Y96.453 E0.07526
G1 X129.193 Y96.453 E0.0168
G1 X130.883 Y98.143 E0.07526
G1 X130.349 Y98.143 E0.0168
G1 X128.66 Y96.453 E0.07526
G1 X128.127 Y96.453 E0.0168
G1 X129.816 Y98.143 E0.07526
G1 X129.283 Y98.143 E0.0168
M73 P1 R41
G1 X127.594 Y96.453 E0.07526
G1 X127.06 Y96.453 E0.0168
G1 X128.75 Y98.143 E0.07526
G1 X128.216 Y98.143 E0.0168
G1 X126.527 Y96.453 E0.07526
G1 X125.994 Y96.453 E0.0168
G1 X127.683 Y98.143 E0.07526
G1 X127.15 Y98.143 E0.0168
G1 X125.46 Y96.453 E0.07526
G1 X124.927 Y96.453 E0.0168
G1 X126.616 Y98.143 E0.07526
G1 X126.083 Y98.143 E0.0168
G1 X124.394 Y96.453 E0.07526
G1 X123.861 Y96.453 E0.0168
G1 X125.55 Y98.143 E0.07526
G1 X125.017 Y98.143 E0.0168
G1 X123.327 Y96.453 E0.07526
G1 X122.794 Y96.453 E0.0168
G1 X124.483 Y98.143 E0.07526
G1 X123.95 Y98.143 E0.0168
G1 X122.261 Y96.453 E0.07526
G1 X121.728 Y96.453 E0.0168
G1 X123.417 Y98.143 E0.07526
G1 X122.884 Y98.143 E0.0168
G1 X121.194 Y96.453 E0.07526
G1 X120.661 Y96.453 E0.0168
G1 X122.35 Y98.143 E0.07526
G1 X121.817 Y98.143 E0.0168
G1 X120.128 Y96.453 E0.07526
G1 X119.595 Y96.453 E0.0168
G1 X121.284 Y98.143 E0.07526
G1 X120.75 Y98.143 E0.0168
G1 X119.061 Y96.453 E0.07526
G1 X118.528 Y96.453 E0.0168
G1 X120.217 Y98.143 E0.07526
G1 X119.684 Y98.143 E0.0168
G1 X117.995 Y96.453 E0.07526
G1 X117.596 Y96.453 E0.01255
G1 X117.529 Y96.521 E0.003
G1 X119.151 Y98.143 E0.07226
G1 X118.617 Y98.143 E0.0168
G1 X117.262 Y96.787 E0.06038
G1 X116.996 Y97.054 E0.01188
G1 X118.084 Y98.143 E0.0485
G1 X117.551 Y98.143 E0.0168
G1 X116.729 Y97.321 E0.03662
G1 X116.462 Y97.587 E0.01188
G1 X117.018 Y98.143 E0.02474
G1 X116.484 Y98.143 E0.0168
G1 X116.277 Y97.936 E0.00922
; INIT stop printing object Blue - Tensioner Base.stl id:0 copy 0
;LAYER_CHANGE
;Z:0.4
;HEIGHT:0.2
;BEFORE_LAYER_CHANGE
G92 E0.0
;0.4


;WIPE_START
G1 F8640
G1 X116.484 Y98.143 E-0.06759
G1 X117.018 Y98.143 E-0.12313
G1 X116.462 Y97.587 E-0.18131
G1 X116.729 Y97.321 E-0.08707
G1 X117.551 Y98.143 E-0.26838
G1 X118.084 Y98.143 E-0.12313
G1 X117.78 Y97.838 E-0.09939
;WIPE_END
G1 E-0.05 F2100
G1 Z0.4 F10800
; stop printing object Blue - Tensioner Base.stl id:0 copy 0
M486 S-1
G1 Z0.4
;AFTER_LAYER_CHANGE
;0.4
M104 S240 ; set temperature
M140 S90 ; set bed temperature
G1 Z0.6
M204 P1500
G1 X115.951 Y96.036
M204 P1000
G1 X114.123 Y94.234
G1 Z0.4
G1 E1 F2100
;TYPE:Skirt
;WIDTH:0.45
G1 F3000
G1 X112.87 Y95.505 E0.06044
G1 X112.523 Y96.19 E0.02598
G1 X112.39 Y96.946 E0.02598
G1 X112.408 Y113.299 E0.55353
G1 X112.596 Y114.003 E0.02465
G1 X112.97 Y114.627 E0.02465
G1 X115.491 Y117.116 E0.11993
G1 X116.176 Y117.463 E0.02598
G1 X116.932 Y117.596 E0.02598
G1 X133.313 Y117.578 E0.55448
G1 X134.017 Y117.39 E0.02465
G1 X134.641 Y117.016 E0.02465
G1 X137.13 Y114.495 E0.11993
G1 X137.478 Y113.806 E0.02612
G1 X137.61 Y113.05 E0.02598
G1 X137.566 Y96.535 E0.55901
G1 X137.369 Y95.917 E0.02197
G1 X137.025 Y95.366 E0.02197
G1 X134.751 Y93.078 E0.10919
G1 X133.94 Y92.579 E0.03225
G1 X133.004 Y92.403 E0.03225
G1 X116.604 Y92.434 E0.55513
G1 X115.932 Y92.632 E0.02371
G1 X115.34 Y92.999 E0.02357
G1 X114.165 Y94.191 E0.05665
M204 P1500
G1 X114.308 Y94.332 F10800
M204 P1000
G1 X114.45 Y94.473
G1 F3000
G1 X113.214 Y95.723 E0.05952
G1 X112.912 Y96.311 E0.02238
G1 X112.797 Y96.963 E0.02238
G1 X112.812 Y113.245 E0.55115
G1 X112.973 Y113.849 E0.02116
G1 X113.297 Y114.384 E0.02116
G1 X115.709 Y116.772 E0.11491
G1 X116.297 Y117.075 E0.02238
G1 X116.949 Y117.189 E0.02238
G1 X133.259 Y117.174 E0.5521
G1 X133.863 Y117.013 E0.02116
G1 X134.398 Y116.689 E0.02116
G1 X136.786 Y114.277 E0.11491
G1 X137.088 Y113.689 E0.02238
G1 X137.203 Y113.034 E0.02251
G1 X137.17 Y96.631 E0.5552
G1 X137.001 Y96.09 E0.01919
G1 X136.699 Y95.61 E0.01919
G1 X134.489 Y93.39 E0.10602
G1 X133.803 Y92.962 E0.0274
G1 X133.004 Y92.81 E0.02752
G1 X116.679 Y92.834 E0.55258
G1 X116.1 Y93.003 E0.02042
G1 X115.588 Y93.322 E0.02042
G1 X114.493 Y94.43 E0.05274
; INIT printing object Blue - Tensioner Base.stl id:0 copy 0
;WIPE_START
G1 F8640
G1 X113.214 Y95.723 E-0.4199
G1 X112.912 Y96.311 E-0.15269
G1 X112.797 Y96.963 E-0.15269
G1 X112.798 Y97.936 E-0.22472
;WIPE_END
G1 E-0.05 F2100
G1 Z0.6 F10800
; printing object Blue - Tensioner Base.stl id:0 copy 0
M486 S0
M204 P1500
G1 X115.266 Y102.934
M204 P800
G1 X116.039 Y111.437
G1 Z0.4
G1 E1 F2100
;TYPE:Internal perimeter
G1 F2700
G1 X133.961 Y111.437 E0.60662
G1 X133.961 Y112.556 E0.03786
G1 X132.57 Y113.947 E0.0666
G1 X117.43 Y113.947 E0.51244
G1 X116.039 Y112.556 E0.0666
G1 X116.039 Y111.497 E0.03583
M204 P1500
G1 X115.836 Y111.497 F10800
M204 P800
G1 X115.632 Y111.497
G1 F2700
G1 X115.632 Y111.03 E0.01581
G1 X134.368 Y111.03 E0.63418
G1 X134.368 Y112.724 E0.05734
G1 X132.738 Y114.354 E0.07801
G1 X117.262 Y114.354 E0.52385
G1 X115.632 Y112.724 E0.07801
G1 X115.632 Y111.557 E0.0395
M204 P1500
G1 X115.429 Y111.557 F10800
M204 P800
G1 X115.225 Y111.557
;TYPE:External perimeter
G1 F1500
G1 X115.225 Y110.623 E0.03162
G1 X134.775 Y110.623 E0.66174
G1 X134.775 Y112.893 E0.07683
G1 X132.907 Y114.761 E0.08943
G1 X117.093 Y114.761 E0.53527
G1 X115.225 Y112.893 E0.08943
G1 X115.225 Y111.617 E0.04318
M204 P1000
G1 X115.571 Y111.357 F10800
;WIPE_START
G1 F8640
G1 X115.225 Y110.623 E-0.22955
G1 X118.345 Y110.623 E-0.72045
;WIPE_END
G1 E-0.05 F2100
G1 Z0.6 F10800
M204 P1500
G1 X123.742 Y112.721
M204 P1000
M73 P2 R41
G1 X132.26 Y113.825
M73 Q2 S42
G1 Z0.4
G1 E1 F2100
;TYPE:Solid infill
;WIDTH:0.448865
G1 F4800
G1 X133.664 Y112.421 E0.06703
G1 X133.664 Y111.845 E0.01944
G1 X131.859 Y113.65 E0.08616
G1 X131.283 Y113.65 E0.01944
G1 X133.199 Y111.734 E0.09146
G1 X132.623 Y111.734 E0.01944
G1 X130.708 Y113.65 E0.09146
G1 X130.132 Y113.65 E0.01944
G1 X132.047 Y111.734 E0.09146
G1 X131.472 Y111.734 E0.01944
G1 X129.556 Y113.65 E0.09146
G1 X128.981 Y113.65 E0.01944
G1 X130.896 Y111.734 E0.09146
G1 X130.32 Y111.734 E0.01944
G1 X128.405 Y113.65 E0.09146
G1 X127.829 Y113.65 E0.01944
G1 X129.745 Y111.734 E0.09146
G1 X129.169 Y111.734 E0.01944
G1 X127.254 Y113.65 E0.09146
G1 X126.678 Y113.65 E0.01944
G1 X128.593 Y111.734 E0.09146
G1 X128.018 Y111.734 E0.01944
G1 X126.102 Y113.65 E0.09146
G1 X125.526 Y113.65 E0.01944
G1 X127.442 Y111.734 E0.09146
G1 X126.866 Y111.734 E0.01944
G1 X124.951 Y113.65 E0.09146
G1 X124.375 Y113.65 E0.01944
G1 X126.29 Y111.734 E0.09146
G1 X125.715 Y111.734 E0.01944
G1 X123.799 Y113.65 E0.09146
G1 X123.224 Y113.65 E0.01944
G1 X125.139 Y111.734 E0.09146
G1 X124.563 Y111.734 E0.01944
G1 X122.648 Y113.65 E0.09146
G1 X122.072 Y113.65 E0.01944
G1 X123.988 Y111.734 E0.09146
G1 X123.412 Y111.734 E0.01944
G1 X121.497 Y113.65 E0.09146
G1 X120.921 Y113.65 E0.01944
G1 X122.836 Y111.734 E0.09146
G1 X122.261 Y111.734 E0.01944
G1 X120.345 Y113.65 E0.09146
G1 X119.77 Y113.65 E0.01944
G1 X121.685 Y111.734 E0.09146
G1 X121.109 Y111.734 E0.01944
G1 X119.194 Y113.65 E0.09146
G1 X118.618 Y113.65 E0.01944
G1 X120.534 Y111.734 E0.09146
G1 X119.958 Y111.734 E0.01944
G1 X118.042 Y113.65 E0.09146
G1 X117.554 Y113.65 E0.01651
G1 X117.51 Y113.606 E0.00207
G1 X119.382 Y111.734 E0.08938
G1 X118.806 Y111.734 E0.01944
G1 X117.222 Y113.318 E0.07564
G1 X116.934 Y113.031 E0.01374
G1 X118.231 Y111.734 E0.0619
G1 X117.655 Y111.734 E0.01944
G1 X116.647 Y112.743 E0.04815
G1 X116.359 Y112.455 E0.01374
G1 X117.079 Y111.734 E0.03441
G1 X116.504 Y111.734 E0.01944
G1 X116.161 Y112.077 E0.01635
;WIPE_START
G1 F8640
G1 X116.504 Y111.734 E-0.11178
G1 X117.079 Y111.734 E-0.13293
G1 X116.359 Y112.455 E-0.2353
G1 X116.647 Y112.743 E-0.094
G1 X117.655 Y111.734 E-0.3293
G1 X117.857 Y111.734 E-0.0467
;WIPE_END
