; generated by SuperSlicer 2.3.57 on 2022-03-16 at 08:28:11 UTC

; 

; external perimeters extrusion width = 0.45mm
; perimeters extrusion width = 0.45mm
; infill extrusion width = 0.45mm
; solid infill extrusion width = 0.45mm
; top infill extrusion width = 0.40mm
; first layer extrusion width = 0.42mm

; object:{"name":"Blue - FS Cover","id":"Blue - FS Cover.stl id:0 copy 0","object_center":[125.000000,105.000000,0.000000],"boundingbox_center":[125.000000,105.000000,4.000000],"boundingbox_size":[28.099998,35.999996,8.000000]}
; Total objects to print: 1
M486 T1
; plater:{"center":[125.000000,105.000000,0.000000],"boundingbox_center":[125.000000,105.000000,4.000000],"boundingbox_size":[28.099998,35.999996,8.000000]}

M73 P0 R23
M73 Q0 S24
;TYPE:Custom
M862.3 P "MK3S" ; printer model check
M862.1 P0.4 ; nozzle diameter check
M115 U3.10.0 ; tell printer latest fw version
G90 ; use absolute coordinates
M83 ; extruder relative mode
M104 S230 ; set extruder temp
M140 S85 ; set bed temp
M190 S85 ; wait for bed temp
M109 S230 ; wait for extruder temp
G28 W ; home all without mesh bed level
G80 ; mesh bed leveling
G1 Y-3.0 F1000.0 ; go outside print area
G92 E0.0
G1 X60.0 E9.0 F1000.0 ; intro line
G1 X100.0 E12.5 F1000.0 ; intro line
G92 E0.0
M221 S95

; Don't change E values below. Excessive value can damage the printer.
M907 E430 ; set extruder motor current
M107
G21 ; set units to millimeters
G90 ; use absolute coordinates
M83 ; use relative distances for extrusion
M900 K0.08 ; Filament gcode LA 1.5
M900 K45 ; Filament gcode LA 1.0
;LAYER_CHANGE
;Z:0.2
;HEIGHT:0.2
;BEFORE_LAYER_CHANGE
G92 E0.0
;0.2


G1 E-1 F2100
G1 Z0.2 F10800
G1 Z0.2
;AFTER_LAYER_CHANGE
;0.2
G1 Z0.4
M204 P1500
G1 X108.838 Y90.839
G1 Z0.2
G1 E1 F2100
;TYPE:Skirt
;WIDTH:0.45
G1 F1200
G1 X108.473 Y91.55 E0.02705
G1 X108.34 Y92.334 E0.02692
G1 X108.34 Y123.045 E1.03953
M73 Q0 S23
G1 X108.419 Y123.641 E0.02036
G1 X108.633 Y124.203 E0.02036
G1 X108.973 Y124.705 E0.02049
G1 X109.415 Y125.112 E0.02036
G1 X110.122 Y125.476 E0.02692
G1 X110.906 Y125.61 E0.02692
G1 X139.099 Y125.61 E0.9543
G1 X139.695 Y125.53 E0.02036
G1 X140.257 Y125.315 E0.02036
G1 X140.755 Y124.977 E0.02036
G1 X141.162 Y124.535 E0.02036
G1 X141.527 Y123.824 E0.02705
G1 X141.66 Y123.036 E0.02705
G1 X141.657 Y86.863 E1.22441
G1 X141.585 Y86.374 E0.01673
G1 X141.421 Y85.908 E0.01673
G1 X141.173 Y85.48 E0.01673
G1 X140.848 Y85.108 E0.01673
G1 X140.459 Y84.803 E0.01673
G1 X140.02 Y84.576 E0.01673
G1 X139.546 Y84.437 E0.01673
G1 X139.054 Y84.389 E0.01673
G1 X116.317 Y84.389 E0.76961
G1 X115.779 Y84.447 E0.01834
G1 X115.127 Y84.68 E0.02344
G1 X114.556 Y85.079 E0.02357
G1 X108.88 Y90.797 E0.27268
M73 P1 R23
M73 Q1 S23
G1 X109.028 Y90.933 F10800
M204 P1000
G1 X109.175 Y91.069
G1 F1200
G1 X108.861 Y91.671 E0.023
G1 X108.747 Y92.345 E0.02312
G1 X108.747 Y123.032 E1.03874
G1 X108.813 Y123.537 E0.01722
G1 X108.991 Y124.009 E0.01709
G1 X109.275 Y124.431 E0.01722
G1 X109.645 Y124.775 E0.01709
G1 X110.247 Y125.089 E0.023
G1 X110.917 Y125.203 E0.023
G1 X139.082 Y125.203 E0.95336
G1 X139.587 Y125.137 E0.01722
G1 X140.059 Y124.959 E0.01709
G1 X140.481 Y124.675 E0.01722
G1 X140.825 Y124.305 E0.01709
G1 X141.14 Y123.699 E0.02312
G1 X141.253 Y123.026 E0.02312
G1 X141.251 Y86.902 E1.22275
G1 X141.057 Y86.09 E0.02826
G1 X140.574 Y85.409 E0.02826
G1 X139.873 Y84.956 E0.02826
G1 X139.054 Y84.796 E0.02826
G1 X116.321 Y84.796 E0.76948
G1 X115.873 Y84.843 E0.01524
G1 X115.311 Y85.043 E0.02017
G1 X114.824 Y85.386 E0.02017
G1 X109.217 Y91.026 E0.26919
; INIT printing object Blue - FS Cover.stl id:0 copy 0
;WIPE_START
G1 F8640
G1 X108.861 Y91.671 E-0.17015
G1 X108.747 Y92.345 E-0.15771
G1 X108.747 Y95.039 E-0.62214
;WIPE_END
G1 E-0.05 F2100
G1 Z0.4 F10800
; printing object Blue - FS Cover.stl id:0 copy 0
M486 S0
M204 P1500
G1 X110.665 Y102.937
M204 P1000
G1 X112.113 Y114.849
G1 Z0.2
G1 E1 F2100
;TYPE:Internal perimeter
;WIDTH:0.42
G1 F1200
G1 X112.456 Y114.834 E0.01075
G1 X112.573 Y116.18 E0.04237
G1 X114.068 Y116.049 E0.04704
G1 X114.571 Y121.799 E0.18097
G1 X114.147 Y121.836 E0.01332
G1 X112.114 Y121.836 E0.06376
G1 X112.113 Y114.909 E0.21719
M204 P1500
G1 X111.924 Y114.909 F10800
M204 P1000
G1 X111.736 Y114.909
G1 F1200
G1 X111.735 Y106.177 E0.27378
G1 X112.077 Y106.162 E0.01075
G1 X112.916 Y115.771 E0.30244
G1 X114.41 Y115.641 E0.04704
G1 X114.979 Y122.142 E0.20461
G1 X114.164 Y122.213 E0.02566
G1 X111.737 Y122.213 E0.0761
G1 X111.736 Y114.969 E0.22713
;WIPE_START
G1 F8640
G1 X111.735 Y110.855 E-0.95
;WIPE_END
G1 E-0.05 F2100
G1 Z0.4 F10800
M204 P1500
G1 X121.336 Y111.395
M204 P1000
G1 X130.936 Y107.821
G1 Z0.2
G1 E1 F2100
G1 F1200
G1 X131.155 Y108.35 E0.01796
G1 X131.27 Y108.602 E0.00871
G1 X131.779 Y109.245 E0.02571
G1 X132.44 Y109.731 E0.02571
G1 X132.993 Y109.96 E0.01876
G1 X133.252 Y110.036 E0.00847
G1 X133.815 Y110.11 E0.01781
G1 X134.085 Y110.11 E0.00847
G1 X134.687 Y110.031 E0.01903
G1 X135.449 Y109.739 E0.02561
G1 X136.121 Y109.245 E0.02612
G1 X136.63 Y108.602 E0.02571
G1 X136.745 Y108.35 E0.00871
G1 X136.964 Y107.821 E0.01796
G1 X137.075 Y107. E0.02596
G1 X136.964 Y106.179 E0.02596
G1 X136.745 Y105.65 E0.01796
G1 X136.63 Y105.398 E0.00871
G1 X136.121 Y104.755 E0.02571
G1 X135.46 Y104.269 E0.02571
G1 X134.907 Y104.04 E0.01876
G1 X134.648 Y103.964 E0.00847
G1 X134.085 Y103.89 E0.01781
G1 X133.815 Y103.89 E0.00847
G1 X133.213 Y103.969 E0.01903
G1 X132.451 Y104.261 E0.02561
G1 X131.779 Y104.755 E0.02612
G1 X131.27 Y105.398 E0.02571
G1 X131.155 Y105.65 E0.00871
G1 X130.936 Y106.179 E0.01796
G1 X130.825 Y107. E0.02596
G1 X130.928 Y107.761 E0.02408
M204 P1500
G1 X131.115 Y107.736 F10800
M204 P1000
G1 X131.302 Y107.711
G1 F1200
G1 X131.501 Y108.199 E0.01654
G1 X131.594 Y108.404 E0.00706
G1 X132.044 Y108.972 E0.02269
G1 X132.626 Y109.4 E0.02268
G1 X133.118 Y109.604 E0.0167
G1 X133.33 Y109.666 E0.00692
G1 X133.84 Y109.733 E0.01611
G1 X134.06 Y109.733 E0.00692
G1 X134.593 Y109.663 E0.01686
G1 X135.267 Y109.405 E0.02262
G1 X135.856 Y108.972 E0.02293
G1 X136.306 Y108.404 E0.02269
G1 X136.399 Y108.199 E0.00706
G1 X136.597 Y107.722 E0.01621
G1 X136.694 Y107. E0.02283
G1 X136.597 Y106.278 E0.02283
G1 X136.399 Y105.801 E0.01621
G1 X136.306 Y105.596 E0.00706
G1 X135.856 Y105.028 E0.02269
G1 X135.274 Y104.6 E0.02268
G1 X134.782 Y104.396 E0.0167
G1 X134.57 Y104.334 E0.00692
G1 X134.06 Y104.267 E0.01611
G1 X133.84 Y104.267 E0.00692
G1 X133.307 Y104.337 E0.01686
G1 X132.633 Y104.595 E0.02262
G1 X132.044 Y105.028 E0.02293
G1 X131.594 Y105.596 E0.02269
G1 X131.501 Y105.801 E0.00706
G1 X131.303 Y106.278 E0.01621
G1 X131.206 Y107. E0.02283
G1 X131.294 Y107.651 E0.0206
M204 P1500
G1 X131.48 Y107.626 F10800
M204 P1000
G1 X131.667 Y107.601
;TYPE:External perimeter
G1 F1200
G1 X131.67 Y107.623 E0.00069
G1 X131.847 Y108.049 E0.01446
G1 X131.919 Y108.206 E0.00542
G1 X132.308 Y108.698 E0.01967
G1 X132.813 Y109.069 E0.01966
G1 X133.244 Y109.248 E0.01463
G1 X133.408 Y109.296 E0.00537
G1 X133.864 Y109.356 E0.01442
G1 X134.036 Y109.356 E0.00537
G1 X134.5 Y109.295 E0.01469
G1 X135.085 Y109.071 E0.01963
G1 X135.592 Y108.698 E0.01975
G1 X135.981 Y108.206 E0.01967
G1 X136.053 Y108.049 E0.00542
G1 X136.23 Y107.623 E0.01446
G1 X136.314 Y107. E0.0197
G1 X136.23 Y106.377 E0.0197
G1 X136.053 Y105.951 E0.01446
G1 X135.981 Y105.794 E0.00542
G1 X135.592 Y105.302 E0.01967
G1 X135.087 Y104.931 E0.01966
G1 X134.656 Y104.752 E0.01463
G1 X134.492 Y104.704 E0.00537
G1 X134.036 Y104.644 E0.01442
G1 X133.864 Y104.644 E0.00537
G1 X133.4 Y104.705 E0.01469
G1 X132.815 Y104.929 E0.01963
G1 X132.308 Y105.302 E0.01975
G1 X131.919 Y105.794 E0.01967
G1 X131.847 Y105.951 E0.00542
G1 X131.67 Y106.377 E0.01446
G1 X131.586 Y107. E0.0197
G1 X131.659 Y107.541 E0.01713
G1 X131.65 Y107.614 F10800
;WIPE_START
G1 F8640
G1 X131.67 Y107.623 E-0.0189
M73 Q2 S23
G1 X131.847 Y108.049 E-0.10648
G1 X131.919 Y108.206 E-0.03991
G1 X132.308 Y108.698 E-0.14482
G1 X132.813 Y109.069 E-0.14477
G1 X133.244 Y109.248 E-0.10776
G1 X133.408 Y109.296 E-0.03952
G1 X133.864 Y109.356 E-0.10622
G1 X134.036 Y109.356 E-0.03952
G1 X134.5 Y109.295 E-0.10819
G1 X134.88 Y109.149 E-0.09391
;WIPE_END
G1 E-0.05 F2100
G1 Z0.4 F10800
M204 P1500
G1 X131.659 Y105.028
M204 P1000
M73 P2 R23
G1 X131.659 Y102.514
G1 Z0.2
G1 E1 F2100
;TYPE:Internal perimeter
G1 F1200
G1 X136.514 Y102.514 E0.15222
G1 X136.514 Y91.486 E0.34579
G1 X123.472 Y91.486 E0.40892
G1 X124.437 Y102.514 E0.34711
G1 X131.599 Y102.514 E0.22457
M204 P1500
G1 X131.599 Y102.326 F10800
M204 P1000
G1 X131.599 Y102.137
G1 F1200
G1 X136.137 Y102.137 E0.14228
G1 X136.137 Y91.863 E0.32214
G1 X123.884 Y91.863 E0.3842
G1 X124.783 Y102.137 E0.32337
G1 X131.539 Y102.137 E0.21185
M204 P1500
G1 X131.539 Y101.949 F10800
M204 P1000
G1 X131.539 Y101.76
;TYPE:External perimeter
G1 F1200
G1 X135.76 Y101.76 E0.13234
G1 X135.76 Y92.24 E0.29849
G1 X124.295 Y92.24 E0.35947
G1 X125.128 Y101.76 E0.29963
G1 X131.479 Y101.76 E0.19914
G1 X131.739 Y102.106 F10800
;WIPE_START
G1 F8640
G1 X135.594 Y101.76 E-0.95
;WIPE_END
G1 E-0.05 F2100
G1 Z0.4 F10800
M204 P1500
G1 X134.683 Y101.76
M204 P1000
G1 X137.886 Y101.76
G1 Z0.2
G1 E1 F2100
;TYPE:Internal perimeter
G1 F1200
G1 X137.886 Y121.836 E0.62946
G1 X124.139 Y121.836 E0.43103
G1 X124.063 Y120.968 E0.0273
G1 X122.768 Y121.082 E0.04076
G1 X122.265 Y115.332 E0.18097
G1 X123.759 Y115.201 E0.04703
G1 X121.647 Y91.064 E0.75968
G1 X113.157 Y91.813 E0.26724
G1 X116.806 Y88.164 E0.16181
G1 X137.886 Y88.164 E0.66094
G1 X137.886 Y101.7 E0.42441
M204 P1500
G1 X138.074 Y101.7 F10800
M204 P1000
G1 X138.263 Y101.7
G1 F1200
G1 X138.263 Y122.213 E0.64317
M73 P3 R23
M73 Q3 S23
G1 X123.793 Y122.213 E0.45369
G1 X123.72 Y121.377 E0.02631
G1 X122.425 Y121.49 E0.04076
G1 X121.856 Y114.989 E0.20461
G1 X123.35 Y114.858 E0.04703
G1 X121.304 Y91.473 E0.73603
G1 X112.157 Y92.28 E0.28793
G1 X116.65 Y87.787 E0.19922
G1 X138.263 Y87.787 E0.67766
G1 X138.263 Y101.64 E0.43435
M204 P1500
G1 X138.451 Y101.64 F10800
M204 P1000
G1 X138.64 Y101.64
;TYPE:External perimeter
G1 F1200
G1 X138.64 Y122.59 E0.65687
G1 X123.448 Y122.59 E0.47635
G1 X123.377 Y121.785 E0.02532
G1 X122.082 Y121.899 E0.04076
G1 X121.448 Y114.646 E0.22826
G1 X122.942 Y114.516 E0.04703
G1 X120.962 Y91.882 E0.71237
G1 X112.663 Y92.614 E0.2612
G1 X111.971 Y92.709 E0.02193
G1 X111.836 Y92.975 E0.00935
G1 X111.613 Y93.048 E0.00736
G1 X111.648 Y93.491 E0.01393
G1 X111.555 Y93.804 E0.01024
G1 X111.768 Y98.278 E0.14045
G1 X113.259 Y115.363 E0.53771
G1 X114.753 Y115.232 E0.04703
G1 X115.388 Y122.484 E0.22826
G1 X114.18 Y122.59 E0.038
G1 X111.36 Y122.59 E0.08843
G1 X111.356 Y98.297 E0.76168
G1 X111.181 Y93.863 E0.13914
G1 X111.322 Y92.558 E0.04118
G1 X111.91 Y91.994 E0.02554
G1 X116.494 Y87.41 E0.20325
G1 X138.64 Y87.41 E0.69438
M73 P4 R23
M73 Q4 S23
G1 X138.64 Y101.58 E0.44429
M73 P4 R22
G1 X138.294 Y101.84 F10800
;WIPE_START
G1 F8640
G1 X138.64 Y105.694 E-0.95
;WIPE_END
G1 E-0.05 F2100
G1 Z0.4 F10800
M204 P1500
G1 X138.206 Y95.31
M204 P1000
G1 X137.773 Y89.04
G1 Z0.2
G1 E1 F2100
;TYPE:Solid infill
;WIDTH:0.42178
G1 F1200
G1 X137.173 Y88.439 E0.02672
G1 X136.639 Y88.439 E0.01679
G1 X137.611 Y89.411 E0.04325
G1 X137.611 Y89.944 E0.01679
G1 X136.106 Y88.439 E0.067
G1 X135.573 Y88.439 E0.01679
G1 X137.611 Y90.477 E0.09074
G1 X137.611 Y91.01 E0.01679
G1 X135.04 Y88.439 E0.11449
G1 X134.506 Y88.439 E0.01679
G1 X137.611 Y91.544 E0.13823
G1 X137.611 Y92.077 E0.01679
G1 X133.973 Y88.439 E0.16198
G1 X133.44 Y88.439 E0.01679
G1 X136.211 Y91.211 E0.1234
G1 X135.678 Y91.211 E0.01679
G1 X132.906 Y88.439 E0.1234
G1 X132.373 Y88.439 E0.01679
G1 X135.144 Y91.211 E0.1234
G1 X134.611 Y91.211 E0.01679
G1 X131.84 Y88.439 E0.1234
G1 X131.307 Y88.439 E0.01679
G1 X134.078 Y91.211 E0.1234
G1 X133.545 Y91.211 E0.01679
G1 X130.773 Y88.439 E0.1234
G1 X130.24 Y88.439 E0.01679
G1 X133.011 Y91.211 E0.1234
G1 X132.478 Y91.211 E0.01679
G1 X129.707 Y88.439 E0.1234
G1 X129.174 Y88.439 E0.01679
G1 X131.945 Y91.211 E0.1234
G1 X131.412 Y91.211 E0.01679
G1 X128.64 Y88.439 E0.1234
G1 X128.107 Y88.439 E0.01679
G1 X130.878 Y91.211 E0.1234
G1 X130.345 Y91.211 E0.01679
G1 X127.574 Y88.439 E0.1234
G1 X127.04 Y88.439 E0.01679
G1 X129.812 Y91.211 E0.1234
G1 X129.278 Y91.211 E0.01679
G1 X126.507 Y88.439 E0.1234
G1 X125.974 Y88.439 E0.01679
G1 X128.745 Y91.211 E0.1234
G1 X128.212 Y91.211 E0.01679
G1 X125.441 Y88.439 E0.1234
G1 X124.907 Y88.439 E0.01679
G1 X127.679 Y91.211 E0.1234
G1 X127.145 Y91.211 E0.01679
G1 X124.374 Y88.439 E0.1234
G1 X123.841 Y88.439 E0.01679
G1 X126.612 Y91.211 E0.1234
G1 X126.079 Y91.211 E0.01679
G1 X123.308 Y88.439 E0.1234
G1 X122.774 Y88.439 E0.01679
G1 X125.546 Y91.211 E0.1234
G1 X125.012 Y91.211 E0.01679
G1 X122.241 Y88.439 E0.1234
G1 X121.708 Y88.439 E0.01679
G1 X124.479 Y91.211 E0.1234
G1 X123.946 Y91.211 E0.01679
G1 X121.175 Y88.439 E0.1234
G1 X120.641 Y88.439 E0.01679
G1 X123.412 Y91.211 E0.1234
G1 X123.172 Y91.211 E0.00758
G1 X123.2 Y91.531 E0.01013
G1 X120.108 Y88.439 E0.13768
G1 X119.575 Y88.439 E0.01679
G1 X123.251 Y92.116 E0.1637
G1 X123.302 Y92.7 E0.01847
G1 X121.948 Y91.346 E0.06029
G1 X121.897 Y90.766 E0.01833
G1 X121.411 Y90.809 E0.01538
G1 X119.041 Y88.439 E0.10552
G1 X118.508 Y88.439 E0.01679
G1 X120.921 Y90.852 E0.10744
G1 X120.431 Y90.895 E0.01549
G1 X117.975 Y88.439 E0.10936
G1 X117.442 Y88.439 E0.01679
G1 X119.941 Y90.939 E0.11129
G1 X119.451 Y90.982 E0.01549
G1 X116.914 Y88.445 E0.11295
G1 X116.648 Y88.712 E0.01187
G1 X118.961 Y91.025 E0.103
G1 X118.471 Y91.068 E0.01549
G1 X116.381 Y88.979 E0.09305
G1 X116.114 Y89.245 E0.01187
G1 X117.981 Y91.111 E0.0831
G1 X117.491 Y91.155 E0.01549
G1 X115.848 Y89.512 E0.07316
G1 X115.581 Y89.778 E0.01187
G1 X117.001 Y91.198 E0.06321
G1 X116.51 Y91.241 E0.01549
G1 X115.314 Y90.045 E0.05326
G1 X115.048 Y90.312 E0.01187
G1 X116.02 Y91.284 E0.04331
G1 X115.53 Y91.328 E0.01549
G1 X114.781 Y90.578 E0.03336
M73 Q4 S22
G1 X114.515 Y90.845 E0.01187
G1 X115.04 Y91.371 E0.02341
G1 X114.55 Y91.414 E0.01549
G1 X114.248 Y91.112 E0.01346
G1 X113.981 Y91.378 E0.01187
G1 X114.21 Y91.607 E0.01018
;WIPE_START
G1 F8640
G1 X113.981 Y91.378 E-0.07463
G1 X114.248 Y91.112 E-0.08707
G1 X114.55 Y91.414 E-0.09873
G1 X115.04 Y91.371 E-0.11359
G1 X114.515 Y90.845 E-0.17169
G1 X114.781 Y90.578 E-0.08707
G1 X115.53 Y91.328 E-0.24464
G1 X115.843 Y91.3 E-0.07258
;WIPE_END
G1 E-0.05 F2100
G1 Z0.4 F10800
M204 P1500
G1 X118.015 Y91.679
M204 P1000
G1 X121.821 Y91.752
G1 Z0.2
G1 E1 F2100
G1 F1200
G1 X123.353 Y93.284 E0.06823
G1 X123.404 Y93.869 E0.01847
G1 X122.05 Y92.515 E0.06029
G1 X122.102 Y93.099 E0.01847
G1 X123.455 Y94.453 E0.06029
G1 X123.507 Y95.038 E0.01847
G1 X122.153 Y93.684 E0.06029
G1 X122.204 Y94.268 E0.01847
G1 X123.558 Y95.622 E0.06029
G1 X123.609 Y96.206 E0.01847
G1 X122.255 Y94.853 E0.06029
G1 X122.306 Y95.437 E0.01847
G1 X123.66 Y96.791 E0.06029
G1 X123.711 Y97.375 E0.01847
G1 X122.357 Y96.021 E0.06029
G1 X122.408 Y96.606 E0.01847
G1 X123.762 Y97.96 E0.06029
G1 X123.813 Y98.544 E0.01847
G1 X122.459 Y97.19 E0.06029
G1 X122.511 Y97.775 E0.01847
G1 X123.864 Y99.128 E0.06029
G1 X123.916 Y99.713 E0.01847
G1 X122.562 Y98.359 E0.06029
G1 X122.613 Y98.943 E0.01847
G1 X123.967 Y100.297 E0.06029
G1 X124.018 Y100.882 E0.01847
G1 X122.664 Y99.528 E0.06029
G1 X122.715 Y100.112 E0.01847
G1 X124.069 Y101.466 E0.06029
M73 P5 R22
M73 Q5 S22
G1 X124.12 Y102.05 E0.01847
G1 X122.588 Y100.518 E0.06823
;WIPE_START
G1 F8640
G1 X124.12 Y102.05 E-0.50035
G1 X124.069 Y101.466 E-0.13545
G1 X123.107 Y100.504 E-0.31419
;WIPE_END
G1 E-0.05 F2100
G1 Z0.4 F10800
M204 P1500
G1 X129.608 Y96.073
M204 P1000
G1 X136.627 Y91.627
G1 Z0.2
G1 E1 F2100
G1 F1200
G1 X137.611 Y92.61 E0.04379
G1 X137.611 Y93.144 E0.01679
G1 X136.789 Y92.322 E0.03657
G1 X136.789 Y92.856 E0.01679
G1 X137.611 Y93.677 E0.03657
G1 X137.611 Y94.21 E0.01679
G1 X136.789 Y93.389 E0.03657
G1 X136.789 Y93.922 E0.01679
G1 X137.611 Y94.743 E0.03657
G1 X137.611 Y95.277 E0.01679
G1 X136.789 Y94.455 E0.03657
G1 X136.789 Y94.989 E0.01679
G1 X137.611 Y95.81 E0.03657
G1 X137.611 Y96.343 E0.01679
G1 X136.789 Y95.522 E0.03657
G1 X136.789 Y96.055 E0.01679
G1 X137.611 Y96.876 E0.03657
G1 X137.611 Y97.41 E0.01679
G1 X136.789 Y96.588 E0.03657
