; generated by SuperSlicer 2.3.57 on 2022-03-16 at 08:27:42 UTC

; 

; external perimeters extrusion width = 0.45mm
; perimeters extrusion width = 0.45mm
; infill extrusion width = 0.45mm
; solid infill extrusion width = 0.45mm
; top infill extrusion width = 0.40mm
; first layer extrusion width = 0.42mm

; object:{"name":"Blue - Fan duct","id":"Blue - Fan duct.stl id:0 copy 0","object_center":[124.999999,104.995418,0.000000],"boundingbox_center":[124.999999,104.995418,23.557149],"boundingbox_size":[48.908380,14.008875,47.114299]}
; Total objects to print: 1
M486 T1
; plater:{"center":[124.999999,104.995418,0.000000],"boundingbox_center":[124.999999,104.995418,23.557149],"boundingbox_size":[48.908380,14.008875,47.114299]}

M73 P0 R78
M73 Q0 S80
;TYPE:Custom
M862.3 P "MK3S" ; printer model check
M862.1 P0.4 ; nozzle diameter check
M115 U3.10.0 ; tell printer latest fw version
G90 ; use absolute coordinates
M83 ; extruder relative mode
M104 S230 ; set extruder temp
M140 S85 ; set bed temp
M190 S85 ; wait for bed temp
M109 S230 ; wait for extruder temp
G28 W ; home all without mesh bed level
G80 ; mesh bed leveling
G1 Y-3.0 F1000.0 ; go outside print area
G92 E0.0
G1 X60.0 E9.0 F1000.0 ; intro line
G1 X100.0 E12.5 F1000.0 ; intro line
G92 E0.0
M221 S95

; Don't change E values below. Excessive value can damage the printer.
M907 E430 ; set extruder motor current
M107
G21 ; set units to millimeters
G90 ; use absolute coordinates
M83 ; use relative distances for extrusion
M900 K0.08 ; Filament gcode LA 1.5
M900 K45 ; Filament gcode LA 1.0
;LAYER_CHANGE
;Z:0.2
;HEIGHT:0.2
;BEFORE_LAYER_CHANGE
G92 E0.0
;0.2


G1 E-1 F2100
G1 Z0.2 F10800
G1 Z0.2
;AFTER_LAYER_CHANGE
;0.2
G1 Z0.4
M204 P1500
G1 X99.76 Y97.756
G1 Z0.2
G1 E1 F2100
;TYPE:Skirt
;WIDTH:0.45
G1 F1200
G1 X99.596 Y97.924 E0.00794
G1 X98.998 Y98.761 E0.03481
G1 X98.381 Y100.015 E0.04732
G1 X98.048 Y101.229 E0.04263
G1 X97.935 Y102.499 E0.04316
G1 X98.054 Y103.785 E0.04371
G1 X98.357 Y104.905 E0.03926
G1 X98.797 Y105.874 E0.03602
G1 X99.678 Y107.152 E0.05255
G1 X106.087 Y113.358 E0.30197
G1 X107.151 Y114.09 E0.04374
G1 X107.79 Y114.358 E0.02344
G1 X109.242 Y114.602 E0.04983
G1 X135.772 Y114.602 E0.89804
G1 X137.073 Y114.399 E0.04455
G1 X137.806 Y114.133 E0.02638
G1 X138.956 Y113.377 E0.04658
G1 X145.403 Y107.163 E0.3031
G1 X146.302 Y105.859 E0.05362
G1 X146.742 Y104.881 E0.03629
G1 X147.057 Y103.674 E0.04222
G1 X147.149 Y102.291 E0.04692
G1 X147.049 Y101.26 E0.03508
G1 X146.793 Y100.264 E0.0348
G1 X146.225 Y98.974 E0.04772
G1 X145.488 Y97.914 E0.0437
G1 X144.465 Y96.926 E0.04813
G1 X143.604 Y96.335 E0.03535
G1 X142.688 Y95.896 E0.03438
G1 X141.327 Y95.497 E0.048
G1 X140.05 Y95.38 E0.04342
G1 X105.038 Y95.38 E1.18512
G1 X103.752 Y95.5 E0.0437
G1 X102.565 Y95.828 E0.04168
G1 X101.318 Y96.442 E0.04705
G1 X100.307 Y97.198 E0.04273
G1 X99.802 Y97.713 E0.02443
G1 X99.947 Y97.856 F10800
M204 P1000
G1 X100.092 Y97.998
G1 F1200
G1 X99.91 Y98.183 E0.0088
G1 X99.338 Y98.986 E0.03336
G1 X98.76 Y100.162 E0.04435
G1 X98.449 Y101.3 E0.03992
G1 X98.342 Y102.489 E0.04042
G1 X98.449 Y103.682 E0.04054
G1 X98.74 Y104.765 E0.03794
G1 X99.161 Y105.692 E0.03447
G1 X99.977 Y106.876 E0.04867
G1 X106.35 Y113.047 E0.30029
G1 X107.352 Y113.735 E0.04113
G1 X107.905 Y113.968 E0.02029
G1 X109.242 Y114.195 E0.04592
G1 X135.768 Y114.195 E0.89786
G1 X136.973 Y114.003 E0.04132
G1 X137.616 Y113.773 E0.02312
G1 X138.695 Y113.064 E0.0437
G1 X145.104 Y106.887 E0.30131
G1 X145.932 Y105.689 E0.04929
G1 X146.354 Y104.758 E0.03459
G1 X146.65 Y103.639 E0.03918
G1 X146.743 Y102.325 E0.04461
G1 X146.648 Y101.329 E0.03385
G1 X146.402 Y100.379 E0.03323
G1 X145.869 Y99.17 E0.04472
G1 X145.18 Y98.181 E0.04079
G1 X144.328 Y97.334 E0.04066
G1 X143.227 Y96.597 E0.04485
G1 X142.337 Y96.191 E0.03311
G1 X141.37 Y95.924 E0.03398
G1 X140.049 Y95.788 E0.04492
G1 X105.041 Y95.788 E1.18501
G1 X103.855 Y95.894 E0.04029
G1 X102.721 Y96.204 E0.0398
G1 X101.55 Y96.776 E0.04411
G1 X100.595 Y97.486 E0.04026
G1 X100.134 Y97.955 E0.02228
; INIT printing object Blue - Fan duct.stl id:0 copy 0
;WIPE_START
G1 F8640
G1 X99.91 Y98.183 E-0.07388
G1 X99.338 Y98.986 E-0.22754
G1 X98.76 Y100.162 E-0.30257
G1 X98.449 Y101.3 E-0.27233
G1 X98.421 Y101.618 E-0.07368
;WIPE_END
G1 E-0.05 F2100
G1 Z0.4 F10800
; printing object Blue - Fan duct.stl id:0 copy 0
M486 S0
M204 P1500
G1 X101.322 Y99.144
M204 P1000
G1 X102.511 Y100.332
G1 Z0.2
G1 E1 F2100
;TYPE:Internal perimeter
;WIDTH:0.42
G1 F1200
G1 X102.904 Y99.939 E0.01744
G1 X103.38 Y99.606 E0.01821
G1 X103.906 Y99.361 E0.01821
G1 X104.467 Y99.21 E0.01821
G1 X105.097 Y99.155 E0.01981
G1 X108.369 Y99.155 E0.10261
G1 X107.618 Y100.279 E0.0424
G1 X107.478 Y100.983 E0.02248
G1 X107.243 Y100.647 E0.01285
G1 X106.89 Y100.294 E0.01568
G1 X106.48 Y100.007 E0.01568
G1 X106.027 Y99.795 E0.01568
G1 X105.544 Y99.666 E0.01568
G1 X105.046 Y99.622 E0.01568
G1 X104.548 Y99.666 E0.01568
G1 X104.065 Y99.795 E0.01568
G1 X103.612 Y100.007 E0.01568
G1 X103.202 Y100.294 E0.01568
G1 X102.848 Y100.647 E0.01568
G1 X102.571 Y101.044 E0.01518
G1 X102.351 Y101.506 E0.01605
G1 X102.221 Y101.993 E0.0158
G1 X102.177 Y102.491 E0.01568
G1 X102.221 Y102.989 E0.01568
G1 X102.35 Y103.472 E0.01568
G1 X102.562 Y103.925 E0.01568
G1 X102.848 Y104.335 E0.01568
G1 X103.202 Y104.688 E0.01568
G1 X103.612 Y104.975 E0.01568
G1 X104.065 Y105.187 E0.01568
G1 X104.548 Y105.316 E0.01568
G1 X105.046 Y105.36 E0.01568
G1 X105.544 Y105.316 E0.01568
G1 X106.027 Y105.187 E0.01568
G1 X106.48 Y104.975 E0.01568
G1 X106.89 Y104.688 E0.01568
G1 X107.398 Y104.18 E0.02256
G1 X107.398 Y105.827 E0.05164
G1 X105.097 Y105.827 E0.07217
G1 X104.467 Y105.772 E0.01981
G1 X103.906 Y105.622 E0.01821
G1 X103.38 Y105.376 E0.01821
G1 X102.904 Y105.043 E0.01821
G1 X102.494 Y104.632 E0.01821
G1 X102.161 Y104.157 E0.01821
G1 X101.915 Y103.63 E0.01821
G1 X101.765 Y103.07 E0.01821
G1 X101.714 Y102.491 E0.01821
G1 X101.765 Y101.913 E0.01821
G1 X101.915 Y101.352 E0.01821
G1 X102.161 Y100.825 E0.01821
G1 X102.473 Y100.379 E0.01709
M204 P1500
G1 X102.319 Y100.271 F10800
M204 P1000
G1 X102.165 Y100.162
G1 F1200
G1 X102.204 Y100.106 E0.00215
G1 X102.661 Y99.649 E0.02028
G1 X103.191 Y99.278 E0.02028
G1 X103.777 Y99.005 E0.02028
G1 X104.402 Y98.837 E0.02028
G1 X105.08 Y98.778 E0.02136
G1 X109.23 Y98.778 E0.13011
G1 X109.307 Y99.032 E0.00833
G1 X108.581 Y99.517 E0.02737
G1 X107.973 Y100.427 E0.03429
G1 X107.775 Y101.422 E0.03181
G1 X107.775 Y101.89 E0.0147
G1 X107.464 Y101.931 E0.00985
G1 X107.386 Y101.639 E0.00948
G1 X107.202 Y101.246 E0.01361
G1 X106.953 Y100.89 E0.01361
G1 X106.646 Y100.584 E0.01361
G1 X106.291 Y100.335 E0.01361
G1 X105.897 Y100.151 E0.01361
G1 X105.478 Y100.039 E0.01361
G1 X105.046 Y100.001 E0.01361
G1 X104.613 Y100.039 E0.01361
G1 X104.194 Y100.151 E0.01361
G1 X103.801 Y100.335 E0.01361
G1 X103.445 Y100.584 E0.01361
G1 X103.138 Y100.89 E0.01361
G1 X102.898 Y101.234 E0.01315
G1 X102.707 Y101.637 E0.01398
G1 X102.594 Y102.059 E0.01369
G1 X102.556 Y102.491 E0.01361
G1 X102.594 Y102.923 E0.01361
G1 X102.706 Y103.343 E0.01361
G1 X102.889 Y103.736 E0.01361
G1 X103.138 Y104.092 E0.01361
G1 X103.445 Y104.399 E0.01361
G1 X103.801 Y104.647 E0.01361
G1 X104.194 Y104.831 E0.01361
G1 X104.613 Y104.943 E0.01361
G1 X105.046 Y104.981 E0.01361
G1 X105.478 Y104.943 E0.01361
G1 X105.897 Y104.831 E0.01361
G1 X106.291 Y104.647 E0.01361
G1 X106.646 Y104.399 E0.01361
G1 X106.953 Y104.092 E0.01361
G1 X107.202 Y103.736 E0.01361
G1 X107.386 Y103.343 E0.01361
G1 X107.464 Y103.051 E0.00948
G1 X107.775 Y103.092 E0.00985
G1 X107.775 Y106.204 E0.09759
G1 X105.08 Y106.204 E0.08451
G1 X104.402 Y106.145 E0.02136
G1 X103.777 Y105.977 E0.02028
G1 X103.191 Y105.704 E0.02028
G1 X102.661 Y105.333 E0.02028
G1 X102.204 Y104.876 E0.02028
G1 X101.833 Y104.346 E0.02028
G1 X101.56 Y103.76 E0.02028
G1 X101.392 Y103.135 E0.02028
G1 X101.336 Y102.491 E0.02028
G1 X101.392 Y101.847 E0.02028
G1 X101.56 Y101.222 E0.02028
G1 X101.833 Y100.636 E0.02028
G1 X102.13 Y100.212 E0.01625
;WIPE_START
G1 F8640
G1 X102.204 Y100.106 E-0.02968
G1 X102.661 Y99.649 E-0.14932
G1 X103.191 Y99.278 E-0.14932
G1 X103.777 Y99.005 E-0.14932
G1 X104.402 Y98.837 E-0.14932
G1 X105.08 Y98.778 E-0.15729
G1 X105.798 Y98.778 E-0.16575
;WIPE_END
G1 E-0.05 F2100
G1 Z0.4 F10800
M204 P1500
G1 X105.073 Y104.935
M204 P1000
G1 X108.016 Y109.659
G1 Z0.2
G1 E1 F2100
G1 F1200
G1 X108.271 Y109.582 E0.00835
G1 X108.577 Y110.044 E0.01738
G1 X109.484 Y110.665 E0.03447
G1 X110.514 Y110.883 E0.033
G1 X110.48 Y111.204 E0.01012
G1 X109.322 Y111.204 E0.0363
G1 X108.779 Y111.097 E0.01737
G1 X108.385 Y110.836 E0.01482
G1 X108.123 Y110.447 E0.01468
G1 X108.016 Y109.913 E0.01709
G1 X108.016 Y109.719 E0.00609
;WIPE_START
G1 F8640
G1 X108.271 Y109.582 E-0.06682
G1 X108.577 Y110.044 E-0.128
G1 X109.484 Y110.665 E-0.25382
G1 X110.514 Y110.883 E-0.24301
G1 X110.48 Y111.204 E-0.07449
G1 X109.684 Y111.204 E-0.18386
;WIPE_END
G1 E-0.05 F2100
G1 Z0.4 F10800
M204 P1500
G1 X121.226 Y110.3
M204 P1000
G1 X134.436 Y110.881
G1 Z0.2
G1 E1 F2100
G1 F1200
G1 X135.604 Y110.648 E0.03734
G1 X136.513 Y110.04 E0.03429
G1 X136.821 Y109.578 E0.01742
G1 X137.076 Y109.655 E0.00833
G1 X137.076 Y109.909 E0.00796
G1 X136.965 Y110.436 E0.01686
G1 X136.691 Y110.824 E0.01489
G1 X136.266 Y111.093 E0.01578
G1 X135.679 Y111.204 E0.01873
G1 X134.468 Y111.204 E0.03799
G1 X134.442 Y110.941 E0.0083
;WIPE_START
G1 F8640
G1 X135.604 Y110.648 E-0.27666
G1 X136.513 Y110.04 E-0.25255
G1 X136.821 Y109.578 E-0.12827
G1 X137.076 Y109.655 E-0.06135
G1 X137.076 Y109.909 E-0.05862
G1 X136.965 Y110.436 E-0.1242
G1 X136.844 Y110.607 E-0.04835
;WIPE_END
G1 E-0.05 F2100
G1 Z0.4 F10800
M204 P1500
G1 X136.068 Y108.384
M204 P1000
G1 X137.695 Y105.827
G1 Z0.2
G1 E1 F2100
G1 F1200
G1 X137.695 Y104.182 E0.05158
G1 X138.202 Y104.688 E0.02247
G1 X138.611 Y104.975 E0.01568
G1 X139.065 Y105.187 E0.01568
G1 X139.548 Y105.316 E0.01568
G1 X140.046 Y105.36 E0.01568
G1 X140.544 Y105.316 E0.01568
G1 X141.027 Y105.187 E0.01568
G1 X141.48 Y104.975 E0.01568
G1 X141.89 Y104.688 E0.01568
G1 X142.243 Y104.335 E0.01568
G1 X142.53 Y103.925 E0.01568
G1 X142.741 Y103.472 E0.01568
G1 X142.871 Y102.989 E0.01568
G1 X142.914 Y102.491 E0.01568
G1 X142.871 Y101.993 E0.01568
G1 X142.74 Y101.506 E0.0158
G1 X142.521 Y101.044 E0.01605
G1 X142.239 Y100.641 E0.01541
G1 X141.864 Y100.276 E0.01641
G1 X141.48 Y100.007 E0.0147
G1 X141.027 Y99.795 E0.01568
G1 X140.544 Y99.666 E0.01568
G1 X140.046 Y99.622 E0.01568
G1 X139.548 Y99.666 E0.01568
G1 X139.065 Y99.795 E0.01568
G1 X138.612 Y100.007 E0.01568
G1 X138.202 Y100.294 E0.01568
G1 X137.848 Y100.647 E0.01568
G1 X137.615 Y100.981 E0.01276
G1 X137.475 Y100.278 E0.02245
G1 X136.721 Y99.155 E0.04242
G1 X139.995 Y99.155 E0.10265
G1 X140.335 Y99.185 E0.0107
G1 X140.624 Y99.21 E0.0091
G1 X141.185 Y99.361 E0.01821
G1 X141.712 Y99.606 E0.01821
G1 X142.187 Y99.939 E0.01821
G1 X142.598 Y100.35 E0.01821
G1 X142.931 Y100.825 E0.01821
G1 X143.176 Y101.352 E0.01821
G1 X143.327 Y101.913 E0.01821
G1 X143.377 Y102.491 E0.01821
G1 X143.327 Y103.07 E0.01821
G1 X143.176 Y103.63 E0.01821
G1 X142.931 Y104.157 E0.01821
G1 X142.598 Y104.632 E0.01821
G1 X142.187 Y105.043 E0.01821
G1 X141.712 Y105.376 E0.01821
G1 X141.185 Y105.622 E0.01821
G1 X140.624 Y105.772 E0.01821
G1 X139.995 Y105.827 E0.01981
G1 X137.755 Y105.827 E0.07023
M204 P1500
G1 X137.755 Y106.015 F10800
M204 P1000
G1 X137.755 Y106.204
G1 F1200
G1 X137.318 Y106.204 E0.0137
G1 X137.318 Y103.098 E0.09737
G1 X137.629 Y103.057 E0.00985
G1 X137.706 Y103.343 E0.00926
G1 X137.889 Y103.736 E0.01361
G1 X138.138 Y104.092 E0.01361
G1 X138.445 Y104.399 E0.01361
G1 X138.801 Y104.647 E0.01361
G1 X139.194 Y104.831 E0.01361
G1 X139.613 Y104.943 E0.01361
G1 X140.046 Y104.981 E0.01361
G1 X140.478 Y104.943 E0.01361
G1 X140.897 Y104.831 E0.01361
G1 X141.291 Y104.647 E0.01361
G1 X141.646 Y104.399 E0.01361
G1 X141.953 Y104.092 E0.01361
G1 X142.202 Y103.736 E0.01361
G1 X142.386 Y103.343 E0.01361
G1 X142.498 Y102.923 E0.01361
G1 X142.536 Y102.491 E0.01361
G1 X142.498 Y102.059 E0.01361
G1 X142.385 Y101.637 E0.01369
G1 X142.194 Y101.234 E0.01398
G1 X141.95 Y100.886 E0.01331
G1 X141.623 Y100.567 E0.01434
G1 X141.291 Y100.335 E0.01271
G1 X140.897 Y100.151 E0.01361
G1 X140.478 Y100.039 E0.01361
G1 X140.046 Y100.001 E0.01361
G1 X139.613 Y100.039 E0.01361
G1 X139.194 Y100.151 E0.01361
G1 X138.801 Y100.335 E0.01361
G1 X138.445 Y100.584 E0.01361
G1 X138.138 Y100.89 E0.01361
G1 X137.889 Y101.246 E0.01361
M73 Q0 S79
G1 X137.706 Y101.639 E0.01361
G1 X137.629 Y101.925 E0.00926
G1 X137.318 Y101.884 E0.00985
G1 X137.318 Y101.422 E0.01449
G1 X137.12 Y100.426 E0.03183
G1 X136.508 Y99.515 E0.03442
G1 X135.784 Y99.033 E0.02726
G1 X135.861 Y98.778 E0.00834
G1 X140.011 Y98.778 E0.13012
G1 X140.368 Y98.809 E0.01122
G1 X140.69 Y98.837 E0.01014
G1 X141.315 Y99.005 E0.02028
G1 X141.901 Y99.278 E0.02028
G1 X142.43 Y99.649 E0.02028
G1 X142.888 Y100.106 E0.02028
G1 X143.259 Y100.636 E0.02028
G1 X143.532 Y101.222 E0.02028
G1 X143.699 Y101.847 E0.02028
G1 X143.756 Y102.491 E0.02028
G1 X143.699 Y103.135 E0.02028
G1 X143.532 Y103.76 E0.02028
G1 X143.259 Y104.346 E0.02028
G1 X142.888 Y104.876 E0.02028
G1 X142.43 Y105.333 E0.02028
G1 X141.901 Y105.704 E0.02028
G1 X141.315 Y105.977 E0.02028
G1 X140.69 Y106.145 E0.02028
G1 X140.011 Y106.204 E0.02136
G1 X137.815 Y106.204 E0.06887
M204 P1500
G1 X137.378 Y106.204 F10800
M204 P1000
G1 X136.941 Y106.204
;TYPE:External perimeter
G1 F1200
G1 X136.941 Y101.459 E0.14878
G1 X136.765 Y100.573 E0.0283
G1 X136.237 Y99.787 E0.0297
G1 X135.452 Y99.264 E0.02955
G1 X134.568 Y99.089 E0.02826
G1 X123.586 Y99.089 E0.34433
G1 X123.586 Y110.479 E0.35712
G1 X134.568 Y110.47 E0.34432
G1 X135.456 Y110.293 E0.0284
G1 X136.241 Y109.769 E0.02959
G1 X136.765 Y108.984 E0.02959
G1 X136.941 Y108.099 E0.02829
G1 X136.941 Y106.264 E0.05753
G1 X137.287 Y106.004 F10800
;WIPE_START
G1 F8640
G1 X136.941 Y102.15 E-0.95
;WIPE_END
G1 E-0.05 F2100
G1 Z0.4 F10800
M204 P1500
G1 X130.069 Y106.264
M204 P1000
G1 X123.196 Y106.264
G1 Z0.2
G1 E1 F2100
G1 F1200
G1 X123.196 Y99.089 E0.22496
G1 X110.522 Y99.089 E0.39739
G1 X109.637 Y99.265 E0.02829
G1 X108.853 Y99.789 E0.02958
G1 X108.329 Y100.574 E0.02958
G1 X108.153 Y101.459 E0.02829
G1 X108.153 Y108.098 E0.20819
G1 X108.328 Y108.985 E0.02833
G1 X108.851 Y109.775 E0.02969
G1 X109.636 Y110.311 E0.02981
G1 X110.52 Y110.499 E0.02835
G1 X123.196 Y110.478 E0.39745
G1 X123.196 Y106.324 E0.13024
G1 X123.543 Y106.064 F10800
;WIPE_START
G1 F8640
G1 X123.196 Y102.21 E-0.95
;WIPE_END
G1 E-0.05 F2100
G1 Z0.4 F10800
M204 P1500
G1 X115.161 Y104.591
M204 P1000
G1 X107.125 Y102.858
G1 Z0.2
G1 E1 F2100
G1 F1200
G1 X107.157 Y102.491 E0.01154
G1 X107.125 Y102.124 E0.01154
G1 X107.03 Y101.769 E0.01154
G1 X106.874 Y101.435 E0.01154
G1 X106.663 Y101.134 E0.01154
G1 X106.403 Y100.873 E0.01154
G1 X106.102 Y100.662 E0.01154
G1 X105.768 Y100.507 E0.01154
G1 X105.412 Y100.412 E0.01154
G1 X105.046 Y100.379 E0.01154
G1 X104.679 Y100.412 E0.01154
G1 X104.324 Y100.507 E0.01154
G1 X103.99 Y100.662 E0.01154
G1 X103.689 Y100.873 E0.01154
G1 X103.428 Y101.134 E0.01154
G1 X103.225 Y101.424 E0.01112
G1 X103.062 Y101.767 E0.01191
G1 X102.966 Y102.124 E0.01158
G1 X102.934 Y102.491 E0.01154
G1 X102.966 Y102.858 E0.01154
G1 X103.062 Y103.213 E0.01154
G1 X103.217 Y103.547 E0.01154
G1 X103.428 Y103.848 E0.01154
G1 X103.689 Y104.109 E0.01154
G1 X103.99 Y104.32 E0.01154
G1 X104.324 Y104.475 E0.01154
G1 X104.679 Y104.571 E0.01154
G1 X105.046 Y104.603 E0.01154
G1 X105.412 Y104.571 E0.01154
G1 X105.768 Y104.475 E0.01154
G1 X106.102 Y104.32 E0.01154
G1 X106.403 Y104.109 E0.01154
G1 X106.663 Y103.848 E0.01154
G1 X106.874 Y103.547 E0.01154
G1 X107.03 Y103.213 E0.01154
G1 X107.11 Y102.916 E0.00966
G1 X107.467 Y102.722 F10800
;WIPE_START
G1 F8640
G1 X107.157 Y102.491 E-0.09866
G1 X107.125 Y102.124 E-0.08499
G1 X107.03 Y101.769 E-0.08499
G1 X106.874 Y101.435 E-0.08499
G1 X106.663 Y101.134 E-0.08499
G1 X106.403 Y100.873 E-0.08499
G1 X106.102 Y100.662 E-0.08499
G1 X105.768 Y100.507 E-0.08499
G1 X105.412 Y100.412 E-0.08499
G1 X105.046 Y100.379 E-0.08499
G1 X104.679 Y100.412 E-0.08499
G1 X104.673 Y100.413 E-0.00145
;WIPE_END
