; generated by SuperSlicer 2.3.57 on 2022-03-16 at 08:37:20 UTC

; 

; external perimeters extrusion width = 0.45mm
; perimeters extrusion width = 0.45mm
; infill extrusion width = 0.45mm
; solid infill extrusion width = 0.45mm
; top infill extrusion width = 0.40mm
; support material extrusion width = 0.35mm
; first layer extrusion width = 0.42mm

; object:{"name":"Blue - X End Idler Tensioner","id":"Blue - X End Idler Tensioner.stl id:0 copy 0","object_center":[125.000000,105.000000,0.000000],"boundingbox_center":[125.000000,105.000000,13.750000],"boundingbox_size":[27.600002,15.999998,27.500000]}
; Total objects to print: 1
M486 T1
; plater:{"center":[125.000000,105.000000,0.000000],"boundingbox_center":[125.000000,105.000000,13.750000],"boundingbox_size":[27.600002,15.999998,27.500000]}

M73 P0 R48
M73 Q0 S49
;TYPE:Custom
M862.3 P "MK3S" ; printer model check
M862.1 P0.4 ; nozzle diameter check
M115 U3.10.0 ; tell printer latest fw version
G90 ; use absolute coordinates
M83 ; extruder relative mode
M104 S230 ; set extruder temp
M140 S85 ; set bed temp
M190 S85 ; wait for bed temp
M109 S230 ; wait for extruder temp
G28 W ; home all without mesh bed level
G80 ; mesh bed leveling
G1 Y-3.0 F1000.0 ; go outside print area
G92 E0.0
G1 X60.0 E9.0 F1000.0 ; intro line
G1 X100.0 E12.5 F1000.0 ; intro line
G92 E0.0
M221 S95

; Don't change E values below. Excessive value can damage the printer.
M907 E430 ; set extruder motor current
M107
G21 ; set units to millimeters
G90 ; use absolute coordinates
M83 ; use relative distances for extrusion
M900 K0.08 ; Filament gcode LA 1.5
M900 K45 ; Filament gcode LA 1.0
;LAYER_CHANGE
;Z:0.2
;HEIGHT:0.2
;BEFORE_LAYER_CHANGE
G92 E0.0
;0.2


G1 E-1 F2100
G1 Z0.2 F10800
G1 Z0.2
;AFTER_LAYER_CHANGE
;0.2
G1 Z0.4
M204 P1500
G1 X109.204 Y99.318
G1 Z0.2
G1 E1 F2100
;TYPE:Skirt
;WIDTH:0.45
G1 F1200
G1 X108.83 Y99.905 E0.02357
G1 X108.626 Y100.567 E0.02344
G1 X108.59 Y109.047 E0.28703
G1 X108.645 Y109.534 E0.01659
G1 X108.789 Y110.002 E0.01659
G1 X109.211 Y110.69 E0.02732
G1 X110.218 Y111.682 E0.04786
G1 X110.89 Y112.061 E0.02612
G1 X111.648 Y112.228 E0.02625
G1 X138.195 Y112.234 E0.89861
G1 X138.699 Y112.181 E0.01713
G1 X139.179 Y112.034 E0.017
G1 X139.846 Y111.631 E0.02638
G1 X140.775 Y110.707 E0.04436
G1 X141.146 Y110.145 E0.02277
G1 X141.361 Y109.508 E0.02277
G1 X141.411 Y109.012 E0.01686
G1 X141.404 Y100.818 E0.27735
G1 X141.286 Y100.204 E0.02116
G1 X141.026 Y99.636 E0.02116
G1 X140.729 Y99.241 E0.01673
G1 X139.972 Y98.482 E0.03628
G1 X139.583 Y98.177 E0.01673
G1 X139.143 Y97.952 E0.01673
G1 X138.673 Y97.814 E0.01659
G1 X138.181 Y97.766 E0.01673
G1 X111.805 Y97.766 E0.8928
G1 X111.301 Y97.819 E0.01713
G1 X110.821 Y97.966 E0.017
G1 X110.148 Y98.375 E0.02665
G1 X109.246 Y99.275 E0.04314
G1 X109.389 Y99.418 F10800
M204 P1000
G1 X109.532 Y99.562
G1 F1200
G1 X109.2 Y100.076 E0.02073
G1 X109.025 Y100.649 E0.02029
G1 X108.997 Y109.029 E0.28364
G1 X109.154 Y109.819 E0.02728
G1 X109.52 Y110.426 E0.02398
G1 X110.456 Y111.352 E0.04457
G1 X111.038 Y111.682 E0.02263
G1 X111.688 Y111.823 E0.02251
G1 X138.188 Y111.827 E0.89699
G1 X138.996 Y111.669 E0.02789
G1 X139.589 Y111.315 E0.02336
G1 X140.463 Y110.446 E0.04172
G1 X140.785 Y109.957 E0.0198
G1 X140.967 Y109.401 E0.0198
G1 X141. Y100.869 E0.28882
G1 X140.899 Y100.329 E0.01857
G1 X140.67 Y99.835 E0.01845
G1 X139.698 Y98.783 E0.04846
G1 X138.996 Y98.331 E0.02826
G1 X138.18 Y98.173 E0.02813
G1 X111.809 Y98.173 E0.89265
G1 X111.004 Y98.331 E0.02777
G1 X110.408 Y98.687 E0.02349
G1 X109.574 Y99.519 E0.03987
; INIT printing object Blue - X End Idler Tensioner.stl id:0 copy 0
;WIPE_START
G1 F8640
G1 X109.525 Y99.568 E-0.01602
G1 X109.2 Y100.076 E-0.13928
G1 X109.025 Y100.649 E-0.13844
G1 X109.015 Y103.492 E-0.65625
;WIPE_END
G1 E-0.05 F2100
G1 Z0.4 F10800
; printing object Blue - X End Idler Tensioner.stl id:0 copy 0
M486 S0
M204 P1500
G1 X120.519 Y100.779
M204 P1000
G1 X131.464 Y102.038
G1 Z0.2
G1 E1 F2100
;TYPE:Internal perimeter
;WIDTH:0.42
G1 F1200
G1 X134.467 Y102.037 E0.09415
G1 X134.527 Y102.322 E0.00911
G1 X133.997 Y102.556 E0.01816
G1 X133.58 Y102.838 E0.0158
G1 X133.221 Y103.191 E0.0158
G1 X132.961 Y103.56 E0.01414
G1 X132.361 Y104.599 E0.03762
G1 X132.361 Y105.401 E0.02514
G1 X132.961 Y106.44 E0.03762
G1 X133.221 Y106.809 E0.01414
G1 X133.58 Y107.162 E0.0158
G1 X133.997 Y107.444 E0.0158
G1 X134.515 Y107.673 E0.01776
G1 X134.456 Y107.957 E0.00911
G1 X131.464 Y107.96 E0.0938
G1 X131.464 Y102.098 E0.1838
;WIPE_START
G1 F8640
G1 X134.467 Y102.037 E-0.69349
G1 X134.527 Y102.322 E-0.06712
G1 X133.997 Y102.556 E-0.13373
G1 X133.797 Y102.691 E-0.05566
;WIPE_END
G1 E-0.05 F2100
G1 Z0.4 F10800
M204 P1500
G1 X133.817 Y102.22
M204 P1000
G1 X136.17 Y102.341
G1 Z0.2
G1 E1 F2100
G1 F1200
G1 X136.218 Y102.037 E0.00965
G1 X137.636 Y102.043 E0.04446
G1 X137.636 Y103.385 E0.04209
G1 X137.271 Y102.972 E0.01729
G1 X136.876 Y102.66 E0.0158
G1 X136.431 Y102.424 E0.0158
G1 X136.227 Y102.359 E0.0067
;WIPE_START
G1 F8640
G1 X136.218 Y102.037 E-0.07442
G1 X137.636 Y102.043 E-0.32744
G1 X137.636 Y103.385 E-0.30995
G1 X137.271 Y102.972 E-0.12731
G1 X136.894 Y102.674 E-0.11088
;WIPE_END
G1 E-0.05 F2100
G1 Z0.4 F10800
M204 P1500
G1 X136.932 Y104.487
M204 P1000
G1 X137.636 Y106.615
G1 Z0.2
G1 E1 F2100
G1 F1200
G1 X137.636 Y107.954 E0.04199
G1 X136.24 Y107.955 E0.04377
G1 X136.193 Y107.652 E0.00963
G1 X136.431 Y107.576 E0.00783
G1 X136.876 Y107.34 E0.01579
G1 X137.271 Y107.028 E0.0158
G1 X137.596 Y106.66 E0.01541
M204 P1500
G1 X137.448 Y106.543 F10800
M204 P1000
G1 X137.299 Y106.427
G1 F1200
G1 X137.523 Y106.054 E0.01365
G1 X137.719 Y105.536 E0.01736
G1 X138.013 Y105.589 E0.00937
G1 X138.013 Y108.331 E0.08596
G1 X131.087 Y108.338 E0.21716
G1 X131.087 Y101.661 E0.20933
G1 X136.217 Y101.66 E0.16085
M73 Q0 S48
G1 X138.013 Y101.667 E0.0563
G1 X138.013 Y104.411 E0.08601
G1 X137.719 Y104.464 E0.00937
G1 X137.523 Y103.946 E0.01736
G1 X137.299 Y103.573 E0.01365
G1 X137.011 Y103.247 E0.01365
G1 X136.669 Y102.977 E0.01365
G1 X136.284 Y102.773 E0.01365
G1 X135.869 Y102.641 E0.01365
G1 X135.437 Y102.586 E0.01365
G1 X135.002 Y102.61 E0.01365
G1 X134.579 Y102.711 E0.01365
G1 X134.18 Y102.887 E0.01365
G1 X133.82 Y103.131 E0.01365
G1 X133.509 Y103.436 E0.01365
G1 X133.279 Y103.763 E0.01254
G1 X132.738 Y104.7 E0.03392
G1 X132.738 Y105.3 E0.01881
G1 X133.279 Y106.237 E0.03392
G1 X133.509 Y106.564 E0.01254
G1 X133.82 Y106.869 E0.01365
G1 X134.18 Y107.113 E0.01365
G1 X134.579 Y107.289 E0.01365
G1 X135.002 Y107.39 E0.01365
G1 X135.437 Y107.414 E0.01365
G1 X135.869 Y107.359 E0.01365
G1 X136.284 Y107.227 E0.01365
G1 X136.669 Y107.023 E0.01365
G1 X137.011 Y106.753 E0.01365
G1 X137.259 Y106.472 E0.01177
M204 P1500
G1 X137.118 Y106.347 F10800
M204 P1000
G1 X136.976 Y106.222
;TYPE:External perimeter
G1 F1200
G1 X136.993 Y106.203 E0.00081
G1 X137.183 Y105.888 E0.01151
G1 X137.312 Y105.545 E0.01151
G1 X137.378 Y105.184 E0.01151
G1 X137.378 Y104.816 E0.01151
G1 X137.312 Y104.455 E0.01151
G1 X137.183 Y104.112 E0.01151
G1 X136.993 Y103.797 E0.01151
G1 X136.751 Y103.521 E0.01151
G1 X136.462 Y103.294 E0.01151
G1 X136.138 Y103.122 E0.01151
G1 X135.788 Y103.011 E0.01151
G1 X135.424 Y102.965 E0.01151
G1 X135.057 Y102.985 E0.01151
G1 X134.7 Y103.07 E0.01151
G1 X134.364 Y103.218 E0.01151
G1 X134.06 Y103.424 E0.01151
G1 X133.798 Y103.681 E0.01151
G1 X133.597 Y103.966 E0.01093
G1 X133.115 Y104.801 E0.03022
G1 X133.115 Y105.199 E0.01247
G1 X133.597 Y106.034 E0.03022
G1 X133.798 Y106.319 E0.01093
G1 X134.06 Y106.576 E0.01151
G1 X134.364 Y106.782 E0.01151
G1 X134.7 Y106.93 E0.01151
G1 X135.057 Y107.015 E0.01151
G1 X135.424 Y107.035 E0.01151
G1 X135.788 Y106.989 E0.01151
G1 X136.138 Y106.878 E0.01151
G1 X136.462 Y106.706 E0.01151
G1 X136.751 Y106.479 E0.01151
G1 X136.937 Y106.267 E0.00882
G1 X137.002 Y106.228 F10800
;WIPE_START
G1 F8640
G1 X136.993 Y106.203 E-0.01983
G1 X137.183 Y105.888 E-0.08479
G1 X137.312 Y105.545 E-0.08479
G1 X137.378 Y105.184 E-0.08479
G1 X137.378 Y104.816 E-0.08479
G1 X137.312 Y104.455 E-0.08479
G1 X137.183 Y104.112 E-0.08479
G1 X136.993 Y103.797 E-0.08479
G1 X136.751 Y103.521 E-0.08479
G1 X136.462 Y103.294 E-0.08479
G1 X136.138 Y103.122 E-0.08479
G1 X135.798 Y103.014 E-0.08224
;WIPE_END
G1 E-0.05 F2100
G1 Z0.4 F10800
M204 P1500
G1 X137.663 Y106.267
M204 P1000
G1 X138.39 Y106.267
G1 Z0.2
G1 E1 F2100
G1 F1200
G1 X138.39 Y108.707 E0.0765
G1 X130.723 Y108.715 E0.24039
G1 X130.71 Y108.622 E0.00297
G1 X130.71 Y101.378 E0.2271
G1 X130.723 Y101.285 E0.00297
G1 X136.218 Y101.283 E0.17229
G1 X138.39 Y101.292 E0.0681
G1 X138.39 Y106.207 E0.15412
G1 X138.044 Y106.467 F10800
;WIPE_START
G1 F8640
G1 X138.39 Y108.707 E-0.57723
G1 X136.776 Y108.709 E-0.37277
;WIPE_END
G1 E-0.05 F2100
G1 Z0.4 F10800
M204 P1500
G1 X138.303 Y105.379
M204 P1000
G1 X138.217 Y104.55
G1 Z0.2
G1 E1 F2100
;TYPE:Gap fill
;WIDTH:0.154757
G1 F1200
G1 X138.133 Y104.65 E0.00121
;WIDTH:0.359552
G1 X138.009 Y104.799 E0.00512
;WIDTH:0.605305
G1 X137.884 Y104.948 E0.0091
;WIDTH:0.688014
G1 X137.849 Y104.919 E0.00248
;WIDTH:0.491134
G1 X137.707 Y104.801 E0.00688
;WIDTH:0.325449
G1 X137.677 Y104.778 E0.00088
;WIDTH:0.189028
G1 X137.559 Y104.635 E0.00225
;WIPE_START
G1 F8640
G1 X137.677 Y104.778 E-0.04281
;WIPE_END
G1 E-0.95719 F2100
G1 Z0.4 F10800
M204 P1500
G1 X137.158 Y103.394
M204 P1000
G1 X136.757 Y102.152
G1 Z0.2
G1 E1 F2100
;TYPE:Solid infill
;WIDTH:0.546
G1 F1200
G1 X137.523 Y102.918 E0.04413
;WIPE_START
G1 F8640
G1 X136.757 Y102.152 E-0.25001
;WIPE_END
G1 E-0.74999 F2100
G1 Z0.4 F10800
M204 P1500
G1 X136.773 Y102.538
M204 P1000
G1 X136.023 Y102.159
G1 Z0.2
G1 E1 F2100
;TYPE:Gap fill
;WIDTH:0.659684
G1 F1200
G1 X135.952 Y102.152 E0.00365
G1 X135.835 Y102.146 E0.00604
G1 X135.717 Y102.139 E0.00604
G1 X135.599 Y102.132 E0.00608
;WIDTH:0.623818
G1 X135.428 Y102.123 E0.00826
G1 X135.201 Y102.129 E0.01098
;WIDTH:0.646554
G1 X134.973 Y102.135 E0.01141
;WIDTH:0.605674
G1 X134.91 Y102.142 E0.00299
G1 X134.791 Y102.156 E0.0056
;WIDTH:0.669853
G1 X134.672 Y102.171 E0.00624
;WIPE_START
G1 F8640
G1 X134.791 Y102.156 E-0.02762
;WIPE_END
G1 E-0.97238 F2100
G1 Z0.4 F10800
M204 P1500
G1 X134.085 Y102.161
M204 P1000
G1 X133.498 Y102.151
G1 Z0.2
G1 E1 F2100
;TYPE:Solid infill
;WIDTH:0.45146
G1 F1200
G1 X133.743 Y102.395 E0.01165
G1 X133.425 Y102.611 E0.01294
G1 X133.127 Y102.313 E0.01419
G1 X132.594 Y102.313 E0.01797
G1 X133.153 Y102.872 E0.02663
G1 X133.01 Y103.012 E0.00675
G1 X132.907 Y103.159 E0.00605
G1 X132.061 Y102.314 E0.0403
G1 X131.739 Y102.314 E0.01084
G1 X131.739 Y102.525 E0.00713
G1 X132.691 Y103.477 E0.04536
G1 X132.496 Y103.815 E0.01316
G1 X131.739 Y103.058 E0.03605
G1 X131.739 Y103.592 E0.01797
G1 X132.301 Y104.153 E0.02675
G1 X132.105 Y104.491 E0.01316
G1 X131.739 Y104.125 E0.01745
G1 X131.739 Y104.658 E0.01797
G1 X132.086 Y105.004 E0.0165
G1 X132.086 Y105.475 E0.01585
G1 X132.172 Y105.624 E0.0058
G1 X131.739 Y105.192 E0.0206
G1 X131.739 Y105.725 E0.01797
G1 X133.697 Y107.683 E0.09333
G1 X133.165 Y107.683 E0.01795
G1 X131.739 Y106.258 E0.06793
G1 X131.739 Y106.791 E0.01797
G1 X132.632 Y107.684 E0.04254
G1 X132.099 Y107.684 E0.01795
G1 X131.577 Y107.162 E0.02488
;WIPE_START
G1 F8640
G1 X132.099 Y107.684 E-0.17046
G1 X132.632 Y107.684 E-0.12301
G1 X131.739 Y106.791 E-0.29147
G1 X131.739 Y106.258 E-0.12313
G1 X132.48 Y106.999 E-0.24193
;WIPE_END
G1 E-0.05 F2100
G1 Z0.4 F10800
M204 P1500
G1 X133.118 Y107.499
M204 P1000
G1 X134.659 Y107.835
G1 Z0.2
G1 E1 F2100
;TYPE:Gap fill
;WIDTH:0.633544
G1 F1200
G1 X134.784 Y107.846 E0.00618
;WIDTH:0.583423
G1 X134.909 Y107.858 E0.00565
;WIDTH:0.613685
G1 X134.961 Y107.861 E0.00247
;WIDTH:0.641304
G1 X135.195 Y107.867 E0.01162
;WIDTH:0.617204
G1 X135.428 Y107.874 E0.01115
G1 X135.611 Y107.864 E0.00874
;WIDTH:0.654221
G1 X135.742 Y107.856 E0.00667
G1 X135.846 Y107.85 E0.0053
G1 X135.95 Y107.844 E0.0053
G1 X136.046 Y107.836 E0.00489
;WIPE_START
G1 F8640
G1 X135.95 Y107.844 E-0.0222
G1 X135.846 Y107.85 E-0.02409
G1 X135.742 Y107.856 E-0.02409
G1 X135.611 Y107.864 E-0.03031
;WIPE_END
G1 E-0.8993 F2100
G1 Z0.4 F10800
M204 P1500
G1 X136.784 Y107.74
M204 P1000
G1 X137.523 Y107.645
G1 Z0.2
G1 E1 F2100
;TYPE:Solid infill
;WIDTH:0.546
G1 F1200
G1 X137.263 Y107.386 E0.01497
G1 X137.027 Y107.572 E0.01226
G1 X136.954 Y107.61 E0.00334
G1 X137.185 Y107.841 E0.01332
;WIPE_START
G1 F8640
G1 X136.954 Y107.61 E-0.07544
G1 X137.027 Y107.572 E-0.01892
G1 X137.263 Y107.386 E-0.06946
G1 X137.523 Y107.645 E-0.08483
;WIPE_END
G1 E-0.75135 F2100
G1 Z0.4 F10800
M204 P1500
G1 X127.861 Y107.841
M204 P1000
G1 X118.536 Y107.841
G1 Z0.2
G1 E1 F2100
;TYPE:Internal perimeter
;WIDTH:0.42
G1 F1200
G1 X118.536 Y107.96 E0.00373
G1 X115.533 Y107.957 E0.09415
G1 X115.486 Y107.654 E0.00962
G1 X115.731 Y107.576 E0.00805
G1 X116.176 Y107.34 E0.01579
G1 X116.571 Y107.028 E0.0158
G1 X116.904 Y106.65 E0.0158
G1 X117.164 Y106.219 E0.01579
G1 X117.342 Y105.747 E0.0158
G1 X117.433 Y105.252 E0.0158
G1 X117.433 Y104.748 E0.01579
G1 X117.342 Y104.253 E0.0158
G1 X117.164 Y103.781 E0.01579
G1 X116.904 Y103.35 E0.0158
G1 X116.571 Y102.972 E0.01579
G1 X116.176 Y102.66 E0.0158
G1 X115.731 Y102.424 E0.0158
G1 X115.469 Y102.341 E0.00861
G1 X115.516 Y102.037 E0.00963
G1 X118.536 Y102.038 E0.09468
M73 Q1 S48
G1 X118.536 Y107.781 E0.18007
;WIPE_START
M73 P1 R48
G1 F8640
G1 X118.536 Y107.96 E-0.04133
G1 X115.533 Y107.957 E-0.69337
G1 X115.486 Y107.654 E-0.07087
G1 X115.731 Y107.576 E-0.05926
G1 X116.057 Y107.404 E-0.08518
;WIPE_END
G1 E-0.05 F2100
G1 Z0.4 F10800
M204 P1500
G1 X116.179 Y105.053
M204 P1000
G1 X113.821 Y102.324
G1 Z0.2
G1 E1 F2100
G1 F1200
G1 X113.297 Y102.556 E0.01797
G1 X112.88 Y102.838 E0.01579
G1 X112.364 Y103.345 E0.02267
G1 X112.364 Y102.044 E0.04079
G1 X113.761 Y102.04 E0.0438
G1 X113.809 Y102.266 E0.00725
;WIPE_START
G1 F8640
G1 X113.297 Y102.556 E-0.13588
G1 X112.88 Y102.838 E-0.11632
G1 X112.364 Y103.345 E-0.16694
G1 X112.364 Y102.044 E-0.30039
G1 X113.362 Y102.041 E-0.23047
;WIPE_END
G1 E-0.05 F2100
G1 Z0.4 F10800
M204 P1500
G1 X113.087 Y104.46
M204 P1000
G1 X112.364 Y106.655
G1 Z0.2
G1 E1 F2100
G1 F1200
G1 X112.88 Y107.162 E0.02267
G1 X113.297 Y107.444 E0.0158
G1 X113.811 Y107.671 E0.0176
G1 X113.751 Y107.955 E0.00912
G1 X112.364 Y107.954 E0.04347
G1 X112.364 Y106.715 E0.03884
M204 P1500
G1 X112.176 Y106.715 F10800
M204 P1000
G1 X111.987 Y106.715
G1 F1200
G1 X111.987 Y105.743 E0.03048
G1 X112.253 Y105.672 E0.00862
G1 X112.579 Y106.237 E0.02046
G1 X112.809 Y106.564 E0.01254
G1 X113.12 Y106.869 E0.01365
G1 X113.48 Y107.113 E0.01365
G1 X113.879 Y107.289 E0.01365
G1 X114.302 Y107.39 E0.01365
G1 X114.737 Y107.414 E0.01365
G1 X115.169 Y107.359 E0.01365
G1 X115.584 Y107.227 E0.01365
G1 X115.969 Y107.023 E0.01365
G1 X116.311 Y106.753 E0.01365
G1 X116.599 Y106.427 E0.01365
G1 X116.823 Y106.054 E0.01365
G1 X116.977 Y105.646 E0.01365
G1 X117.055 Y105.218 E0.01365
G1 X117.055 Y104.782 E0.01365
G1 X116.977 Y104.354 E0.01365
G1 X116.823 Y103.946 E0.01365
G1 X116.599 Y103.573 E0.01365
G1 X116.311 Y103.247 E0.01365
G1 X115.969 Y102.977 E0.01365
G1 X115.584 Y102.773 E0.01365
G1 X115.169 Y102.641 E0.01365
G1 X114.737 Y102.586 E0.01365
G1 X114.302 Y102.61 E0.01365
G1 X113.879 Y102.711 E0.01365
G1 X113.48 Y102.887 E0.01365
G1 X113.12 Y103.131 E0.01365
G1 X112.809 Y103.436 E0.01365
G1 X112.579 Y103.763 E0.01254
G1 X112.253 Y104.328 E0.02046
G1 X111.987 Y104.257 E0.00862
G1 X111.987 Y101.668 E0.08118
G1 X114.649 Y101.66 E0.08346
G1 X118.913 Y101.661 E0.13369
G1 X118.913 Y108.338 E0.20933
G1 X111.987 Y108.331 E0.21716
G1 X111.987 Y106.775 E0.04877
;WIPE_START
G1 F8640
G1 X111.987 Y105.743 E-0.23835
G1 X112.253 Y105.672 E-0.06347
G1 X112.579 Y106.237 E-0.15067
G1 X112.809 Y106.564 E-0.09232
G1 X113.12 Y106.869 E-0.10056
G1 X113.48 Y107.113 E-0.10056
G1 X113.879 Y107.289 E-0.10056
G1 X114.302 Y107.39 E-0.10055
G1 X114.315 Y107.391 E-0.00297
;WIPE_END
G1 E-0.05 F2100
G1 Z0.4 F10800
M204 P1500
G1 X112.466 Y106.438
M204 P1000
G1 X112.944 Y106.101
G1 Z0.2
G1 E1 F2100
;TYPE:External perimeter
G1 F1200
G1 X113.098 Y106.319 E0.00836
G1 X113.36 Y106.576 E0.01151
G1 X113.664 Y106.782 E0.01151
G1 X114. Y106.93 E0.01151
G1 X114.357 Y107.015 E0.01151
