; generated by SuperSlicer 2.3.57 on 2022-03-16 at 08:42:42 UTC

; 

; external perimeters extrusion width = 0.45mm
; perimeters extrusion width = 0.45mm
; infill extrusion width = 0.45mm
; solid infill extrusion width = 0.45mm
; top infill extrusion width = 0.40mm
; support material extrusion width = 0.35mm
; first layer extrusion width = 0.42mm

; object:{"name":"Blue - Z Axis Top L","id":"Blue - Z Axis Top L.stl id:0 copy 0","object_center":[125.000000,70.290000,0.000000],"boundingbox_center":[125.000000,70.290000,8.000000],"boundingbox_size":[45.000000,38.000000,16.000000]}
; object:{"name":"Blue - Z Axis Top R","id":"Blue - Z Axis Top R.stl id:1 copy 0","object_center":[125.000000,139.710000,0.000000],"boundingbox_center":[125.000000,139.710000,8.000000],"boundingbox_size":[45.000000,38.000000,16.000000]}
; Total objects to print: 2
M486 T2
; plater:{"center":[125.000000,105.000000,0.000000],"boundingbox_center":[125.000000,105.000000,8.000000],"boundingbox_size":[45.000000,107.420000,16.000000]}

M73 P0 R86
M73 Q0 S87
;TYPE:Custom
M862.3 P "MK3S" ; printer model check
M862.1 P0.4 ; nozzle diameter check
M115 U3.10.0 ; tell printer latest fw version
G90 ; use absolute coordinates
M83 ; extruder relative mode
M104 S230 ; set extruder temp
M140 S85 ; set bed temp
M190 S85 ; wait for bed temp
M109 S230 ; wait for extruder temp
G28 W ; home all without mesh bed level
G80 ; mesh bed leveling
G1 Y-3.0 F1000.0 ; go outside print area
G92 E0.0
G1 X60.0 E9.0 F1000.0 ; intro line
G1 X100.0 E12.5 F1000.0 ; intro line
G92 E0.0
M221 S95

; Don't change E values below. Excessive value can damage the printer.
M907 E430 ; set extruder motor current
M107
G21 ; set units to millimeters
G90 ; use absolute coordinates
M83 ; use relative distances for extrusion
M900 K0.08 ; Filament gcode LA 1.5
M900 K45 ; Filament gcode LA 1.0
;LAYER_CHANGE
;Z:0.2
;HEIGHT:0.2
;BEFORE_LAYER_CHANGE
G92 E0.0
;0.2


G1 E-1 F2100
G1 Z0.2 F10800
G1 Z0.2
;AFTER_LAYER_CHANGE
;0.2
G1 Z0.4
M204 P1500
G1 X100.331 Y56.555
G1 Z0.2
G1 E1 F2100
;TYPE:Skirt
;WIDTH:0.45
G1 F1200
G1 X99.97 Y57.364 E0.02999
G1 X99.889 Y58.008 E0.02197
G1 X99.932 Y123.378 E2.21273
G1 X100.066 Y123.854 E0.01673
G1 X112.164 Y154.875 E1.12706
G1 X112.623 Y155.525 E0.02692
G1 X117.702 Y160.602 E0.24308
G1 X118.238 Y160.995 E0.0225
G1 X118.856 Y161.24 E0.0225
G1 X119.496 Y161.321 E0.02183
G1 X142.507 Y161.321 E0.77888
G1 X143.061 Y161.26 E0.01888
G1 X143.747 Y161.004 E0.02478
G1 X144.337 Y160.564 E0.02491
G1 X149.425 Y155.473 E0.24362
G1 X149.797 Y154.951 E0.0217
G1 X150.03 Y154.354 E0.0217
G1 X150.111 Y153.714 E0.02183
G1 X150.11 Y51.229 E3.469
G1 X150.05 Y50.73 E0.017
G1 X149.894 Y50.249 E0.01713
G1 X149.65 Y49.81 E0.017
G1 X149.327 Y49.425 E0.017
G1 X148.933 Y49.108 E0.01713
G1 X148.489 Y48.874 E0.017
G1 X148.008 Y48.729 E0.017
G1 X147.504 Y48.679 E0.01713
G1 X111.529 Y48.722 E1.2177
G1 X111.009 Y48.875 E0.01834
G1 X110.532 Y49.131 E0.01834
G1 X100.939 Y55.915 E0.39772
G1 X100.372 Y56.511 E0.02782
G1 X100.521 Y56.646 F10800
M204 P1000
G1 X100.67 Y56.78
G1 F1200
G1 X100.365 Y57.463 E0.02532
G1 X100.296 Y58.008 E0.01857
G1 X100.331 Y123.301 E2.21011
G1 X112.526 Y154.69 E1.13984
G1 X112.919 Y155.245 E0.023
G1 X117.976 Y160.301 E0.24207
G1 X118.429 Y160.636 E0.01906
G1 X118.956 Y160.845 E0.01919
G1 X119.5 Y160.914 E0.01857
G1 X142.503 Y160.914 E0.77864
G1 X142.962 Y160.865 E0.01561
G1 X143.548 Y160.648 E0.02116
G1 X144.05 Y160.276 E0.02116
G1 X149.116 Y155.208 E0.24256
G1 X149.435 Y154.765 E0.01845
G1 X149.635 Y154.254 E0.01857
G1 X149.704 Y153.71 E0.01857
G1 X149.703 Y51.247 E3.46826
G1 X149.525 Y50.42 E0.02862
G1 X149.045 Y49.719 E0.02874
G1 X148.337 Y49.251 E0.02874
G1 X147.504 Y49.086 E0.02874
G1 X111.614 Y49.121 E1.21482
G1 X111.167 Y49.25 E0.01574
G1 X110.758 Y49.47 E0.01574
G1 X101.186 Y56.238 E0.39681
G1 X100.711 Y56.737 E0.02329
; INIT printing object Blue - Z Axis Top L.stl id:0 copy 0
;WIPE_START
G1 F8640
G1 X100.365 Y57.463 E-0.18587
G1 X100.296 Y58.008 E-0.12669
G1 X100.298 Y60.768 E-0.63744
;WIPE_END
G1 E-0.05 F2100
G1 Z0.4 F10800
; printing object Blue - Z Axis Top L.stl id:0 copy 0
M486 S0
M204 P1500
G1 X104.993 Y66.355
M204 P1000
G1 X109.275 Y75.973
G1 Z0.2
G1 E1 F2100
;TYPE:Internal perimeter
;WIDTH:0.42
G1 F1200
G1 X107.817 Y76.622 E0.05005
G1 X106.452 Y78.138 E0.06395
G1 X105.822 Y80.077 E0.06394
G1 X106.035 Y82.106 E0.06395
G1 X107.055 Y83.872 E0.06394
G1 X108.705 Y85.071 E0.06395
G1 X110.7 Y85.495 E0.06395
G1 X112.695 Y85.071 E0.06395
G1 X114.345 Y83.872 E0.06395
G1 X115.208 Y82.377 E0.05412
G1 X121.392 Y82.377 E0.1939
G1 X121.419 Y82.631 E0.008
G1 X122.792 Y85.009 E0.08611
G1 X125.014 Y86.624 E0.08611
G1 X127.7 Y87.195 E0.08611
G1 X130.386 Y86.624 E0.08611
G1 X132.608 Y85.009 E0.08611
G1 X133.981 Y82.631 E0.08611
G1 X134.268 Y79.9 E0.08611
G1 X133.42 Y77.288 E0.08611
G1 X131.582 Y75.247 E0.08611
G1 X129.073 Y74.13 E0.08611
G1 X126.327 Y74.13 E0.08611
G1 X123.818 Y75.247 E0.08611
G1 X121.98 Y77.288 E0.08611
G1 X121.488 Y78.803 E0.04995
G1 X115.164 Y78.803 E0.19829
G1 X114.948 Y78.138 E0.02193
G1 X113.583 Y76.622 E0.06395
G1 X111.72 Y75.793 E0.06395
G1 X109.68 Y75.793 E0.06394
G1 X109.33 Y75.948 E0.01202
M204 P1500
G1 X109.407 Y76.121 F10800
M204 P1000
G1 X109.484 Y76.293
;TYPE:External perimeter
G1 F1200
G1 X108.044 Y76.934 E0.04942
M73 P0 R85
G1 X106.786 Y78.33 E0.05892
G1 X106.206 Y80.118 E0.05892
G1 X106.402 Y81.987 E0.05892
G1 X107.342 Y83.614 E0.05892
G1 X108.862 Y84.718 E0.05892
G1 X110.7 Y85.109 E0.05892
G1 X112.538 Y84.718 E0.05892
G1 X114.058 Y83.614 E0.05892
G1 X114.99 Y82. E0.05843
G1 X121.731 Y82. E0.21137
G1 X121.785 Y82.512 E0.01614
G1 X123.078 Y84.751 E0.08109
G1 X125.17 Y86.272 E0.08108
G1 X127.7 Y86.809 E0.08109
G1 X130.23 Y86.272 E0.08109
G1 X132.322 Y84.751 E0.08108
G1 X133.615 Y82.512 E0.08109
G1 X133.885 Y79.94 E0.08109
G1 X133.086 Y77.48 E0.08108
G1 X131.356 Y75.559 E0.08108
G1 X128.993 Y74.507 E0.08109
G1 X126.407 Y74.507 E0.08109
G1 X124.044 Y75.559 E0.08109
G1 X122.314 Y77.48 E0.08108
G1 X121.762 Y79.18 E0.05603
G1 X114.89 Y79.18 E0.21547
G1 X114.614 Y78.33 E0.02801
G1 X113.356 Y76.934 E0.05892
G1 X111.64 Y76.17 E0.05892
G1 X109.76 Y76.17 E0.05892
G1 X109.538 Y76.268 E0.00762
G1 X109.16 Y76.058 F10800
;WIPE_START
G1 F8640
G1 X108.044 Y76.934 E-0.37777
G1 X106.786 Y78.33 E-0.43392
G1 X106.601 Y78.9 E-0.13831
;WIPE_END
G1 E-0.05 F2100
G1 Z0.4 F10800
M204 P1500
G1 X121.53 Y80.225
M204 P1000
G1 X133.522 Y84.182
G1 Z0.2
G1 E1 F2100
;TYPE:Internal perimeter
G1 F1200
G1 X134.07 Y83.231 E0.03442
G1 X134.336 Y83.302 E0.00862
G1 X134.336 Y83.808 E0.01585
G1 X133.771 Y84.373 E0.02506
G1 X133.569 Y84.218 E0.00797
;WIPE_START
G1 F8640
G1 X134.07 Y83.231 E-0.25563
G1 X134.336 Y83.302 E-0.06347
G1 X134.336 Y83.808 E-0.11675
G1 X133.771 Y84.373 E-0.18453
G1 X133.569 Y84.218 E-0.05868
;WIPE_END
G1 E-0.32093 F2100
G1 Z0.4 F10800
M204 P1500
G1 X129.581 Y78.09
M204 P1000
G1 X125.592 Y71.962
G1 Z0.2
G1 E1 F2100
G1 F1200
G1 X125.592 Y62.618 E0.29298
G1 X117.5 Y57.946 E0.29298
G1 X116.485 Y58.532 E0.03675
G1 X109.408 Y62.618 E0.25623
G1 X109.408 Y71.962 E0.29298
G1 X117.5 Y76.634 E0.29298
G1 X125.54 Y71.992 E0.2911
M204 P1500
G1 X125.378 Y71.868 F10800
M204 P1000
G1 X125.215 Y71.744
G1 F1200
G1 X125.215 Y62.836 E0.27933
G1 X117.5 Y58.381 E0.27933
G1 X116.673 Y58.858 E0.02993
G1 X109.785 Y62.836 E0.24941
G1 X109.785 Y71.744 E0.27933
G1 X117.5 Y76.199 E0.27933
M73 P1 R85
G1 X125.163 Y71.774 E0.27745
M204 P1500
M73 Q1 S87
G1 X125.001 Y71.651 F10800
M204 P1000
G1 X124.838 Y71.527
;TYPE:External perimeter
G1 F1200
G1 X124.838 Y63.053 E0.26568
G1 X117.5 Y58.817 E0.26568
G1 X116.862 Y59.185 E0.0231
G1 X110.162 Y63.053 E0.24258
G1 X110.162 Y71.527 E0.26568
G1 X117.5 Y75.763 E0.26568
G1 X124.786 Y71.557 E0.2638
G1 X125.232 Y71.457 F10800
;WIPE_START
G1 F8640
G1 X124.811 Y67.443 E-0.95
;WIPE_END
G1 E-0.05 F2100
G1 Z0.4 F10800
M204 P1500
G1 X125.315 Y72.744
M204 P1000
G1 X125.844 Y73.932
G1 Z0.2
G1 E1 F2100
;TYPE:Internal perimeter
G1 F1200
G1 X123.591 Y74.935 E0.07731
G1 X121.646 Y77.095 E0.09113
G1 X121.214 Y78.426 E0.04388
G1 X115.438 Y78.426 E0.18111
G1 X115.281 Y77.945 E0.01586
G1 X113.809 Y76.31 E0.06897
G1 X111.8 Y75.415 E0.06897
G1 X109.6 Y75.415 E0.06897
G1 X107.591 Y76.31 E0.06897
G1 X106.119 Y77.945 E0.06897
G1 X105.439 Y80.037 E0.06897
G1 X105.669 Y82.225 E0.06897
G1 X106.769 Y84.13 E0.06897
G1 X108.548 Y85.423 E0.06897
G1 X110.7 Y85.88 E0.06897
G1 X112.852 Y85.423 E0.06897
G1 X114.631 Y84.13 E0.06897
G1 X115.426 Y82.754 E0.0498
G1 X121.054 Y82.754 E0.17649
G1 X122.505 Y85.267 E0.09099
G1 X124.857 Y86.976 E0.09114
G1 X127.7 Y87.58 E0.09114
G1 X130.543 Y86.976 E0.09114
G1 X131.12 Y86.557 E0.02235
G1 X131.335 Y86.809 E0.01038
G1 X130.018 Y88.126 E0.05841
M73 Q1 S86
G1 X107.982 Y88.126 E0.69091
G1 X103.664 Y83.808 E0.19147
G1 X103.664 Y58.893 E0.78119
G1 X112.77 Y52.454 E0.34967
G1 X146.336 Y52.454 E1.05243
G1 X146.336 Y53.008 E0.01736
G1 X141.218 Y58.126 E0.22694
G1 X135.188 Y58.126 E0.18906
G1 X127.408 Y62.618 E0.28169
G1 X127.408 Y71.962 E0.29298
G1 X134.336 Y75.962 E0.25083
G1 X134.336 Y77.909 E0.06104
G1 X134.034 Y77.957 E0.00959
G1 X133.754 Y77.095 E0.02841
G1 X131.809 Y74.935 E0.09113
G1 X129.153 Y73.753 E0.09114
G1 X126.247 Y73.753 E0.09114
G1 X125.899 Y73.908 E0.01195
;WIPE_START
G1 F8640
G1 X123.591 Y74.935 E-0.5832
G1 X122.528 Y76.115 E-0.3668
;WIPE_END
G1 E-0.05 F2100
G1 Z0.4 F10800
M204 P1500
G1 X126.842 Y72.826
M204 P1000
G1 X127.785 Y71.744
G1 Z0.2
G1 E1 F2100
G1 F1200
G1 X134.713 Y75.744 E0.25083
G1 X134.713 Y83.964 E0.25772
G1 X130.174 Y88.503 E0.20126
G1 X107.826 Y88.503 E0.7007
G1 X103.287 Y83.964 E0.20126
G1 X103.287 Y58.698 E0.7922
G1 X112.65 Y52.077 E0.35955
G1 X146.713 Y52.077 E1.06801
G1 X146.713 Y53.164 E0.03408
G1 X141.374 Y58.503 E0.23674
G1 X135.289 Y58.503 E0.19079
G1 X127.785 Y62.836 E0.27169
G1 X127.785 Y71.684 E0.27745
M204 P1500
G1 X127.973 Y71.606 F10800
M204 P1000
G1 X128.162 Y71.527
;TYPE:External perimeter
G1 F1200
G1 X135.09 Y75.527 E0.25083
G1 X135.09 Y84.12 E0.26944
G1 X130.33 Y88.88 E0.21106
G1 X107.67 Y88.88 E0.7105
G1 X102.91 Y84.12 E0.21106
G1 X102.91 Y58.503 E0.80322
G1 X112.53 Y51.7 E0.36943
G1 X147.09 Y51.7 E1.08359
G1 X147.09 Y53.32 E0.0508
G1 X141.53 Y58.88 E0.24653
G1 X135.39 Y58.88 E0.19252
G1 X128.162 Y63.053 E0.2617
G1 X128.162 Y71.467 E0.2638
G1 X128.025 Y71.903 F10800
;WIPE_START
G1 F8640
G1 X131.711 Y73.547 E-0.95
;WIPE_END
G1 E-0.05 F2100
G1 Z0.4 F10800
M204 P1500
G1 X130.281 Y73.221
M204 P1000
G1 X132.4 Y74.975
G1 Z0.2
G1 E1 F2100
;TYPE:Solid infill
;WIDTH:0.546
G1 F1200
G1 X134.223 Y76.798 E0.10505
;WIPE_START
G1 F8640
G1 X132.4 Y74.975 E-0.5951
;WIPE_END
G1 E-0.4049 F2100
G1 Z0.4 F10800
M204 P1500
G1 X134.217 Y77.451
M204 P1000
G1 X134.212 Y78.104
G1 Z0.2
G1 E1 F2100
;TYPE:Gap fill
;WIDTH:0.690192
G1 F1200
G1 X134.234 Y78.244 E0.00762
;WIDTH:0.625653
G1 X134.256 Y78.384 E0.00686
G1 X134.274 Y78.498 E0.00559
;WIDTH:0.570394
G1 X134.292 Y78.612 E0.00506
;WIDTH:0.531269
G1 X134.31 Y78.726 E0.00469
;WIDTH:0.492144
G1 X134.328 Y78.84 E0.00431
;WIDTH:0.453019
G1 X134.346 Y78.954 E0.00394
;WIDTH:0.413895
G1 X134.365 Y79.068 E0.00356
;WIDTH:0.37477
G1 X134.383 Y79.182 E0.00319
;WIDTH:0.335645
G1 X134.401 Y79.296 E0.00281
;WIDTH:0.29652
G1 X134.419 Y79.41 E0.00243
;WIDTH:0.257396
G1 X134.437 Y79.524 E0.00206
;WIDTH:0.218271
G1 X134.455 Y79.638 E0.00168
;WIDTH:0.179146
G1 X134.473 Y79.752 E0.00131
;WIDTH:0.139931
G1 X134.492 Y79.886 E0.00109
G1 X134.476 Y80.199 E0.00253
;WIDTH:0.174853
G1 X134.459 Y80.513 E0.00344
;WIDTH:0.211802
G1 X134.443 Y80.826 E0.00441
;WIDTH:0.248751
G1 X134.426 Y81.139 E0.00537
;WIDTH:0.2857
G1 X134.41 Y81.453 E0.00633
;WIDTH:0.322649
G1 X134.393 Y81.766 E0.0073
;WIDTH:0.359598
G1 X134.377 Y82.079 E0.00826
;WIDTH:0.396546
G1 X134.361 Y82.393 E0.00923
;WIDTH:0.433495
G1 X134.344 Y82.706 E0.01019
;WIDTH:0.465997
G1 X134.308 Y82.875 E0.00609
;WIDTH:0.506096
G1 X134.278 Y82.987 E0.00446
;WIDTH:0.552413
G1 X134.248 Y83.099 E0.00491
;WIPE_START
G1 F8640
G1 X134.278 Y82.987 E-0.02674
;WIPE_END
G1 E-0.97326 F2100
G1 Z0.4 F10800
M204 P1500
G1 X133.894 Y83.757
M204 P1000
G1 X133.541 Y84.415
G1 Z0.2
G1 E1 F2100
;WIDTH:0.698239
G1 F1200
G1 X133.45 Y84.533 E0.00812
;WIDTH:0.638665
G1 X133.359 Y84.651 E0.00738
G1 X133.285 Y84.748 E0.00602
;WIDTH:0.600611
G1 X133.211 Y84.844 E0.00563
;WIDTH:0.562557
G1 X133.137 Y84.94 E0.00525
;WIDTH:0.524503
G1 X133.063 Y85.037 E0.00486
;WIDTH:0.486449
G1 X132.989 Y85.133 E0.00448
;WIDTH:0.443957
G1 X132.916 Y85.229 E0.00405
G1 X132.858 Y85.29 E0.0028
G1 X132.702 Y85.424 E0.00684
;WIDTH:0.480747
G1 X132.546 Y85.557 E0.00747
;WIDTH:0.517536
G1 X132.39 Y85.69 E0.0081
;WIDTH:0.554325
G1 X132.234 Y85.823 E0.00872
;WIDTH:0.591114
G1 X132.078 Y85.956 E0.00935
;WIDTH:0.627903
G1 X131.922 Y86.09 E0.00998
;WIDTH:0.664692
G1 X131.766 Y86.223 E0.01061
;WIDTH:0.701481
G1 X131.61 Y86.356 E0.01123
G1 X131.485 Y86.463 E0.00902
;WIDTH:0.75534
G1 X131.359 Y86.57 E0.00975
;WIPE_START
G1 F8640
G1 X131.485 Y86.463 E-0.03802
;WIPE_END
G1 E-0.96198 F2100
G1 Z0.4 F10800
M204 P1500
G1 X138.699 Y69.858
M204 P1000
G1 X146.038 Y53.145
G1 Z0.2
G1 E1 F2100
;TYPE:Solid infill
;WIDTH:0.423908
G1 F1200
G1 X145.623 Y52.729 E0.01861
G1 X145.089 Y52.729 E0.01688
G1 X145.657 Y53.297 E0.02541
G1 X145.391 Y53.564 E0.01193
G1 X144.556 Y52.729 E0.03735
G1 X144.023 Y52.729 E0.01688
G1 X145.124 Y53.83 E0.04928
G1 X144.857 Y54.097 E0.01193
G1 X143.49 Y52.729 E0.06121
G1 X142.956 Y52.729 E0.01688
G1 X144.591 Y54.364 E0.07314
G1 X144.324 Y54.63 E0.01193
G1 X142.423 Y52.729 E0.08508
G1 X141.89 Y52.729 E0.01688
G1 X144.057 Y54.897 E0.09701
G1 X143.791 Y55.164 E0.01193
G1 X141.356 Y52.729 E0.10894
G1 X140.823 Y52.729 E0.01688
G1 X143.524 Y55.43 E0.12088
G1 X143.257 Y55.697 E0.01193
G1 X140.29 Y52.729 E0.13281
G1 X139.757 Y52.729 E0.01688
G1 X142.991 Y55.964 E0.14474
G1 X142.724 Y56.23 E0.01193
G1 X139.223 Y52.729 E0.15668
G1 X138.69 Y52.729 E0.01688
G1 X142.458 Y56.497 E0.16861
G1 X142.191 Y56.763 E0.01193
G1 X138.157 Y52.729 E0.18054
G1 X137.624 Y52.729 E0.01688
G1 X141.924 Y57.03 E0.19248
G1 X141.658 Y57.297 E0.01193
G1 X137.09 Y52.729 E0.20441
G1 X136.557 Y52.729 E0.01688
G1 X141.391 Y57.563 E0.21634
G1 X141.124 Y57.83 E0.01193
G1 X136.024 Y52.729 E0.22827
G1 X135.49 Y52.729 E0.01688
G1 X140.612 Y57.851 E0.2292
G1 X140.078 Y57.851 E0.01688
G1 X134.957 Y52.729 E0.2292
G1 X134.424 Y52.729 E0.01688
G1 X139.545 Y57.851 E0.2292
G1 X139.012 Y57.851 E0.01688
G1 X133.891 Y52.729 E0.2292
G1 X133.357 Y52.729 E0.01688
G1 X138.479 Y57.851 E0.2292
G1 X137.945 Y57.851 E0.01688
G1 X132.824 Y52.729 E0.2292
G1 X132.291 Y52.729 E0.01688
G1 X137.412 Y57.851 E0.2292
G1 X136.879 Y57.851 E0.01688
G1 X131.758 Y52.729 E0.2292
G1 X131.224 Y52.729 E0.01688
G1 X136.346 Y57.851 E0.2292
G1 X135.812 Y57.851 E0.01688
G1 X130.691 Y52.729 E0.2292
G1 X130.158 Y52.729 E0.01688
G1 X135.279 Y57.851 E0.2292
G1 X135.114 Y57.851 E0.00521
G1 X134.881 Y57.986 E0.00854
G1 X129.625 Y52.729 E0.23523
G1 X129.091 Y52.729 E0.01688
G1 X134.543 Y58.181 E0.24397
G1 X134.204 Y58.376 E0.01235
G1 X128.558 Y52.729 E0.25271
G1 X128.025 Y52.729 E0.01688
G1 X133.866 Y58.571 E0.26144
G1 X133.528 Y58.766 E0.01235
G1 X127.491 Y52.729 E0.27018
G1 X126.958 Y52.729 E0.01688
G1 X133.19 Y58.961 E0.27891
G1 X132.852 Y59.157 E0.01235
G1 X126.425 Y52.729 E0.28765
G1 X125.892 Y52.729 E0.01688
G1 X132.514 Y59.352 E0.29638
G1 X132.176 Y59.547 E0.01235
G1 X125.358 Y52.729 E0.30512
G1 X124.825 Y52.729 E0.01688
G1 X131.838 Y59.742 E0.31385
G1 X131.5 Y59.937 E0.01235
G1 X124.292 Y52.729 E0.32259
G1 X123.759 Y52.729 E0.01688
G1 X131.162 Y60.133 E0.33133
G1 X130.824 Y60.328 E0.01235
G1 X123.225 Y52.729 E0.34006
G1 X122.692 Y52.729 E0.01688
G1 X130.486 Y60.523 E0.3488
G1 X130.148 Y60.718 E0.01235
G1 X122.159 Y52.729 E0.35753
G1 X121.625 Y52.729 E0.01688
G1 X129.809 Y60.913 E0.36627
G1 X129.471 Y61.109 E0.01235
G1 X121.092 Y52.729 E0.375
M73 P1 R84
G1 X120.559 Y52.729 E0.01688
G1 X129.133 Y61.304 E0.38374
G1 X128.795 Y61.499 E0.01235
G1 X120.026 Y52.729 E0.39247
G1 X119.492 Y52.729 E0.01688
G1 X128.457 Y61.694 E0.40121
M73 P2 R84
G1 X128.119 Y61.889 E0.01235
