; generated by SuperSlicer 2.3.57 on 2022-03-16 at 08:33:10 UTC

; 

; external perimeters extrusion width = 0.45mm
; perimeters extrusion width = 0.45mm
; infill extrusion width = 0.45mm
; solid infill extrusion width = 0.45mm
; top infill extrusion width = 0.40mm
; first layer extrusion width = 0.42mm

; object:{"name":"Blue - Knob","id":"Blue - Knob.stl id:0 copy 0","object_center":[125.000000,105.000000,0.000000],"boundingbox_center":[125.000000,105.000000,7.998177],"boundingbox_size":[19.278295,19.278296,15.996353]}
; Total objects to print: 1
M486 T1
; plater:{"center":[125.000000,105.000000,0.000000],"boundingbox_center":[125.000000,105.000000,7.998177],"boundingbox_size":[19.278295,19.278296,15.996353]}

M73 P0 R27
M73 Q0 S28
;TYPE:Custom
M862.3 P "MK3S" ; printer model check
M862.1 P0.4 ; nozzle diameter check
M115 U3.10.0 ; tell printer latest fw version
G90 ; use absolute coordinates
M83 ; extruder relative mode
M104 S230 ; set extruder temp
M140 S85 ; set bed temp
M190 S85 ; wait for bed temp
M109 S230 ; wait for extruder temp
G28 W ; home all without mesh bed level
G80 ; mesh bed leveling
G1 Y-3.0 F1000.0 ; go outside print area
G92 E0.0
G1 X60.0 E9.0 F1000.0 ; intro line
G1 X100.0 E12.5 F1000.0 ; intro line
G92 E0.0
M221 S95

; Don't change E values below. Excessive value can damage the printer.
M907 E430 ; set extruder motor current
M107
G21 ; set units to millimeters
G90 ; use absolute coordinates
M83 ; use relative distances for extrusion
M900 K0.08 ; Filament gcode LA 1.5
M900 K45 ; Filament gcode LA 1.0
M107
;LAYER_CHANGE
;Z:0.2
;HEIGHT:0.2
;BEFORE_LAYER_CHANGE
G92 E0.0
;0.2


G1 E-1 F2100
G1 Z0.2 F10800
G1 Z0.2
;AFTER_LAYER_CHANGE
;0.2
G1 Z0.4
M204 P1500
G1 X116.215 Y97.173
G1 Z0.2
G1 E1 F2100
;TYPE:Skirt
;WIDTH:0.45
G1 F1200
G1 X115.849 Y97.655 E0.02049
G1 X113.973 Y100.922 E0.12751
G1 X113.439 Y102.802 E0.06614
G1 X113.404 Y106.854 E0.13716
G1 X113.629 Y107.991 E0.03924
G1 X114.016 Y109.165 E0.04185
G1 X115.937 Y112.484 E0.12981
G1 X117.164 Y113.776 E0.06034
G1 X117.651 Y114.149 E0.02076
G1 X120.922 Y116.027 E0.12765
G1 X122.802 Y116.561 E0.06614
G1 X126.873 Y116.596 E0.13782
G1 X128.164 Y116.323 E0.04468
G1 X129.183 Y115.975 E0.03643
G1 X132.484 Y114.063 E0.12913
G1 X133.776 Y112.836 E0.06034
G1 X134.149 Y112.349 E0.02076
G1 X136.027 Y109.078 E0.12765
G1 X136.561 Y107.198 E0.06614
G1 X136.598 Y103.216 E0.13482
G1 X136.514 Y102.584 E0.02156
G1 X136.011 Y100.889 E0.05986
G1 X134.034 Y97.473 E0.13358
G1 X132.532 Y95.971 E0.0719
G1 X129.248 Y94.06 E0.12862
G1 X128.796 Y93.861 E0.01673
G1 X127.831 Y93.589 E0.03392
G1 X126.761 Y93.402 E0.03676
G1 X123.042 Y93.41 E0.12589
G1 X121.333 Y93.822 E0.05953
G1 X120.761 Y94.055 E0.02089
G1 X117.48 Y95.962 E0.12845
G1 X116.259 Y97.132 E0.05724
G1 X116.399 Y97.278 F10800
M204 P1000
G1 X116.54 Y97.425
G1 F1200
G1 X116.511 Y97.453 E0.00139
G1 X116.198 Y97.863 E0.01746
G1 X114.344 Y101.09 E0.12596
G1 X113.842 Y102.863 E0.06238
G1 X113.81 Y106.839 E0.13458
G1 X114.024 Y107.891 E0.03635
G1 X114.379 Y108.98 E0.03877
G1 X116.271 Y112.252 E0.12795
G1 X117.448 Y113.484 E0.05766
G1 X117.86 Y113.8 E0.01759
G1 X121.09 Y115.656 E0.12608
G1 X122.863 Y116.158 E0.06238
G1 X126.855 Y116.189 E0.13514
G1 X128.064 Y115.929 E0.04186
G1 X128.996 Y115.613 E0.03331
G1 X132.252 Y113.729 E0.12733
G1 X133.484 Y112.552 E0.05766
G1 X133.8 Y112.14 E0.01759
G1 X135.656 Y108.91 E0.12608
G1 X136.158 Y107.137 E0.06238
G1 X136.191 Y103.224 E0.13246
G1 X136.12 Y102.687 E0.01833
G1 X135.644 Y101.066 E0.05719
G1 X133.706 Y97.715 E0.13104
G1 X132.29 Y96.298 E0.06779
G1 X129.051 Y94.417 E0.1268
G1 X127.727 Y93.982 E0.04717
G1 X126.761 Y93.809 E0.0332
G1 X123.077 Y93.815 E0.12472
G1 X121.446 Y94.213 E0.0568
G1 X120.955 Y94.413 E0.01796
G1 X117.721 Y96.29 E0.12658
G1 X116.584 Y97.383 E0.05339
; INIT printing object Blue - Knob.stl id:0 copy 0
;WIPE_START
G1 F8640
G1 X116.511 Y97.453 E-0.02331
G1 X116.198 Y97.863 E-0.11912
G1 X114.456 Y100.896 E-0.80756
;WIPE_END
G1 E-0.05 F2100
G1 Z0.4 F10800
; printing object Blue - Knob.stl id:0 copy 0
M486 S0
M204 P1500
G1 X119.576 Y98.
M204 P1000
G1 X122.569 Y98.616
G1 Z0.2
G1 E1 F2100
;TYPE:Internal perimeter
;WIDTH:0.42
G1 F1200
G1 X122.909 Y98.141 E0.01832
G1 X122.953 Y98.053 E0.0031
G1 X123.291 Y97.953 E0.01103
G1 X123.953 Y98.325 E0.02381
G1 X122.628 Y98.604 E0.04245
;WIPE_START
G1 F8640
G1 X122.909 Y98.141 E-0.12502
G1 X122.953 Y98.053 E-0.0228
G1 X123.291 Y97.953 E-0.0812
G1 X123.953 Y98.325 E-0.17533
G1 X122.628 Y98.604 E-0.3126
;WIPE_END
G1 E-0.28305 F2100
G1 Z0.4 F10800
M204 P1500
G1 X124.393 Y98.539
M204 P1000
G1 X126.158 Y98.475
G1 Z0.2
G1 E1 F2100
G1 F1200
G1 X126.148 Y98.218 E0.00807
G1 X126.431 Y98.11 E0.00949
G1 X126.709 Y97.953 E0.01003
G1 X127.047 Y98.053 E0.01103
G1 X127.091 Y98.141 E0.0031
G1 X127.448 Y98.641 E0.01927
G1 X127.282 Y98.852 E0.00843
G1 X126.843 Y98.675 E0.01486
G1 X126.216 Y98.492 E0.02048
;WIPE_START
G1 F8640
G1 X126.148 Y98.218 E-0.06518
G1 X126.431 Y98.11 E-0.06989
G1 X126.709 Y97.953 E-0.07385
G1 X127.047 Y98.053 E-0.08121
G1 X127.091 Y98.141 E-0.02281
G1 X127.448 Y98.641 E-0.14187
G1 X127.282 Y98.852 E-0.06206
G1 X126.843 Y98.675 E-0.10943
G1 X126.216 Y98.492 E-0.1508
;WIPE_END
G1 E-0.22292 F2100
G1 Z0.4 F10800
M204 P1500
G1 X127.58 Y99.183
M204 P1000
G1 X128.945 Y99.875
G1 Z0.2
G1 E1 F2100
G1 F1200
G1 X129.073 Y99.633 E0.00857
G1 X129.48 Y99.724 E0.0131
G1 X130.013 Y99.763 E0.01673
G1 X130.18 Y99.921 E0.00723
G1 X130.245 Y99.994 E0.00305
G1 X130.26 Y100.398 E0.01267
M73 Q1 S28
G1 X130.349 Y100.881 E0.01543
G1 X130.429 Y101.113 E0.00769
G1 X130.158 Y101.256 E0.00959
G1 X129.714 Y100.664 E0.02322
G1 X129.255 Y100.167 E0.0212
G1 X128.989 Y99.916 E0.01148
;WIPE_START
G1 F8640
G1 X129.073 Y99.633 E-0.06809
G1 X129.48 Y99.724 E-0.09645
M73 P1 R27
G1 X130.013 Y99.763 E-0.12324
G1 X130.18 Y99.921 E-0.05321
G1 X130.245 Y99.994 E-0.02249
G1 X130.26 Y100.398 E-0.09329
G1 X130.349 Y100.881 E-0.11361
G1 X130.429 Y101.113 E-0.0566
G1 X130.158 Y101.256 E-0.07064
G1 X129.714 Y100.664 E-0.17099
G1 X129.475 Y100.405 E-0.08139
;WIPE_END
G1 E-0.05 F2100
G1 Z0.4 F10800
M204 P1500
G1 X129.905 Y101.168
M204 P1000
G1 X130.821 Y102.419
G1 Z0.2
G1 E1 F2100
G1 F1200
G1 X131.072 Y102.24 E0.00969
G1 X131.361 Y102.539 E0.01304
G1 X131.747 Y102.837 E0.01528
G1 X131.958 Y102.958 E0.00762
G1 X132.047 Y103.296 E0.01099
G1 X131.949 Y103.448 E0.00566
G1 X131.752 Y103.912 E0.0158
G1 X131.685 Y104.17 E0.00835
G1 X131.397 Y104.158 E0.00902
G1 X131.339 Y103.838 E0.01022
G1 X131.167 Y103.23 E0.01981
G1 X130.937 Y102.645 E0.0197
G1 X130.848 Y102.473 E0.00609
;WIPE_START
G1 F8640
G1 X131.072 Y102.24 E-0.07466
G1 X131.361 Y102.539 E-0.09603
G1 X131.747 Y102.837 E-0.11253
G1 X131.958 Y102.958 E-0.05613
G1 X132.047 Y103.296 E-0.08091
G1 X131.949 Y103.448 E-0.04167
G1 X131.752 Y103.912 E-0.11634
G1 X131.685 Y104.17 E-0.06151
G1 X131.397 Y104.158 E-0.06646
G1 X131.339 Y103.838 E-0.07529
G1 X131.167 Y103.23 E-0.14586
G1 X131.131 Y103.139 E-0.0226
;WIPE_END
G1 E-0.05 F2100
G1 Z0.4 F10800
M204 P1500
G1 X131.151 Y104.262
M204 P1000
G1 X131.454 Y106.051
G1 Z0.2
G1 E1 F2100
G1 F1200
G1 X131.739 Y106.021 E0.00897
G1 X131.84 Y106.318 E0.00984
G1 X132.045 Y106.716 E0.01404
G1 X132.015 Y106.851 E0.00432
G1 X131.959 Y107.033 E0.00598
G1 X131.55 Y107.303 E0.01535
G1 X131.425 Y107.416 E0.00526
G1 X131.195 Y107.266 E0.0086
G1 X131.278 Y107.01 E0.00842
G1 X131.416 Y106.378 E0.02029
G1 X131.447 Y106.111 E0.00844
;WIPE_START
G1 F8640
G1 X131.739 Y106.021 E-0.07044
G1 X131.84 Y106.318 E-0.07248
G1 X132.045 Y106.716 E-0.10341
G1 X132.015 Y106.851 E-0.03185
G1 X131.959 Y107.033 E-0.04407
G1 X131.55 Y107.303 E-0.11303
G1 X131.425 Y107.416 E-0.03877
G1 X131.195 Y107.266 E-0.06337
G1 X131.278 Y107.01 E-0.06204
G1 X131.416 Y106.378 E-0.1494
G1 X131.447 Y106.111 E-0.06213
;WIPE_END
G1 E-0.18902 F2100
G1 Z0.4 F10800
M204 P1500
G1 X130.74 Y107.776
M204 P1000
G1 X130.032 Y109.442
M73 Q1 S27
G1 Z0.2
G1 E1 F2100
G1 F1200
G1 X130.275 Y109.547 E0.0083
G1 X130.241 Y109.857 E0.00979
G1 X130.248 Y109.99 E0.00418
G1 X130.003 Y110.249 E0.01117
G1 X129.268 Y110.249 E0.02306
G1 X129.689 Y109.844 E0.01832
G1 X129.993 Y109.488 E0.01469
M204 P1500
G1 X129.85 Y109.365 F10800
M204 P1000
G1 X129.707 Y109.243
G1 F1200
G1 X129.82 Y109.109 E0.0055
G1 X130.176 Y108.599 E0.0195
G1 X130.478 Y108.059 E0.0194
G1 X130.725 Y107.495 E0.01931
G1 X130.914 Y106.912 E0.01922
G1 X131.044 Y106.316 E0.01912
G1 X131.114 Y105.713 E0.01902
G1 X131.126 Y105.11 E0.01892
G1 X131.078 Y104.511 E0.01884
G1 X130.972 Y103.923 E0.01875
G1 X130.809 Y103.351 E0.01864
G1 X130.593 Y102.801 E0.01854
G1 X130.328 Y102.284 E0.01821
G1 X129.772 Y101.37 E0.03353
G1 X129.424 Y100.905 E0.01822
G1 X128.987 Y100.432 E0.02017
G1 X128.779 Y100.237 E0.00894
G1 X128.32 Y99.867 E0.01849
G1 X127.817 Y99.538 E0.01884
G1 X127.282 Y99.258 E0.01894
G1 X126.719 Y99.032 E0.01903
G1 X126.134 Y98.86 E0.01913
G1 X125.531 Y98.747 E0.01922
G1 X124.917 Y98.693 E0.01931
G1 X124.395 Y98.698 E0.01639
G1 X123.683 Y98.767 E0.02241
G1 X123.068 Y98.896 E0.01973
G1 X122.468 Y99.086 E0.0197
G1 X121.888 Y99.334 E0.0198
G1 X121.332 Y99.64 E0.01989
G1 X120.806 Y100. E0.01999
G1 X120.316 Y100.413 E0.02009
G1 X119.866 Y100.873 E0.02018
G1 X119.463 Y101.378 E0.02028
G1 X119.326 Y101.589 E0.00786
G1 X119.031 Y101.418 E0.01068
G1 X119.144 Y101.199 E0.0077
G1 X119.285 Y100.786 E0.0137
G1 X119.364 Y100.356 E0.0137
G1 X119.383 Y99.844 E0.01608
G1 X119.549 Y99.658 E0.00783
G1 X119.857 Y99.368 E0.01325
G1 X120.025 Y99.382 E0.0053
G1 X120.465 Y99.35 E0.01381
G1 X120.891 Y99.255 E0.0137
G1 X121.299 Y99.099 E0.0137
G1 X121.68 Y98.885 E0.0137
G1 X122.026 Y98.618 E0.0137
G1 X122.329 Y98.304 E0.0137
G1 X122.585 Y97.946 E0.01381
G1 X122.689 Y97.737 E0.0073
G1 X123.264 Y97.568 E0.0188
G1 X123.346 Y97.552 E0.00261
G1 X123.73 Y97.767 E0.0138
G1 X124.138 Y97.923 E0.0137
G1 X124.564 Y98.018 E0.0137
G1 X125 Y98.05 E0.0137
G1 X125.436 Y98.018 E0.0137
G1 X125.862 Y97.923 E0.0137
G1 X126.27 Y97.767 E0.0137
G1 X126.654 Y97.552 E0.0138
G1 X126.736 Y97.568 E0.00261
G1 X127.311 Y97.737 E0.0188
G1 X127.415 Y97.946 E0.00731
G1 X127.671 Y98.304 E0.01381
G1 X127.974 Y98.618 E0.0137
G1 X128.32 Y98.885 E0.0137
G1 X128.701 Y99.099 E0.0137
G1 X129.109 Y99.255 E0.0137
G1 X129.535 Y99.35 E0.0137
G1 X129.975 Y99.382 E0.01381
G1 X130.143 Y99.368 E0.0053
G1 X130.451 Y99.658 E0.01325
G1 X130.617 Y99.844 E0.00783
G1 X130.636 Y100.356 E0.01608
G1 X130.715 Y100.786 E0.0137
G1 X130.856 Y101.199 E0.0137
G1 X131.056 Y101.588 E0.0137
G1 X131.31 Y101.943 E0.0137
G1 X131.613 Y102.257 E0.0137
G1 X131.957 Y102.522 E0.0136
G1 X132.282 Y102.709 E0.01176
G1 X132.454 Y103.361 E0.02115
G1 X132.284 Y103.625 E0.00986
G1 X132.11 Y104.034 E0.01392
G1 X132. Y104.457 E0.0137
G1 X131.952 Y104.891 E0.0137
G1 X131.968 Y105.327 E0.0137
G1 X132.047 Y105.757 E0.0137
G1 X132.188 Y106.17 E0.0137
G1 X132.388 Y106.559 E0.0137
G1 X132.448 Y106.643 E0.00325
G1 X132.379 Y106.948 E0.00981
G1 X132.27 Y107.304 E0.01166
G1 X132.146 Y107.361 E0.00429
G1 X131.781 Y107.603 E0.01371
G1 X131.456 Y107.894 E0.0137
G1 X131.177 Y108.23 E0.0137
G1 X130.949 Y108.603 E0.0137
G1 X130.778 Y109.005 E0.0137
G1 X130.668 Y109.428 E0.0137
G1 X130.619 Y109.867 E0.01388
G1 X130.634 Y110.132 E0.0083
G1 X130.226 Y110.562 E0.01859
G1 X130.153 Y110.626 E0.00304
G1 X129.753 Y110.626 E0.01255
G1 X129.32 Y110.689 E0.0137
G1 X128.902 Y110.815 E0.0137
G1 X128.507 Y111.001 E0.0137
G1 X128.142 Y111.242 E0.0137
G1 X127.817 Y111.533 E0.0137
G1 X127.538 Y111.869 E0.0137
G1 X127.29 Y112.274 E0.01489
G1 X127.101 Y112.337 E0.00623
G1 X126.646 Y112.444 E0.01466
G1 X126.27 Y112.233 E0.01353
G1 X125.862 Y112.077 E0.0137
G1 X125.436 Y111.982 E0.0137
G1 X124.927 Y111.945 E0.01598
G1 X124.928 Y111.955 E0.00033
G1 X124.564 Y111.982 E0.01142
G1 X124.138 Y112.077 E0.0137
G1 X123.73 Y112.233 E0.0137
G1 X123.348 Y112.447 E0.01372
G1 X122.901 Y112.338 E0.01444
G1 X122.71 Y112.274 E0.00632
G1 X122.462 Y111.869 E0.01489
G1 X122.183 Y111.533 E0.0137
G1 X122.016 Y111.384 E0.00701
G1 X122.162 Y111.132 E0.00911
G1 X122.918 Y111.379 E0.02495
G1 X123.561 Y111.521 E0.02065
G1 X124.212 Y111.599 E0.02056
G1 X124.895 Y111.613 E0.0214
G1 X125.512 Y111.562 E0.01942
G1 X126.148 Y111.449 E0.02026
G1 X126.768 Y111.275 E0.02018
G1 X127.364 Y111.042 E0.02008
G1 X127.932 Y110.753 E0.01998
G1 X128.466 Y110.411 E0.01988
G1 X128.962 Y110.02 E0.01979
G1 X129.415 Y109.585 E0.0197
G1 X129.668 Y109.288 E0.01222
;WIPE_START
G1 F8640
G1 X129.82 Y109.109 E-0.05433
G1 X130.176 Y108.599 E-0.14358
G1 X130.478 Y108.059 E-0.14287
G1 X130.725 Y107.495 E-0.14221
G1 X130.914 Y106.912 E-0.14157
G1 X131.044 Y106.316 E-0.14082
G1 X131.114 Y105.713 E-0.14005
G1 X131.118 Y105.52 E-0.04456
;WIPE_END
G1 E-0.05 F2100
G1 Z0.4 F10800
M204 P1500
G1 X123.967 Y106.829
M204 P1000
G1 X118.267 Y104.369
G1 Z0.2
G1 E1 F2100
G1 F1200
G1 X117.98 Y104.379 E0.009
G1 X117.89 Y104.034 E0.01119
G1 X117.716 Y103.625 E0.01392
G1 X117.546 Y103.361 E0.00986
G1 X117.718 Y102.708 E0.02116
G1 X118.043 Y102.522 E0.01174
G1 X118.387 Y102.257 E0.0136
G1 X118.69 Y101.943 E0.0137
G1 X118.812 Y101.772 E0.00661
G1 X119.097 Y101.946 E0.01046
G1 X118.808 Y102.503 E0.01967
G1 X118.565 Y103.112 E0.02056
G1 X118.382 Y103.745 E0.02066
G1 X118.278 Y104.31 E0.01801
;WIPE_START
G1 F8640
G1 X117.98 Y104.379 E-0.07063
G1 X117.89 Y104.034 E-0.08243
G1 X117.716 Y103.625 E-0.10253
G1 X117.546 Y103.361 E-0.07259
G1 X117.718 Y102.708 E-0.15584
G1 X118.043 Y102.522 E-0.08649
G1 X118.387 Y102.257 E-0.10014
G1 X118.69 Y101.943 E-0.10086
G1 X118.812 Y101.772 E-0.04867
G1 X119.097 Y101.946 E-0.077
G1 X118.992 Y102.149 E-0.05283
;WIPE_END
G1 E-0.05 F2100
G1 Z0.4 F10800
M204 P1500
G1 X118.196 Y105.06
M204 P1000
G1 X118.115 Y105.81
G1 Z0.2
G1 E1 F2100
G1 F1200
G1 X118.226 Y105.823 E0.00351
G1 X118.29 Y106.393 E0.01801
G1 X118.431 Y107.05 E0.02106
G1 X118.605 Y107.594 E0.0179
G1 X118.375 Y107.743 E0.00859
G1 X118.219 Y107.603 E0.00658
G1 X117.854 Y107.361 E0.01371
G1 X117.73 Y107.304 E0.00429
G1 X117.622 Y106.951 E0.01157
G1 X117.553 Y106.641 E0.00994
G1 X117.612 Y106.559 E0.00319
G1 X117.812 Y106.17 E0.0137
G1 X117.941 Y105.792 E0.01254
G1 X118.055 Y105.804 E0.0036
;WIPE_START
G1 F8640
G1 X118.226 Y105.823 E-0.03968
G1 X118.29 Y106.393 E-0.13263
G1 X118.431 Y107.05 E-0.15508
G1 X118.605 Y107.594 E-0.13181
G1 X118.375 Y107.743 E-0.06325
G1 X118.219 Y107.603 E-0.04847
G1 X117.854 Y107.361 E-0.10096
G1 X117.73 Y107.304 E-0.03159
G1 X117.622 Y106.951 E-0.08521
G1 X117.553 Y106.641 E-0.07318
G1 X117.612 Y106.559 E-0.02349
G1 X117.74 Y106.31 E-0.06464
;WIPE_END
G1 E-0.05 F2100
G1 Z0.4 F10800
M204 P1500
G1 X118.806 Y107.529
M204 P1000
G1 X119.557 Y109.254
G1 Z0.2
G1 E1 F2100
G1 F1200
G1 X120.053 Y109.77 E0.02243
G1 X120.549 Y110.195 E0.02046
G1 X120.905 Y110.444 E0.01362
G1 X120.8 Y110.707 E0.00888
G1 X120.247 Y110.626 E0.01752
G1 X119.847 Y110.626 E0.01255
G1 X119.774 Y110.562 E0.00304
G1 X119.366 Y110.132 E0.01859
G1 X119.381 Y109.867 E0.0083
G1 X119.325 Y109.363 E0.01591
G1 X119.503 Y109.28 E0.00616
M204 P1500
G1 X119.675 Y109.145 F10800
M204 P1000
G1 X119.847 Y109.01
;TYPE:External perimeter
G1 F1200
G1 X120.313 Y109.495 E0.0211
G1 X120.78 Y109.896 E0.01932
G1 X121.299 Y110.26 E0.01987
G1 X121.849 Y110.569 E0.01978
G1 X122.424 Y110.821 E0.01967
G1 X123.017 Y111.015 E0.01957
G1 X123.624 Y111.149 E0.01949
G1 X124.239 Y111.222 E0.0194
G1 X124.854 Y111.235 E0.01929
G1 X125.464 Y111.187 E0.01919
G1 X126.064 Y111.081 E0.0191
G1 X126.648 Y110.917 E0.01901
G1 X127.21 Y110.697 E0.01892
G1 X127.744 Y110.425 E0.01881
G1 X128.247 Y110.103 E0.01872
G1 X128.714 Y109.736 E0.01862
G1 X129.14 Y109.326 E0.01854
G1 X129.522 Y108.879 E0.01844
G1 X129.856 Y108.399 E0.01834
G1 X130.14 Y107.891 E0.01824
G1 X130.372 Y107.361 E0.01815
G1 X130.549 Y106.813 E0.01806
G1 X130.671 Y106.254 E0.01796
G1 X130.738 Y105.688 E0.01786
G1 X130.748 Y105.122 E0.01776
G1 X130.703 Y104.56 E0.01767
G1 X130.604 Y104.008 E0.01758
G1 X130.451 Y103.472 E0.01748
G1 X130.248 Y102.956 E0.01738
G1 X129.999 Y102.468 E0.0172
G1 X129.459 Y101.582 E0.03252
G1 X129.134 Y101.147 E0.01704
G1 X128.72 Y100.698 E0.01915
G1 X128.532 Y100.522 E0.00807
