; generated by SuperSlicer 2.3.57 on 2022-03-16 at 08:40:44 UTC

; 

; external perimeters extrusion width = 0.45mm
; perimeters extrusion width = 0.45mm
; infill extrusion width = 0.45mm
; solid infill extrusion width = 0.45mm
; top infill extrusion width = 0.40mm
; support material extrusion width = 0.35mm
; first layer extrusion width = 0.42mm

; object:{"name":"Blue - Y Motor Mount","id":"Blue - Y Motor Mount.stl id:0 copy 0","object_center":[125.000000,105.000000,0.000000],"boundingbox_center":[125.000000,105.000000,19.000000],"boundingbox_size":[50.000000,50.000000,38.000000]}
; Total objects to print: 1
M486 T1
; plater:{"center":[125.000000,105.000000,0.000000],"boundingbox_center":[125.000000,105.000000,19.000000],"boundingbox_size":[50.000000,50.000000,38.000000]}

M73 P0 R97
M73 Q0 S97
;TYPE:Custom
M862.3 P "MK3S" ; printer model check
M862.1 P0.4 ; nozzle diameter check
M115 U3.10.0 ; tell printer latest fw version
G90 ; use absolute coordinates
M83 ; extruder relative mode
M104 S230 ; set extruder temp
M140 S85 ; set bed temp
M190 S85 ; wait for bed temp
M109 S230 ; wait for extruder temp
G28 W ; home all without mesh bed level
G80 ; mesh bed leveling
G1 Y-3.0 F1000.0 ; go outside print area
G92 E0.0
G1 X60.0 E9.0 F1000.0 ; intro line
G1 X100.0 E12.5 F1000.0 ; intro line
G92 E0.0
M221 S95

; Don't change E values below. Excessive value can damage the printer.
M907 E430 ; set extruder motor current
M107
G21 ; set units to millimeters
G90 ; use absolute coordinates
M83 ; use relative distances for extrusion
M900 K0.08 ; Filament gcode LA 1.5
M900 K45 ; Filament gcode LA 1.0
;LAYER_CHANGE
;Z:0.2
;HEIGHT:0.2
;BEFORE_LAYER_CHANGE
G92 E0.0
;0.2


G1 E-1 F2100
G1 Z0.2 F10800
G1 Z0.2
;AFTER_LAYER_CHANGE
;0.2
G1 Z0.4
M204 P1500
G1 X97.961 Y83.37
G1 Z0.2
G1 E1 F2100
;TYPE:Skirt
;WIDTH:0.45
G1 F1200
G1 X97.542 Y84.119 E0.02905
G1 X97.39 Y84.964 E0.02905
G1 X97.396 Y127.182 E1.42903
G1 X97.573 Y127.961 E0.02705
G1 X97.98 Y128.654 E0.02718
G1 X101.37 Y132.039 E0.16217
G1 X102.123 Y132.459 E0.02919
G1 X102.968 Y132.61 E0.02905
G1 X147.174 Y132.605 E1.49632
G1 X147.958 Y132.429 E0.02718
G1 X148.651 Y132.023 E0.02718
G1 X152.039 Y128.63 E0.16231
G1 X152.459 Y127.877 E0.02919
G1 X152.61 Y127.032 E0.02905
G1 X152.586 Y84.643 E1.43481
M73 P0 R96
G1 X152.372 Y83.91 E0.02585
G1 X151.955 Y83.27 E0.02585
G1 X146.804 Y78.113 E0.24673
G1 X146.413 Y77.805 E0.01686
G1 X145.974 Y77.578 E0.01673
G1 X145.5 Y77.438 E0.01673
G1 X145.004 Y77.389 E0.01686
G1 X104.671 Y77.41 E1.36523
G1 X103.921 Y77.623 E0.02638
G1 X103.267 Y78.047 E0.02638
G1 X98.003 Y83.328 E0.25238
G1 X98.146 Y83.47 F10800
M204 P1000
G1 X98.289 Y83.613
G1 F1200
G1 X97.926 Y84.256 E0.025
G1 X97.797 Y84.974 E0.02471
G1 X97.802 Y127.154 E1.42772
G1 X97.957 Y127.826 E0.02336
G1 X98.311 Y128.415 E0.02324
G1 X101.619 Y131.717 E0.15822
G1 X102.259 Y132.075 E0.02483
G1 X102.978 Y132.203 E0.02471
G1 X147.146 Y132.199 E1.49504
G1 X147.819 Y132.046 E0.02336
G1 X148.412 Y131.692 E0.02336
G1 X151.717 Y128.381 E0.15834
G1 X152.075 Y127.741 E0.02483
G1 X152.203 Y127.022 E0.02471
G1 X152.185 Y84.711 E1.43216
G1 X152.001 Y84.076 E0.02238
G1 X151.639 Y83.527 E0.02226
G1 X146.53 Y78.414 E0.24467
G1 X145.826 Y77.957 E0.02838
G1 X145.004 Y77.796 E0.02838
G1 X104.726 Y77.814 E1.36335
G1 X104.083 Y77.996 E0.02263
G1 X103.524 Y78.364 E0.02263
G1 X98.331 Y83.57 E0.24891
; INIT printing object Blue - Y Motor Mount.stl id:0 copy 0
;WIPE_START
G1 F8640
G1 X98.283 Y83.619 E-0.01586
G1 X97.926 Y84.256 E-0.16858
G1 X97.797 Y84.974 E-0.16858
G1 X97.797 Y87.56 E-0.59698
;WIPE_END
G1 E-0.05 F2100
G1 Z0.4 F10800
; printing object Blue - Y Motor Mount.stl id:0 copy 0
M486 S0
M204 P1500
G1 X118.312 Y98.891
M204 P1000
G1 X138.292 Y114.212
G1 Z0.2
G1 E1 F2100
;TYPE:Internal perimeter
;WIDTH:0.42
G1 F1200
G1 X137.927 Y114.715 E0.01947
G1 X137.675 Y115.282 E0.01947
G1 X137.546 Y115.889 E0.01947
G1 X137.546 Y116.511 E0.01947
G1 X137.675 Y117.118 E0.01947
G1 X137.927 Y117.685 E0.01947
G1 X138.292 Y118.188 E0.01947
G1 X138.754 Y118.603 E0.01947
G1 X139.292 Y118.914 E0.01947
G1 X139.882 Y119.106 E0.01948
G1 X140.5 Y119.171 E0.01947
G1 X141.118 Y119.106 E0.01947
G1 X141.708 Y118.914 E0.01948
G1 X142.246 Y118.603 E0.01947
G1 X142.708 Y118.188 E0.01947
G1 X143.073 Y117.685 E0.01947
G1 X143.325 Y117.118 E0.01947
G1 X143.454 Y116.511 E0.01947
G1 X143.454 Y115.889 E0.01947
G1 X143.325 Y115.282 E0.01947
G1 X143.073 Y114.715 E0.01947
G1 X142.708 Y114.212 E0.01947
G1 X142.246 Y113.797 E0.01947
G1 X141.708 Y113.486 E0.01947
G1 X141.118 Y113.294 E0.01948
G1 X140.5 Y113.229 E0.01947
G1 X139.882 Y113.294 E0.01947
G1 X139.292 Y113.486 E0.01948
G1 X138.754 Y113.797 E0.01947
G1 X138.337 Y114.172 E0.01759
M204 P1500
G1 X138.463 Y114.312 F10800
M204 P1000
G1 X138.589 Y114.452
G1 F1200
G1 X138.574 Y114.466 E0.00064
G1 X138.256 Y114.904 E0.01698
G1 X138.035 Y115.399 E0.01699
G1 X137.923 Y115.929 E0.01698
G1 X137.923 Y116.471 E0.01699
G1 X138.035 Y117.001 E0.01698
G1 X138.256 Y117.496 E0.01699
G1 X138.574 Y117.934 E0.01698
G1 X138.977 Y118.296 E0.01699
G1 X139.446 Y118.567 E0.01699
G1 X139.961 Y118.735 E0.01699
G1 X140.5 Y118.791 E0.01698
G1 X141.039 Y118.735 E0.01698
G1 X141.554 Y118.567 E0.01699
G1 X142.023 Y118.296 E0.01699
G1 X142.426 Y117.934 E0.01699
G1 X142.744 Y117.496 E0.01698
G1 X142.965 Y117.001 E0.01699
G1 X143.077 Y116.471 E0.01698
G1 X143.077 Y115.929 E0.01699
G1 X142.965 Y115.399 E0.01698
G1 X142.744 Y114.904 E0.01699
G1 X142.426 Y114.466 E0.01698
G1 X142.023 Y114.104 E0.01699
G1 X141.554 Y113.833 E0.01699
G1 X141.039 Y113.665 E0.01699
G1 X140.5 Y113.609 E0.01698
G1 X139.961 Y113.665 E0.01698
G1 X139.446 Y113.833 E0.01699
G1 X138.977 Y114.104 E0.01699
G1 X138.634 Y114.412 E0.01447
M204 P1500
G1 X138.76 Y114.552 F10800
M204 P1000
G1 X138.886 Y114.693
;TYPE:External perimeter
G1 F1200
G1 X138.856 Y114.72 E0.00127
G1 X138.584 Y115.094 E0.0145
G1 X138.396 Y115.516 E0.0145
G1 X138.3 Y115.969 E0.0145
G1 X138.3 Y116.431 E0.0145
G1 X138.396 Y116.884 E0.0145
G1 X138.584 Y117.306 E0.0145
G1 X138.856 Y117.68 E0.0145
G1 X139.2 Y117.99 E0.0145
G1 X139.6 Y118.221 E0.0145
G1 X140.04 Y118.364 E0.0145
G1 X140.5 Y118.412 E0.0145
G1 X140.96 Y118.364 E0.0145
G1 X141.4 Y118.221 E0.0145
G1 X141.8 Y117.99 E0.0145
G1 X142.144 Y117.68 E0.0145
G1 X142.416 Y117.306 E0.0145
G1 X142.604 Y116.884 E0.0145
G1 X142.7 Y116.431 E0.0145
G1 X142.7 Y115.969 E0.0145
G1 X142.604 Y115.516 E0.0145
G1 X142.416 Y115.094 E0.0145
G1 X142.144 Y114.72 E0.0145
G1 X141.8 Y114.41 E0.0145
G1 X141.4 Y114.179 E0.0145
G1 X140.96 Y114.036 E0.0145
G1 X140.5 Y113.988 E0.0145
G1 X140.04 Y114.036 E0.0145
G1 X139.6 Y114.179 E0.0145
G1 X139.2 Y114.41 E0.0145
G1 X138.931 Y114.652 E0.01135
G1 X138.847 Y114.68 F10800
;WIPE_START
G1 F8640
G1 X138.856 Y114.72 E-0.02324
G1 X138.584 Y115.094 E-0.10677
G1 X138.396 Y115.516 E-0.1068
G1 X138.3 Y115.969 E-0.10677
G1 X138.3 Y116.431 E-0.10681
G1 X138.396 Y116.884 E-0.10677
G1 X138.584 Y117.306 E-0.1068
G1 X138.856 Y117.68 E-0.10677
G1 X139.2 Y117.99 E-0.1068
G1 X139.471 Y118.147 E-0.07247
;WIPE_END
G1 E-0.05 F2100
G1 Z0.4 F10800
M204 P1500
G1 X136.725 Y112.203
M204 P1000
G1 X134.52 Y109.754
G1 Z0.2
G1 E1 F2100
;TYPE:Internal perimeter
G1 F1200
G1 X134.788 Y109.513 E0.01129
G1 X136.406 Y107.285 E0.08633
G1 X137.526 Y104.77 E0.08633
G1 X138.098 Y102.077 E0.08633
G1 X138.098 Y99.323 E0.08633
G1 X137.526 Y96.63 E0.08633
G1 X136.406 Y94.115 E0.08633
G1 X134.788 Y91.887 E0.08633
G1 X132.741 Y90.045 E0.08633
G1 X130.357 Y88.668 E0.08633
G1 X127.738 Y87.817 E0.08633
G1 X125. Y87.529 E0.08633
G1 X124.463 Y87.586 E0.01695
G1 X122.262 Y87.817 E0.06938
G1 X119.643 Y88.668 E0.08633
G1 X117.259 Y90.045 E0.08633
G1 X115.212 Y91.887 E0.08633
G1 X113.594 Y94.115 E0.08633
G1 X112.474 Y96.63 E0.08633
G1 X111.902 Y99.323 E0.08633
G1 X111.902 Y102.077 E0.08633
G1 X112.474 Y104.77 E0.08633
G1 X113.594 Y107.285 E0.08633
G1 X115.212 Y109.513 E0.08633
G1 X117.259 Y111.355 E0.08633
G1 X119.643 Y112.732 E0.08633
G1 X122.262 Y113.583 E0.08633
G1 X125 Y113.871 E0.08633
G1 X127.738 Y113.583 E0.08633
G1 X130.357 Y112.732 E0.08633
G1 X132.741 Y111.355 E0.08633
G1 X134.475 Y109.794 E0.07316
M204 P1500
G1 X134.349 Y109.654 F10800
M204 P1000
G1 X134.223 Y109.514
G1 F1200
G1 X134.506 Y109.259 E0.01193
G1 X136.078 Y107.096 E0.08385
G1 X137.165 Y104.653 E0.08385
G1 X137.721 Y102.037 E0.08385
G1 X137.721 Y99.363 E0.08384
G1 X137.165 Y96.747 E0.08385
G1 X136.078 Y94.304 E0.08385
G1 X134.506 Y92.141 E0.08385
G1 X132.519 Y90.352 E0.08384
G1 X130.203 Y89.015 E0.08384
G1 X127.659 Y88.188 E0.08385
G1 X125. Y87.909 E0.08384
G1 X124.502 Y87.961 E0.0157
G1 X122.341 Y88.188 E0.06814
G1 X119.797 Y89.015 E0.08385
G1 X117.481 Y90.352 E0.08384
G1 X115.494 Y92.141 E0.08384
G1 X113.922 Y94.304 E0.08385
G1 X112.835 Y96.747 E0.08385
G1 X112.279 Y99.363 E0.08385
G1 X112.279 Y102.037 E0.08384
G1 X112.835 Y104.653 E0.08385
G1 X113.922 Y107.096 E0.08385
G1 X115.494 Y109.259 E0.08385
G1 X117.481 Y111.048 E0.08384
G1 X119.797 Y112.385 E0.08384
G1 X122.341 Y113.212 E0.08385
G1 X125 Y113.491 E0.08384
G1 X127.659 Y113.212 E0.08384
G1 X130.203 Y112.385 E0.08385
G1 X132.519 Y111.048 E0.08384
G1 X134.179 Y109.554 E0.07004
M204 P1500
G1 X134.052 Y109.414 F10800
M204 P1000
G1 X133.926 Y109.274
;TYPE:External perimeter
G1 F1200
G1 X134.224 Y109.005 E0.01257
G1 X135.749 Y106.906 E0.08136
G1 X136.805 Y104.536 E0.08136
G1 X137.344 Y101.997 E0.08136
G1 X137.344 Y99.403 E0.08136
G1 X136.805 Y96.864 E0.08136
G1 X135.749 Y94.494 E0.08136
G1 X134.224 Y92.395 E0.08136
G1 X132.296 Y90.658 E0.08136
G1 X130.048 Y89.361 E0.08136
G1 X127.581 Y88.559 E0.08136
G1 X125 Y88.288 E0.08136
G1 X124.541 Y88.336 E0.01446
G1 X122.419 Y88.559 E0.0669
G1 X119.952 Y89.361 E0.08136
G1 X117.704 Y90.658 E0.08136
G1 X115.776 Y92.395 E0.08136
G1 X114.251 Y94.494 E0.08136
G1 X113.195 Y96.864 E0.08136
G1 X112.656 Y99.403 E0.08136
G1 X112.656 Y101.997 E0.08136
G1 X113.195 Y104.536 E0.08136
G1 X114.251 Y106.906 E0.08136
G1 X115.776 Y109.005 E0.08136
G1 X117.704 Y110.742 E0.08136
G1 X119.952 Y112.039 E0.08136
G1 X122.419 Y112.841 E0.08136
G1 X125 Y113.112 E0.08136
G1 X127.581 Y112.841 E0.08136
G1 X130.048 Y112.039 E0.08136
G1 X132.296 Y110.742 E0.08136
G1 X133.882 Y109.314 E0.06691
G1 X134.307 Y109.397 F10800
;WIPE_START
G1 F8640
G1 X134.224 Y109.005 E-0.10639
G1 X135.749 Y106.906 E-0.59917
G1 X136.18 Y105.939 E-0.24444
;WIPE_END
G1 E-0.05 F2100
G1 Z0.4 F10800
M204 P1500
G1 X136.882 Y98.71
M204 P1000
G1 X139.882 Y88.106
G1 Z0.2
G1 E1 F2100
;TYPE:Internal perimeter
G1 F1200
G1 X140.5 Y88.171 E0.01947
G1 X141.118 Y88.106 E0.01947
G1 X141.708 Y87.914 E0.01948
G1 X142.246 Y87.603 E0.01947
G1 X142.708 Y87.188 E0.01947
G1 X143.073 Y86.685 E0.01947
G1 X143.325 Y86.118 E0.01947
G1 X143.454 Y85.511 E0.01947
G1 X143.454 Y84.889 E0.01947
G1 X143.325 Y84.282 E0.01947
G1 X143.073 Y83.715 E0.01947
G1 X142.708 Y83.212 E0.01947
G1 X142.246 Y82.797 E0.01947
G1 X141.708 Y82.486 E0.01947
G1 X141.118 Y82.294 E0.01948
G1 X140.5 Y82.229 E0.01947
G1 X139.882 Y82.294 E0.01947
G1 X139.292 Y82.486 E0.01948
G1 X138.754 Y82.797 E0.01947
G1 X138.292 Y83.212 E0.01947
G1 X137.927 Y83.715 E0.01947
G1 X137.675 Y84.282 E0.01947
G1 X137.546 Y84.889 E0.01947
G1 X137.546 Y85.511 E0.01947
G1 X137.675 Y86.118 E0.01947
G1 X137.927 Y86.685 E0.01947
G1 X138.292 Y87.188 E0.01947
G1 X138.754 Y87.603 E0.01947
G1 X139.292 Y87.914 E0.01947
G1 X139.825 Y88.087 E0.01759
M204 P1500
G1 X139.884 Y87.908 F10800
M204 P1000
G1 X139.942 Y87.729
G1 F1200
G1 X139.961 Y87.735 E0.00064
G1 X140.5 Y87.791 E0.01698
G1 X141.039 Y87.735 E0.01698
G1 X141.554 Y87.567 E0.01699
G1 X142.023 Y87.296 E0.01699
G1 X142.426 Y86.934 E0.01699
G1 X142.744 Y86.496 E0.01698
G1 X142.965 Y86.001 E0.01699
G1 X143.077 Y85.471 E0.01698
G1 X143.077 Y84.929 E0.01699
G1 X142.965 Y84.399 E0.01698
G1 X142.744 Y83.904 E0.01699
G1 X142.426 Y83.466 E0.01698
G1 X142.023 Y83.104 E0.01699
G1 X141.554 Y82.833 E0.01699
G1 X141.039 Y82.665 E0.01699
G1 X140.5 Y82.609 E0.01698
G1 X139.961 Y82.665 E0.01698
G1 X139.446 Y82.833 E0.01699
G1 X138.977 Y83.104 E0.01699
G1 X138.574 Y83.466 E0.01699
G1 X138.256 Y83.904 E0.01698
G1 X138.035 Y84.399 E0.01699
G1 X137.923 Y84.929 E0.01698
G1 X137.923 Y85.471 E0.01699
G1 X138.035 Y86.001 E0.01698
G1 X138.256 Y86.496 E0.01699
G1 X138.574 Y86.934 E0.01698
G1 X138.977 Y87.296 E0.01699
G1 X139.446 Y87.567 E0.01699
G1 X139.885 Y87.71 E0.01447
M204 P1500
G1 X139.943 Y87.531 F10800
M204 P1000
G1 X140.001 Y87.351
;TYPE:External perimeter
G1 F1200
G1 X140.04 Y87.364 E0.00128
G1 X140.5 Y87.412 E0.0145
G1 X140.96 Y87.364 E0.0145
G1 X141.4 Y87.221 E0.0145
G1 X141.8 Y86.99 E0.0145
G1 X142.144 Y86.68 E0.0145
G1 X142.416 Y86.306 E0.0145
G1 X142.604 Y85.884 E0.0145
G1 X142.7 Y85.431 E0.0145
G1 X142.7 Y84.969 E0.0145
G1 X142.604 Y84.516 E0.0145
G1 X142.416 Y84.094 E0.0145
G1 X142.144 Y83.72 E0.0145
G1 X141.8 Y83.41 E0.0145
G1 X141.4 Y83.179 E0.0145
G1 X140.96 Y83.036 E0.0145
G1 X140.5 Y82.988 E0.0145
G1 X140.04 Y83.036 E0.0145
G1 X139.6 Y83.179 E0.0145
G1 X139.2 Y83.41 E0.0145
G1 X138.856 Y83.72 E0.0145
G1 X138.584 Y84.094 E0.0145
G1 X138.396 Y84.516 E0.0145
G1 X138.3 Y84.969 E0.0145
G1 X138.3 Y85.431 E0.0145
G1 X138.396 Y85.884 E0.0145
G1 X138.584 Y86.306 E0.0145
G1 X138.856 Y86.68 E0.0145
G1 X139.2 Y86.99 E0.0145
G1 X139.6 Y87.221 E0.0145
G1 X139.944 Y87.333 E0.01135
G1 X140.01 Y87.391 F10800
;WIPE_START
G1 F8640
G1 X140.04 Y87.364 E-0.02325
G1 X140.5 Y87.412 E-0.10678
G1 X140.96 Y87.364 E-0.10678
G1 X141.4 Y87.221 E-0.1068
G1 X141.8 Y86.99 E-0.10679
G1 X142.144 Y86.68 E-0.1068
G1 X142.416 Y86.306 E-0.10677
G1 X142.604 Y85.884 E-0.1068
G1 X142.7 Y85.431 E-0.10677
G1 X142.7 Y85.117 E-0.07246
;WIPE_END
G1 E-0.05 F2100
G1 Z0.4 F10800
M204 P1500
G1 X126.199 Y86.422
M204 P1000
G1 X112.454 Y85.511
G1 Z0.2
G1 E1 F2100
;TYPE:Internal perimeter
G1 F1200
G1 X112.454 Y84.889 E0.01947
G1 X112.325 Y84.282 E0.01947
G1 X112.073 Y83.715 E0.01947
G1 X111.708 Y83.212 E0.01947
G1 X111.246 Y82.797 E0.01947
G1 X110.708 Y82.486 E0.01947
G1 X110.118 Y82.294 E0.01948
G1 X109.5 Y82.229 E0.01947
G1 X108.882 Y82.294 E0.01947
G1 X108.292 Y82.486 E0.01948
G1 X107.754 Y82.797 E0.01947
G1 X107.292 Y83.212 E0.01947
G1 X106.927 Y83.715 E0.01947
G1 X106.675 Y84.282 E0.01947
G1 X106.546 Y84.889 E0.01947
G1 X106.546 Y85.511 E0.01947
G1 X106.675 Y86.118 E0.01947
G1 X106.927 Y86.685 E0.01947
G1 X107.292 Y87.188 E0.01947
G1 X107.754 Y87.603 E0.01947
G1 X108.292 Y87.914 E0.01947
G1 X108.882 Y88.106 E0.01948
G1 X109.5 Y88.171 E0.01947
G1 X110.118 Y88.106 E0.01947
G1 X110.708 Y87.914 E0.01948
G1 X111.246 Y87.603 E0.01947
G1 X111.708 Y87.188 E0.01947
G1 X112.073 Y86.685 E0.01947
G1 X112.325 Y86.118 E0.01947
G1 X112.442 Y85.569 E0.01759
M204 P1500
G1 X112.257 Y85.53 F10800
M204 P1000
G1 X112.073 Y85.491
G1 F1200
G1 X112.077 Y85.471 E0.00064
G1 X112.077 Y84.929 E0.01699
G1 X111.965 Y84.399 E0.01698
G1 X111.744 Y83.904 E0.01699
G1 X111.426 Y83.466 E0.01698
G1 X111.023 Y83.104 E0.01699
G1 X110.554 Y82.833 E0.01699
G1 X110.039 Y82.665 E0.01699
G1 X109.5 Y82.609 E0.01698
G1 X108.961 Y82.665 E0.01698
G1 X108.446 Y82.833 E0.01699
G1 X107.977 Y83.104 E0.01699
G1 X107.574 Y83.466 E0.01699
G1 X107.256 Y83.904 E0.01698
G1 X107.035 Y84.399 E0.01699
G1 X106.923 Y84.929 E0.01698
G1 X106.923 Y85.471 E0.01699
G1 X107.035 Y86.001 E0.01698
G1 X107.256 Y86.496 E0.01699
G1 X107.574 Y86.934 E0.01698
G1 X107.977 Y87.296 E0.01699
G1 X108.446 Y87.567 E0.01699
G1 X108.961 Y87.735 E0.01699
G1 X109.5 Y87.791 E0.01698
G1 X110.039 Y87.735 E0.01698
G1 X110.554 Y87.567 E0.01699
G1 X111.023 Y87.296 E0.01699
G1 X111.426 Y86.934 E0.01699
G1 X111.744 Y86.496 E0.01698
G1 X111.965 Y86.001 E0.01699
G1 X112.06 Y85.55 E0.01446
M204 P1500
G1 X111.876 Y85.51 F10800
M204 P1000
G1 X111.692 Y85.471
;TYPE:External perimeter
G1 F1200
G1 X111.7 Y85.431 E0.00128
G1 X111.7 Y84.969 E0.0145
G1 X111.604 Y84.516 E0.0145
G1 X111.416 Y84.094 E0.0145
G1 X111.144 Y83.72 E0.0145
G1 X110.8 Y83.41 E0.0145
G1 X110.4 Y83.179 E0.0145
G1 X109.96 Y83.036 E0.0145
G1 X109.5 Y82.988 E0.0145
G1 X109.04 Y83.036 E0.0145
G1 X108.6 Y83.179 E0.0145
G1 X108.2 Y83.41 E0.0145
G1 X107.856 Y83.72 E0.0145
