; generated by SuperSlicer 2.3.57 on 2022-03-16 at 09:19:33 UTC

; 

; external perimeters extrusion width = 0.45mm
; perimeters extrusion width = 0.45mm
; infill extrusion width = 0.45mm
; solid infill extrusion width = 0.45mm
; top infill extrusion width = 0.40mm
; first layer extrusion width = 0.42mm

; object:{"name":"Black - P","id":"Black - P.I.N.D.A. Probe Suporte.stl id:0 copy 0","object_center":[125.000000,105.000000,0.000000],"boundingbox_center":[125.000000,105.000000,16.505844],"boundingbox_size":[16.000000,24.000001,33.011688]}
; Total objects to print: 1
M486 T1
; plater:{"center":[125.000000,105.000000,0.000000],"boundingbox_center":[125.000000,105.000000,16.505844],"boundingbox_size":[16.000000,24.000001,33.011688]}

M73 P0 R61
M73 Q0 S61
;TYPE:Custom
M862.3 P "MK3S" ; printer model check
M862.1 P0.4 ; nozzle diameter check
M115 U3.10.0 ; tell printer latest fw version
G90 ; use absolute coordinates
M83 ; extruder relative mode
M104 S255 ; set extruder temp
M140 S100 ; set bed temp
M190 S100 ; wait for bed temp
M109 S255 ; wait for extruder temp
G28 W ; home all without mesh bed level
G80 ; mesh bed leveling
G1 Y-3.0 F1000.0 ; go outside print area
G92 E0.0
G1 X60.0 E9.0 F1000.0 ; intro line
G1 X100.0 E12.5 F1000.0 ; intro line
G92 E0.0
M221 S95

; Don't change E values below. Excessive value can damage the printer.
M907 E430 ; set extruder motor current
M107
G21 ; set units to millimeters
G90 ; use absolute coordinates
M83 ; use relative distances for extrusion
M900 K0.04 ; Filament gcode LA 1.5
M900 K20 ; Filament gcode LA 1.0
;LAYER_CHANGE
;Z:0.2
;HEIGHT:0.2
;BEFORE_LAYER_CHANGE
G92 E0.0
;0.2


G1 E-0.8 F2100
G1 Z0.4 F10800
;AFTER_LAYER_CHANGE
;0.2
G1 Z0.6
M204 P1500
G1 X110.514 Y87.609
G1 Z0.2
G1 E0.8 F2100
;TYPE:Skirt
;WIDTH:0.42
G1 F1200
G1 X111.561 Y86.558 E0.0465
G1 X114.181 Y84.54 E0.10368
G1 X115.464 Y83.797 E0.0465
G1 X118.521 Y82.524 E0.10384
G1 X119.963 Y82.136 E0.04681
G1 X123.271 Y81.701 E0.10461
G1 X124.754 Y81.701 E0.04649
G1 X125.928 Y81.855 E0.03713
G1 X128.003 Y82.129 E0.06562
G1 X129.426 Y82.509 E0.04618
G1 X132.479 Y83.767 E0.10353
G1 X133.764 Y84.506 E0.0465
G1 X136.391 Y86.514 E0.10368
G1 X137.442 Y87.561 E0.0465
G1 X139.46 Y90.181 E0.10368
G1 X140.203 Y91.464 E0.0465
G1 X141.474 Y94.517 E0.10368
G1 X141.86 Y95.948 E0.0465
G1 X142.149 Y98.11 E0.06838
G1 X144.123 Y101.052 E0.11109
G1 X144.656 Y106.784 E0.18049
G1 X142.308 Y112.252 E0.1866
G1 X137.806 Y115.808 E0.17989
G1 X133.987 Y116.471 E0.12153
G1 X133.033 Y116.555 E0.03003
G1 X131.349 Y116.559 E0.05279
G1 X130.019 Y116.405 E0.04197
G1 X129.866 Y116.368 E0.00494
G1 X126.878 Y116.349 E0.09367
G1 X126.311 Y116.402 E0.01785
G1 X125.784 Y116.427 E0.01656
G1 X123.89 Y116.428 E0.05937
G1 X123.641 Y116.422 E0.00783
G1 X122.264 Y116.362 E0.0432
G1 X117.871 Y116.355 E0.13776
G1 X115.341 Y115.762 E0.08148
G1 X112.932 Y114.572 E0.08423
G1 X110.924 Y112.923 E0.08147
G1 X108.532 Y109.806 E0.12318
G1 X107.795 Y108.532 E0.04618
G1 X106.526 Y105.483 E0.10353
G1 X106.14 Y104.052 E0.0465
G1 X105.702 Y100.774 E0.10368
G1 X105.7 Y99.291 E0.0465
G1 X106.125 Y96.012 E0.10368
G1 X106.507 Y94.579 E0.0465
G1 X107.767 Y91.521 E0.10368
G1 X108.506 Y90.236 E0.0465
G1 X110.478 Y87.656 E0.1018
G1 X110.628 Y87.771 F10800
M204 P1000
G1 X110.777 Y87.885
G1 F1200
G1 X110.799 Y87.857 E0.00111
G1 X111.811 Y86.842 E0.04495
G1 X114.391 Y84.854 E0.10213
G1 X115.632 Y84.135 E0.04495
G1 X118.643 Y82.882 E0.10229
G1 X120.037 Y82.507 E0.04525
G1 X123.296 Y82.078 E0.10305
G1 X124.729 Y82.078 E0.04494
G1 X125.879 Y82.229 E0.03636
G1 X127.93 Y82.499 E0.06485
G1 X129.305 Y82.867 E0.04464
G1 X132.312 Y84.106 E0.10198
G1 X133.555 Y84.82 E0.04495
G1 X136.143 Y86.799 E0.10213
G1 X137.158 Y87.811 E0.04495
G1 X139.146 Y90.391 E0.10213
G1 X139.865 Y91.632 E0.04495
G1 X141.116 Y94.639 E0.10213
G1 X141.49 Y96.023 E0.04495
G1 X141.787 Y98.247 E0.07036
G1 X143.757 Y101.183 E0.11084
G1 X144.272 Y106.723 E0.17448
G1 X141.999 Y112.016 E0.18059
G1 X137.647 Y115.453 E0.17389
G1 X133.938 Y116.097 E0.11803
G1 X133.016 Y116.178 E0.02903
G1 X131.37 Y116.182 E0.05159
G1 X130.085 Y116.033 E0.04057
G1 X129.911 Y115.991 E0.00559
G1 X126.862 Y115.972 E0.09561
G1 X126.285 Y116.026 E0.01817
G1 X125.775 Y116.05 E0.01601
G1 X123.895 Y116.051 E0.05896
G1 X123.653 Y116.045 E0.00757
G1 X122.273 Y115.985 E0.04332
G1 X117.914 Y115.978 E0.13665
G1 X115.469 Y115.405 E0.07876
G1 X113.138 Y114.254 E0.08151
G1 X111.197 Y112.659 E0.07876
G1 X108.846 Y109.596 E0.12105
G1 X108.134 Y108.364 E0.04464
G1 X106.884 Y105.361 E0.10198
G1 X106.51 Y103.977 E0.04495
G1 X106.079 Y100.748 E0.10213
G1 X106.077 Y99.315 E0.04495
G1 X106.496 Y96.085 E0.10213
G1 X106.865 Y94.699 E0.04495
G1 X108.106 Y91.688 E0.10213
G1 X108.82 Y90.445 E0.04495
G1 X110.741 Y87.933 E0.09915
M204 P1500
G1 X110.891 Y88.047 F10800
M204 P1000
G1 X111.041 Y88.162
G1 F1200
G1 X111.083 Y88.106 E0.00221
G1 X112.06 Y87.126 E0.0434
G1 X114.602 Y85.168 E0.10058
G1 X115.799 Y84.474 E0.0434
G1 X118.765 Y83.239 E0.10073
G1 X120.111 Y82.877 E0.04369
G1 X123.32 Y82.455 E0.1015
G1 X124.704 Y82.455 E0.0434
G1 X125.83 Y82.603 E0.03558
G1 X127.856 Y82.87 E0.06409
G1 X129.184 Y83.224 E0.0431
G1 X132.146 Y84.445 E0.10044
G1 X133.346 Y85.135 E0.0434
G1 X135.894 Y87.083 E0.10058
G1 X136.874 Y88.06 E0.0434
G1 X138.832 Y90.602 E0.10058
G1 X139.526 Y91.799 E0.0434
G1 X140.759 Y94.761 E0.10058
G1 X141.119 Y96.097 E0.0434
G1 X141.425 Y98.384 E0.07234
G1 X143.39 Y101.313 E0.11059
G1 X143.887 Y106.663 E0.16846
G1 X141.69 Y111.779 E0.17458
G1 X137.488 Y115.098 E0.16789
G1 X133.889 Y115.723 E0.11454
G1 X132.999 Y115.801 E0.02803
G1 X131.391 Y115.805 E0.05039
G1 X130.15 Y115.661 E0.03917
G1 X129.957 Y115.614 E0.00625
G1 X126.845 Y115.595 E0.09755
G1 X126.258 Y115.65 E0.01848
G1 X125.766 Y115.673 E0.01545
G1 X123.899 Y115.674 E0.05856
G1 X123.665 Y115.668 E0.00731
G1 X122.281 Y115.608 E0.04344
G1 X117.958 Y115.601 E0.13554
G1 X115.597 Y115.048 E0.07605
G1 X113.344 Y113.935 E0.0788
G1 X111.47 Y112.395 E0.07604
G1 X109.161 Y109.386 E0.11893
G1 X108.472 Y108.196 E0.0431
G1 X107.241 Y105.239 E0.10044
G1 X106.881 Y103.903 E0.0434
G1 X106.456 Y100.723 E0.10058
G1 X106.454 Y99.339 E0.0434
G1 X106.867 Y96.158 E0.10058
G1 X107.223 Y94.82 E0.0434
G1 X108.445 Y91.854 E0.10058
G1 X109.135 Y90.654 E0.0434
G1 X111.004 Y88.21 E0.09649
M204 P1500
G1 X111.154 Y88.324 F10800
M204 P1000
G1 X111.304 Y88.439
G1 F1200
G1 X111.368 Y88.355 E0.00332
G1 X112.31 Y87.409 E0.04185
G1 X114.812 Y85.482 E0.09903
G1 X115.967 Y84.813 E0.04185
G1 X118.887 Y83.597 E0.09918
G1 X120.185 Y83.248 E0.04213
G1 X123.345 Y82.832 E0.09994
G1 X124.68 Y82.832 E0.04185
G1 X125.78 Y82.977 E0.03481
G1 X127.782 Y83.241 E0.06332
G1 X129.063 Y83.582 E0.04156
G1 X131.979 Y84.784 E0.09889
G1 X133.136 Y85.45 E0.04185
G1 X135.645 Y87.368 E0.09903
G1 X136.591 Y88.31 E0.04185
G1 X138.518 Y90.812 E0.09903
G1 X139.187 Y91.967 E0.04185
G1 X140.401 Y94.883 E0.09903
G1 X140.749 Y96.172 E0.04185
G1 X141.063 Y98.521 E0.07433
G1 X143.023 Y101.443 E0.11034
G1 X143.503 Y106.602 E0.16244
G1 X141.382 Y111.542 E0.16858
G1 X137.33 Y114.743 E0.1619
G1 X133.84 Y115.348 E0.11104
G1 X132.982 Y115.424 E0.02703
G1 X131.413 Y115.428 E0.04919
G1 X130.216 Y115.289 E0.03777
G1 X130.002 Y115.238 E0.0069
G1 X126.829 Y115.218 E0.0995
G1 X126.232 Y115.274 E0.0188
G1 X125.757 Y115.296 E0.0149
G1 X123.903 Y115.296 E0.05815
G1 X123.678 Y115.292 E0.00705
G1 X122.29 Y115.231 E0.04356
G1 X118.002 Y115.224 E0.13444
G1 X115.725 Y114.691 E0.07333
G1 X113.55 Y113.616 E0.07608
G1 X111.742 Y112.132 E0.07333
G1 X109.475 Y109.176 E0.1168
G1 X108.811 Y108.029 E0.04156
M73 P0 R60
G1 X107.599 Y105.117 E0.09889
G1 X107.251 Y103.828 E0.04185
G1 X106.833 Y100.698 E0.09903
G1 X106.831 Y99.363 E0.04185
G1 X107.238 Y96.231 E0.09903
G1 X107.581 Y94.941 E0.04185
G1 X108.784 Y92.021 E0.09903
G1 X109.45 Y90.864 E0.04185
G1 X111.267 Y88.486 E0.09383
M204 P1500
G1 X111.417 Y88.601 F10800
M204 P1000
G1 X111.567 Y88.715
G1 F1200
G1 X111.652 Y88.603 E0.00443
G1 X112.56 Y87.693 E0.0403
G1 X115.023 Y85.796 E0.09748
G1 X116.135 Y85.151 E0.0403
G1 X119.009 Y83.955 E0.09762
G1 X120.259 Y83.619 E0.04057
G1 X123.37 Y83.209 E0.09839
G1 X124.655 Y83.209 E0.0403
G1 X125.731 Y83.351 E0.03403
G1 X127.709 Y83.611 E0.06255
G1 X128.942 Y83.94 E0.04002
G1 X131.813 Y85.124 E0.09735
G1 X132.927 Y85.764 E0.0403
G1 X135.397 Y87.652 E0.09748
G1 X136.307 Y88.56 E0.0403
G1 X138.204 Y91.023 E0.09748
G1 X138.849 Y92.135 E0.0403
G1 X140.044 Y95.005 E0.09748
G1 X140.378 Y96.246 E0.0403
G1 X140.7 Y98.658 E0.07631
G1 X142.657 Y101.574 E0.11009
G1 X143.119 Y106.541 E0.15643
G1 X141.073 Y111.306 E0.16257
G1 X137.171 Y114.388 E0.1559
G1 X133.792 Y114.974 E0.10754
G1 X132.965 Y115.046 E0.02603
G1 X131.434 Y115.05 E0.04799
G1 X130.282 Y114.917 E0.03637
G1 X130.048 Y114.861 E0.00755
G1 X126.812 Y114.84 E0.10144
G1 X126.205 Y114.897 E0.01911
G1 X125.748 Y114.919 E0.01435
G1 X123.907 Y114.919 E0.05774
G1 X123.69 Y114.915 E0.00679
G1 X122.298 Y114.853 E0.04368
G1 X118.046 Y114.847 E0.13333
G1 X115.853 Y114.333 E0.07061
G1 X113.756 Y113.297 E0.07336
G1 X112.015 Y111.868 E0.07061
G1 X109.789 Y108.966 E0.11467
G1 X109.15 Y107.861 E0.04002
G1 X107.956 Y104.995 E0.09735
G1 X107.622 Y103.754 E0.0403
G1 X107.21 Y100.672 E0.09748
G1 X107.208 Y99.387 E0.0403
G1 X107.608 Y96.304 E0.09748
G1 X107.939 Y95.062 E0.0403
G1 X109.124 Y92.187 E0.09748
G1 X109.764 Y91.073 E0.0403
G1 X111.53 Y88.763 E0.09118
M204 P1500
G1 X111.68 Y88.878 F10800
M204 P1000
G1 X111.83 Y88.992
G1 F1200
G1 X111.937 Y88.852 E0.00553
G1 X112.809 Y87.977 E0.03875
G1 X115.233 Y86.11 E0.09593
G1 X116.303 Y85.49 E0.03875
G1 X119.131 Y84.312 E0.09607
G1 X120.333 Y83.989 E0.03901
G1 X123.394 Y83.586 E0.09683
M73 Q1 S61
G1 X124.63 Y83.586 E0.03875
G1 X125.682 Y83.725 E0.03326
G1 X127.635 Y83.982 E0.06178
M73 P1 R60
G1 X128.821 Y84.298 E0.03848
G1 X131.646 Y85.463 E0.0958
G1 X132.717 Y86.079 E0.03875
G1 X135.148 Y87.937 E0.09593
G1 X136.023 Y88.809 E0.03875
G1 X137.89 Y91.233 E0.09593
G1 X138.51 Y92.303 E0.03875
G1 X139.686 Y95.127 E0.09593
G1 X140.008 Y96.32 E0.03875
G1 X140.34 Y98.807 E0.07865
G1 X140.372 Y98.846 E0.00159
G1 X142.29 Y101.704 E0.10794
G1 X142.734 Y106.481 E0.15041
G1 X140.764 Y111.069 E0.15657
G1 X137.012 Y114.033 E0.1499
G1 X133.743 Y114.6 E0.10404
G1 X132.948 Y114.669 E0.02503
G1 X131.455 Y114.673 E0.04679
G1 X130.347 Y114.545 E0.03498
G1 X130.093 Y114.484 E0.0082
G1 X126.796 Y114.463 E0.10338
G1 X126.179 Y114.521 E0.01943
G1 X125.739 Y114.542 E0.0138
G1 X123.911 Y114.542 E0.05734
G1 X123.703 Y114.538 E0.00653
G1 X122.307 Y114.476 E0.0438
G1 X118.09 Y114.47 E0.13222
G1 X115.982 Y113.976 E0.0679
G1 X113.961 Y112.978 E0.07065
G1 X112.288 Y111.604 E0.0679
G1 X110.103 Y108.756 E0.11254
M73 Q1 S60
G1 X109.488 Y107.694 E0.03848
G1 X108.314 Y104.873 E0.0958
G1 X107.992 Y103.68 E0.03875
G1 X107.587 Y100.647 E0.09593
G1 X107.585 Y99.411 E0.03875
G1 X107.979 Y96.377 E0.09593
G1 X108.297 Y95.183 E0.03875
G1 X109.463 Y92.354 E0.09593
G1 X110.079 Y91.283 E0.03875
G1 X111.793 Y89.04 E0.08852
M204 P1500
G1 X111.943 Y89.154 F10800
M204 P1000
G1 X112.093 Y89.269
G1 F1200
G1 X112.222 Y89.101 E0.00664
G1 X113.059 Y88.26 E0.0372
G1 X115.444 Y86.423 E0.09438
G1 X116.47 Y85.828 E0.0372
G1 X119.253 Y84.67 E0.09451
G1 X120.406 Y84.36 E0.03745
G1 X123.419 Y83.963 E0.09528
G1 X124.606 Y83.963 E0.0372
G1 X125.633 Y84.099 E0.03248
G1 X127.562 Y84.352 E0.06101
G1 X128.7 Y84.656 E0.03694
G1 X131.48 Y85.802 E0.09426
G1 X132.508 Y86.393 E0.0372
G1 X134.899 Y88.222 E0.09438
G1 X135.74 Y89.059 E0.0372
G1 X137.577 Y91.444 E0.09438
G1 X138.171 Y92.47 E0.0372
G1 X139.328 Y95.249 E0.09438
G1 X139.637 Y96.395 E0.0372
G1 X139.98 Y98.964 E0.08126
G1 X140.069 Y99.072 E0.00439
G1 X141.924 Y101.835 E0.10434
G1 X142.35 Y106.42 E0.14439
G1 X140.455 Y110.833 E0.15056
G1 X136.854 Y113.677 E0.14391
G1 X133.694 Y114.226 E0.10054
G1 X132.931 Y114.292 E0.02402
G1 X131.477 Y114.296 E0.04559
G1 X130.413 Y114.173 E0.03358
G1 X130.139 Y114.107 E0.00885
G1 X126.779 Y114.086 E0.10532
G1 X126.153 Y114.145 E0.01974
G1 X125.731 Y114.165 E0.01325
G1 X123.915 Y114.165 E0.05693
G1 X123.715 Y114.161 E0.00627
G1 X122.316 Y114.099 E0.04392
G1 X118.134 Y114.093 E0.13112
G1 X116.11 Y113.619 E0.06518
G1 X114.167 Y112.659 E0.06793
G1 X112.561 Y111.34 E0.06518
G1 X110.417 Y108.546 E0.11042
G1 X109.827 Y107.526 E0.03694
G1 X108.672 Y104.751 E0.09426
G1 X108.363 Y103.605 E0.0372
G1 X107.964 Y100.622 E0.09438
G1 X107.962 Y99.435 E0.0372
G1 X108.35 Y96.45 E0.09438
G1 X108.655 Y95.304 E0.0372
G1 X109.802 Y92.52 E0.09438
G1 X110.393 Y91.492 E0.0372
G1 X112.057 Y89.316 E0.08586
M204 P1500
G1 X112.206 Y89.431 F10800
M204 P1000
G1 X112.356 Y89.545
G1 F1200
G1 X112.506 Y89.349 E0.00774
G1 X113.309 Y88.544 E0.03565
G1 X115.654 Y86.737 E0.09283
G1 X116.638 Y86.167 E0.03565
G1 X119.375 Y85.028 E0.09296
G1 X120.48 Y84.731 E0.03589
G1 X123.444 Y84.34 E0.09372
G1 X124.581 Y84.34 E0.03565
G1 X125.583 Y84.472 E0.03171
G1 X127.488 Y84.723 E0.06024
G1 X128.579 Y85.014 E0.03541
G1 X131.313 Y86.141 E0.09271
G1 X132.299 Y86.708 E0.03565
G1 X134.651 Y88.506 E0.09283
G1 X135.456 Y89.309 E0.03565
G1 X137.263 Y91.654 E0.09283
G1 X137.833 Y92.638 E0.03565
G1 X138.971 Y95.371 E0.09284
G1 X139.267 Y96.469 E0.03565
G1 X139.621 Y99.121 E0.08388
G1 X139.767 Y99.297 E0.00718
G1 X141.557 Y101.965 E0.10074
G1 X141.966 Y106.36 E0.13838
G1 X140.147 Y110.596 E0.14455
G1 X136.695 Y113.322 E0.13791
G1 X133.645 Y113.851 E0.09704
G1 X132.914 Y113.915 E0.02302
G1 X131.498 Y113.919 E0.04439
G1 X130.479 Y113.801 E0.03218
G1 X130.184 Y113.73 E0.0095
G1 X126.763 Y113.709 E0.10726
G1 X126.126 Y113.769 E0.02006
G1 X125.722 Y113.788 E0.01269
G1 X123.919 Y113.788 E0.05652
G1 X123.727 Y113.784 E0.00601
G1 X122.324 Y113.722 E0.04404
G1 X118.178 Y113.716 E0.13001
G1 X116.238 Y113.262 E0.06247
G1 X114.373 Y112.34 E0.06522
G1 X112.834 Y111.076 E0.06246
G1 X110.731 Y108.336 E0.10829
G1 X110.166 Y107.358 E0.0354
G1 X109.029 Y104.629 E0.09271
G1 X108.733 Y103.531 E0.03565
G1 X108.341 Y100.596 E0.09283
G1 X108.339 Y99.459 E0.03565
G1 X108.721 Y96.523 E0.09283
G1 X109.013 Y95.424 E0.03565
G1 X110.141 Y92.687 E0.09283
G1 X110.708 Y91.701 E0.03565
G1 X112.32 Y89.593 E0.08321
M204 P1500
G1 X112.469 Y89.708 F10800
M204 P1000
G1 X112.619 Y89.822
G1 F1200
G1 X112.791 Y89.598 E0.00885
G1 X113.558 Y88.828 E0.0341
G1 X115.865 Y87.051 E0.09128
G1 X116.806 Y86.506 E0.0341
G1 X119.497 Y85.385 E0.0914
G1 X120.554 Y85.101 E0.03433
G1 X123.469 Y84.717 E0.09217
G1 X124.556 Y84.717 E0.0341
G1 X125.534 Y84.846 E0.03093
G1 X127.415 Y85.094 E0.05947
G1 X128.458 Y85.372 E0.03387
G1 X131.147 Y86.48 E0.09117
G1 X132.089 Y87.022 E0.0341
G1 X134.402 Y88.791 E0.09128
G1 X135.172 Y89.558 E0.0341
G1 X136.949 Y91.865 E0.09128
G1 X137.494 Y92.806 E0.0341
G1 X138.613 Y95.494 E0.09129
G1 X138.896 Y96.543 E0.0341
G1 X139.247 Y99.169 E0.08307
G1 X139.253 Y99.268 E0.0031
G1 X139.464 Y99.523 E0.01037
G1 X141.19 Y102.096 E0.09714
G1 X141.581 Y106.299 E0.13236
G1 X139.838 Y110.359 E0.13855
G1 X136.536 Y112.967 E0.13192
G1 X133.597 Y113.477 E0.09354
G1 X132.897 Y113.538 E0.02202
G1 X131.519 Y113.542 E0.04319
G1 X130.544 Y113.429 E0.03078
G1 X130.229 Y113.354 E0.01015
G1 X126.747 Y113.332 E0.10921
G1 X126.1 Y113.392 E0.02038
G1 X125.713 Y113.411 E0.01214
G1 X123.923 Y113.411 E0.05612
G1 X123.74 Y113.407 E0.00574
G1 X122.333 Y113.345 E0.04416
G1 X118.222 Y113.339 E0.1289
G1 X116.366 Y112.904 E0.05975
G1 X114.579 Y112.021 E0.0625
G1 X113.106 Y110.812 E0.05975
G1 X111.045 Y108.126 E0.10616
G1 X110.504 Y107.191 E0.03387
G1 X109.387 Y104.506 E0.09117
G1 X109.104 Y103.457 E0.0341
G1 X108.718 Y100.571 E0.09128
G1 X108.716 Y99.483 E0.0341
G1 X109.091 Y96.596 E0.09128
G1 X109.371 Y95.545 E0.0341
G1 X110.48 Y92.853 E0.09128
G1 X111.022 Y91.911 E0.0341
G1 X112.583 Y89.87 E0.08055
M204 P1500
G1 X112.733 Y89.984 F10800
M204 P1000
G1 X112.882 Y90.099
G1 F1200
G1 X113.075 Y89.847 E0.00996
G1 X113.808 Y89.111 E0.03255
G1 X116.075 Y87.365 E0.08973
G1 X116.973 Y86.844 E0.03255
G1 X119.619 Y85.743 E0.08985
G1 X120.628 Y85.472 E0.03277
G1 X123.493 Y85.095 E0.09061
G1 X124.531 Y85.095 E0.03255
G1 X125.485 Y85.22 E0.03016
