; generated by SuperSlicer 2.3.57 on 2022-03-16 at 09:08:07 UTC

; 

; external perimeters extrusion width = 0.45mm
; perimeters extrusion width = 0.45mm
; infill extrusion width = 0.45mm
; solid infill extrusion width = 0.45mm
; top infill extrusion width = 0.40mm
; first layer extrusion width = 0.42mm

; object:{"name":"Black - Extruder Idler","id":"Black - Extruder Idler.stl id:0 copy 0","object_center":[125.000000,105.000000,0.000000],"boundingbox_center":[125.000000,105.000000,8.250000],"boundingbox_size":[32.199997,24.900002,16.500000]}
; Total objects to print: 1
M486 T1
; plater:{"center":[125.000000,105.000000,0.000000],"boundingbox_center":[125.000000,105.000000,8.250000],"boundingbox_size":[32.199997,24.900002,16.500000]}

M73 P0 R42
M73 Q0 S42
;TYPE:Custom
M862.3 P "MK3S" ; printer model check
M862.1 P0.4 ; nozzle diameter check
M115 U3.10.0 ; tell printer latest fw version
G90 ; use absolute coordinates
M83 ; extruder relative mode
M104 S255 ; set extruder temp
M140 S100 ; set bed temp
M190 S100 ; wait for bed temp
M109 S255 ; wait for extruder temp
G28 W ; home all without mesh bed level
G80 ; mesh bed leveling
G1 Y-3.0 F1000.0 ; go outside print area
G92 E0.0
G1 X60.0 E9.0 F1000.0 ; intro line
G1 X100.0 E12.5 F1000.0 ; intro line
G92 E0.0
M221 S95

; Don't change E values below. Excessive value can damage the printer.
M907 E430 ; set extruder motor current
M107
G21 ; set units to millimeters
G90 ; use absolute coordinates
M83 ; use relative distances for extrusion
M900 K0.04 ; Filament gcode LA 1.5
M900 K20 ; Filament gcode LA 1.0
;LAYER_CHANGE
;Z:0.2
;HEIGHT:0.2
;BEFORE_LAYER_CHANGE
G92 E0.0
;0.2


G1 E-0.8 F2100
G1 Z0.4 F10800
;AFTER_LAYER_CHANGE
;0.2
G1 Z0.6
M204 P1500
G1 X99.321 Y87.164
M73 P0 R41
G1 Z0.2
G1 E0.8 F2100
;TYPE:Skirt
;WIDTH:0.42
G1 F1200
G1 X102.614 Y83.871 E0.146
G1 X106.772 Y82.149 E0.14111
G1 X139.22 Y82.149 E1.01739
G1 X143.378 Y83.871 E0.14111
G1 X146.67 Y87.164 E0.146
G1 X148.393 Y91.322 E0.1411
G1 X148.393 Y94.789 E0.10871
G1 X148.751 Y95.546 E0.02627
G1 X149.301 Y97.997 E0.07878
G1 X149.295 Y116.732 E0.5874
G1 X147.572 Y120.888 E0.14108
G1 X144.28 Y124.179 E0.14597
G1 X140.123 Y125.901 E0.14107
G1 X139.214 Y125.901 E0.0285
G1 X138.486 Y126.629 E0.03227
G1 X134.328 Y128.351 E0.14111
G1 X115.125 Y128.351 E0.6021
G1 X112.769 Y127.843 E0.07559
G1 X110.498 Y126.816 E0.07814
G1 X108.56 Y125.383 E0.07559
G1 X104.973 Y121.306 E0.17026
G1 X102.614 Y120.329 E0.08006
G1 X99.321 Y117.036 E0.146
G1 X97.599 Y112.878 E0.14111
G1 X97.599 Y91.322 E0.67589
G1 X99.298 Y87.219 E0.13922
G1 X99.47 Y87.298 F10800
M204 P1000
G1 X99.641 Y87.378
G1 F1200
G1 X102.828 Y84.191 E0.1413
G1 X106.847 Y82.526 E0.1364
G1 X139.145 Y82.526 E1.01269
G1 X143.164 Y84.191 E0.1364
G1 X146.351 Y87.378 E0.1413
G1 X148.015 Y91.397 E0.1364
G1 X148.015 Y94.873 E0.10901
G1 X148.392 Y95.669 E0.02761
G1 X148.924 Y98.039 E0.07615
G1 X148.918 Y116.656 E0.58373
G1 X147.253 Y120.674 E0.13637
G1 X144.066 Y123.86 E0.14127
G1 X140.048 Y125.524 E0.13637
G1 X139.058 Y125.524 E0.03104
G1 X138.272 Y126.309 E0.03482
G1 X134.253 Y127.974 E0.1364
G1 X115.165 Y127.974 E0.59849
G1 X112.887 Y127.483 E0.07307
G1 X110.69 Y126.489 E0.07562
G1 X108.816 Y125.103 E0.07307
G1 X105.198 Y120.991 E0.17174
G1 X102.828 Y120.009 E0.08045
G1 X99.641 Y116.822 E0.1413
G1 X97.976 Y112.803 E0.1364
G1 X97.976 Y91.397 E0.67119
G1 X99.618 Y87.433 E0.13452
M204 P1500
G1 X99.789 Y87.512 F10800
M204 P1000
G1 X99.961 Y87.591
G1 F1200
G1 X103.041 Y84.511 E0.1366
G1 X106.922 Y82.903 E0.1317
G1 X139.07 Y82.903 E1.00798
M73 P1 R41
M73 Q1 S42
G1 X142.95 Y84.511 E0.1317
G1 X146.031 Y87.591 E0.1366
G1 X147.638 Y91.472 E0.1317
G1 X147.638 Y94.958 E0.10932
G1 X148.033 Y95.793 E0.02895
G1 X148.547 Y98.081 E0.07353
G1 X148.541 Y116.581 E0.58007
G1 X146.933 Y120.461 E0.13167
G1 X143.853 Y123.54 E0.13657
G1 X139.973 Y125.147 E0.13167
G1 X138.901 Y125.147 E0.03359
G1 X138.059 Y125.989 E0.03736
M73 Q1 S41
G1 X134.178 Y127.597 E0.1317
G1 X115.206 Y127.597 E0.59487
G1 X113.006 Y127.123 E0.07055
G1 X110.882 Y126.162 E0.0731
G1 X109.073 Y124.824 E0.07055
G1 X105.423 Y120.676 E0.17323
G1 X103.041 Y119.689 E0.08085
G1 X99.961 Y116.609 E0.1366
G1 X98.353 Y112.728 E0.1317
G1 X98.353 Y91.472 E0.66648
G1 X99.938 Y87.647 E0.12982
M204 P1500
G1 X100.109 Y87.726 F10800
M204 P1000
G1 X100.28 Y87.805
G1 F1200
G1 X103.255 Y84.83 E0.13189
G1 X106.997 Y83.28 E0.12699
G1 X138.995 Y83.28 E1.00328
G1 X142.737 Y84.83 E0.127
G1 X145.711 Y87.805 E0.13189
G1 X147.261 Y91.547 E0.12699
G1 X147.261 Y95.043 E0.10962
G1 X147.675 Y95.916 E0.0303
G1 X148.17 Y98.123 E0.0709
G1 X148.164 Y116.506 E0.5764
G1 X146.613 Y120.247 E0.12697
G1 X143.639 Y123.22 E0.13186
G1 X139.898 Y124.77 E0.12697
G1 X138.745 Y124.77 E0.03614
G1 X137.845 Y125.67 E0.03991
G1 X134.103 Y127.22 E0.12699
G1 X115.246 Y127.22 E0.59126
G1 X113.125 Y126.763 E0.06803
G1 X111.074 Y125.835 E0.07058
G1 X109.329 Y124.545 E0.06803
G1 X105.649 Y120.361 E0.17472
G1 X103.255 Y119.37 E0.08124
G1 X100.28 Y116.395 E0.13189
G1 X98.73 Y112.653 E0.127
G1 X98.73 Y91.547 E0.66178
G1 X100.257 Y87.86 E0.12511
M204 P1500
G1 X100.429 Y87.939 F10800
M204 P1000
G1 X100.6 Y88.018
G1 F1200
G1 X103.468 Y85.15 E0.12719
G1 X107.072 Y83.657 E0.12229
G1 X138.92 Y83.657 E0.99858
G1 X142.523 Y85.15 E0.12229
G1 X145.392 Y88.018 E0.12719
G1 X146.884 Y91.622 E0.12229
G1 X146.884 Y95.128 E0.10993
G1 X147.316 Y96.04 E0.03164
G1 X147.793 Y98.164 E0.06828
G1 X147.787 Y116.431 E0.57274
G1 X146.294 Y120.033 E0.12227
G1 X143.426 Y122.901 E0.12716
G1 X139.823 Y124.393 E0.12226
G1 X138.589 Y124.393 E0.03868
G1 X137.632 Y125.35 E0.04245
G1 X134.028 Y126.843 E0.12229
G1 X115.286 Y126.843 E0.58765
G1 X113.244 Y126.402 E0.06551
G1 X111.266 Y125.508 E0.06806
G1 X109.586 Y124.266 E0.06551
G1 X105.874 Y120.046 E0.1762
G1 X103.468 Y119.05 E0.08164
G1 X100.6 Y116.182 E0.12719
G1 X99.107 Y112.578 E0.12229
G1 X99.107 Y91.622 E0.65708
G1 X100.577 Y88.074 E0.12041
M204 P1500
G1 X100.748 Y88.153 F10800
M204 P1000
G1 X100.92 Y88.232
G1 F1200
G1 X103.682 Y85.47 E0.12248
G1 X107.147 Y84.034 E0.11759
G1 X138.845 Y84.034 E0.99387
M73 P2 R41
M73 Q2 S41
G1 X142.31 Y85.47 E0.11759
G1 X145.072 Y88.232 E0.12248
G1 X146.507 Y91.697 E0.11759
G1 X146.507 Y95.212 E0.11023
G1 X146.957 Y96.163 E0.03299
G1 X147.416 Y98.206 E0.06565
G1 X147.41 Y116.356 E0.56907
G1 X145.974 Y119.82 E0.11756
G1 X143.212 Y122.581 E0.12246
G1 X139.748 Y124.016 E0.11756
G1 X138.433 Y124.016 E0.04123
G1 X137.418 Y125.03 E0.045
G1 X133.953 Y126.466 E0.11759
G1 X115.326 Y126.466 E0.58404
G1 X113.362 Y126.042 E0.06299
G1 X111.458 Y125.181 E0.06554
G1 X109.843 Y123.986 E0.06299
G1 X106.099 Y119.732 E0.17769
G1 X103.682 Y118.73 E0.08203
G1 X100.92 Y115.968 E0.12248
G1 X99.484 Y112.503 E0.11759
G1 X99.484 Y91.697 E0.65237
G1 X100.897 Y88.287 E0.11571
M204 P1500
G1 X101.068 Y88.366 F10800
M204 P1000
G1 X101.239 Y88.446
G1 F1200
G1 X103.896 Y85.789 E0.11778
G1 X107.222 Y84.412 E0.11288
G1 X138.77 Y84.412 E0.98917
G1 X142.096 Y85.789 E0.11288
G1 X144.752 Y88.446 E0.11778
G1 X146.13 Y91.772 E0.11288
G1 X146.13 Y95.297 E0.11054
G1 X146.598 Y96.287 E0.03433
G1 X147.039 Y98.248 E0.06302
G1 X147.033 Y116.281 E0.56541
G1 X145.655 Y119.606 E0.11286
G1 X142.998 Y122.261 E0.11776
G1 X139.673 Y123.638 E0.11286
G1 X138.277 Y123.638 E0.04377
G1 X137.204 Y124.711 E0.04754
G1 X133.878 Y126.088 E0.11288
G1 X115.366 Y126.088 E0.58043
G1 X113.481 Y125.682 E0.06047
G1 X111.65 Y124.854 E0.06302
G1 X110.099 Y123.707 E0.06047
G1 X106.324 Y119.417 E0.17918
G1 X103.896 Y118.411 E0.08243
G1 X101.239 Y115.754 E0.11778
G1 X99.862 Y112.428 E0.11288
G1 X99.862 Y91.772 E0.64767
G1 X101.216 Y88.501 E0.111
M204 P1500
G1 X101.388 Y88.58 F10800
M204 P1000
G1 X101.559 Y88.659
G1 F1200
G1 X104.109 Y86.109 E0.11308
G1 X107.297 Y84.789 E0.10818
G1 X138.695 Y84.789 E0.98446
G1 X141.882 Y86.109 E0.10818
G1 X144.433 Y88.659 E0.11308
M73 P2 R40
G1 X145.753 Y91.847 E0.10818
G1 X145.753 Y95.382 E0.11084
G1 X146.24 Y96.41 E0.03567
G1 X146.662 Y98.29 E0.0604
G1 X146.656 Y116.206 E0.56175
G1 X145.335 Y119.392 E0.10816
G1 X142.785 Y121.942 E0.11305
G1 X139.598 Y123.261 E0.10816
G1 X138.121 Y123.261 E0.04632
G1 X136.991 Y124.391 E0.05009
G1 X133.803 Y125.711 E0.10818
G1 X115.407 Y125.711 E0.57682
G1 X113.6 Y125.322 E0.05795
G1 X111.842 Y124.527 E0.0605
G1 X110.356 Y123.428 E0.05795
G1 X106.55 Y119.102 E0.18066
G1 X104.109 Y118.091 E0.08282
G1 X101.559 Y115.541 E0.11308
G1 X100.239 Y112.353 E0.10818
G1 X100.239 Y91.847 E0.64297
G1 X101.536 Y88.715 E0.1063
M204 P1500
G1 X101.707 Y88.794 F10800
M204 P1000
G1 X101.879 Y88.873
G1 F1200
G1 X104.323 Y86.429 E0.10837
G1 X107.372 Y85.166 E0.10348
G1 X138.62 Y85.166 E0.97976
G1 X141.669 Y86.429 E0.10348
G1 X144.113 Y88.873 E0.10837
G1 X145.376 Y91.922 E0.10348
G1 X145.376 Y95.467 E0.11115
G1 X145.881 Y96.534 E0.03702
M73 P3 R40
G1 X146.285 Y98.331 E0.05777
G1 X146.279 Y116.131 E0.55808
M73 Q3 S41
G1 X145.015 Y119.179 E0.10346
G1 X142.571 Y121.622 E0.10835
G1 X139.523 Y122.884 E0.10345
G1 X137.964 Y122.884 E0.04887
G1 X136.777 Y124.071 E0.05264
G1 X133.728 Y125.334 E0.10348
G1 X115.447 Y125.334 E0.5732
G1 X113.719 Y124.962 E0.05543
G1 X112.034 Y124.2 E0.05798
G1 X110.612 Y123.149 E0.05543
G1 X106.775 Y118.787 E0.18215
G1 X104.323 Y117.771 E0.08322
G1 X101.879 Y115.327 E0.10837
G1 X100.616 Y112.278 E0.10348
G1 X100.616 Y91.922 E0.63826
G1 X101.856 Y88.928 E0.1016
M204 P1500
G1 X102.027 Y89.007 F10800
M204 P1000
G1 X102.198 Y89.086
G1 F1200
G1 X104.536 Y86.748 E0.10367
G1 X107.447 Y85.543 E0.09877
G1 X138.545 Y85.543 E0.97506
G1 X141.455 Y86.748 E0.09877
G1 X143.793 Y89.086 E0.10367
G1 X144.999 Y91.997 E0.09877
G1 X144.999 Y95.551 E0.11145
G1 X145.522 Y96.657 E0.03836
G1 X145.908 Y98.373 E0.05515
G1 X145.902 Y116.056 E0.55442
G1 X144.696 Y118.965 E0.09875
G1 X142.358 Y121.302 E0.10365
G1 X139.448 Y122.507 E0.09875
G1 X137.808 Y122.507 E0.05141
G1 X136.564 Y123.752 E0.05518
G1 X133.653 Y124.957 E0.09877
G1 X115.487 Y124.957 E0.56959
G1 X113.837 Y124.602 E0.05291
G1 X112.226 Y123.873 E0.05546
G1 X110.869 Y122.869 E0.05291
G1 X107. Y118.472 E0.18364
G1 X104.536 Y117.452 E0.08361
G1 X102.198 Y115.114 E0.10367
G1 X100.993 Y112.203 E0.09877
G1 X100.993 Y91.997 E0.63356
G1 X102.175 Y89.142 E0.09689
M204 P1500
G1 X102.347 Y89.221 F10800
M204 P1000
G1 X102.518 Y89.3
G1 F1200
G1 X104.75 Y87.068 E0.09897
G1 X107.522 Y85.92 E0.09407
G1 X138.47 Y85.92 E0.97035
M73 Q3 S40
G1 X141.242 Y87.068 E0.09407
G1 X143.474 Y89.3 E0.09897
G1 X144.622 Y92.072 E0.09407
G1 X144.622 Y95.636 E0.11176
G1 X145.163 Y96.781 E0.0397
G1 X145.53 Y98.415 E0.05252
G1 X145.525 Y115.98 E0.55075
G1 X144.376 Y118.751 E0.09405
G1 X142.144 Y120.982 E0.09895
G1 X139.373 Y122.13 E0.09405
G1 X137.652 Y122.13 E0.05396
G1 X136.35 Y123.432 E0.05773
G1 X133.578 Y124.58 E0.09407
G1 X115.527 Y124.58 E0.56598
G1 X113.956 Y124.241 E0.05039
G1 X112.417 Y123.546 E0.05294
G1 X111.125 Y122.59 E0.05039
G1 X107.225 Y118.157 E0.18512
G1 X104.75 Y117.132 E0.08401
G1 X102.518 Y114.9 E0.09897
G1 X101.37 Y112.128 E0.09407
G1 X101.37 Y92.072 E0.62886
G1 X102.495 Y89.355 E0.09219
M204 P1500
G1 X102.666 Y89.434 F10800
M204 P1000
G1 X102.838 Y89.514
G1 F1200
G1 X104.964 Y87.388 E0.09426
G1 X107.597 Y86.297 E0.08937
G1 X138.395 Y86.297 E0.96565
G1 X141.028 Y87.388 E0.08937
G1 X143.154 Y89.514 E0.09426
G1 X144.245 Y92.147 E0.08937
G1 X144.245 Y95.721 E0.11206
G1 X144.805 Y96.904 E0.04105
G1 X145.153 Y98.457 E0.04989
G1 X145.148 Y115.905 E0.54709
G1 X144.056 Y118.538 E0.08935
G1 X141.931 Y120.663 E0.09424
G1 X139.298 Y121.753 E0.08935
G1 X137.496 Y121.753 E0.05651
G1 X136.136 Y123.112 E0.06027
G1 X133.503 Y124.203 E0.08937
G1 X115.567 Y124.203 E0.56237
M73 P4 R40
G1 X114.075 Y123.881 E0.04787
G1 X112.609 Y123.219 E0.05042
G1 X111.382 Y122.311 E0.04787
G1 X107.45 Y117.842 E0.18661
M73 Q4 S40
G1 X104.964 Y116.812 E0.0844
G1 X102.838 Y114.686 E0.09426
G1 X101.747 Y112.053 E0.08937
G1 X101.747 Y92.147 E0.62415
G1 X102.815 Y89.569 E0.08749
M204 P1500
G1 X102.986 Y89.648 F10800
M204 P1000
G1 X103.157 Y89.727
G1 F1200
G1 X105.177 Y87.707 E0.08956
G1 X107.672 Y86.674 E0.08466
G1 X138.32 Y86.674 E0.96095
G1 X140.814 Y87.707 E0.08466
G1 X142.834 Y89.727 E0.08956
G1 X143.868 Y92.222 E0.08466
G1 X143.868 Y95.806 E0.11237
G1 X144.446 Y97.028 E0.04239
G1 X144.776 Y98.498 E0.04727
G1 X144.771 Y115.83 E0.54342
G1 X143.737 Y118.324 E0.08465
G1 X141.717 Y120.343 E0.08954
G1 X139.223 Y121.376 E0.08464
G1 X137.34 Y121.376 E0.05905
G1 X135.923 Y122.793 E0.06282
G1 X133.428 Y123.826 E0.08466
G1 X115.607 Y123.826 E0.55876
G1 X114.193 Y123.521 E0.04535
G1 X112.801 Y122.892 E0.0479
G1 X111.638 Y122.032 E0.04535
G1 X107.674 Y117.526 E0.18817
G1 X105.177 Y116.493 E0.08473
G1 X103.157 Y114.473 E0.08956
G1 X102.124 Y111.978 E0.08466
G1 X102.124 Y92.222 E0.61945
G1 X103.134 Y89.783 E0.08278
M204 P1500
G1 X103.306 Y89.862 F10800
M204 P1000
G1 X103.477 Y89.941
G1 F1200
G1 X105.391 Y88.027 E0.08486
G1 X107.747 Y87.051 E0.07996
G1 X138.245 Y87.051 E0.95624
G1 X140.601 Y88.027 E0.07996
G1 X142.515 Y89.941 E0.08486
G1 X143.49 Y92.297 E0.07996
G1 X143.49 Y95.89 E0.11267
G1 X144.087 Y97.151 E0.04374
G1 X144.399 Y98.54 E0.04464
G1 X144.393 Y115.755 E0.53976
G1 X143.417 Y118.11 E0.07994
G1 X141.504 Y120.023 E0.08484
G1 X139.148 Y120.999 E0.07994
G1 X137.183 Y120.999 E0.0616
G1 X135.709 Y122.473 E0.06536
G1 X133.353 Y123.449 E0.07996
G1 X115.648 Y123.449 E0.55515
G1 X114.312 Y123.161 E0.04283
G1 X112.993 Y122.565 E0.04538
G1 X111.895 Y121.752 E0.04283
G1 X107.845 Y117.149 E0.19225
G1 X107.747 Y117.149 E0.00307
G1 X105.391 Y116.173 E0.07996
G1 X103.477 Y114.259 E0.08486
G1 X102.501 Y111.903 E0.07996
G1 X102.501 Y92.297 E0.61475
G1 X103.454 Y89.996 E0.07808
M204 P1500
G1 X103.625 Y90.075 F10800
M204 P1000
G1 X103.797 Y90.154
G1 F1200
G1 X105.604 Y88.347 E0.08015
G1 X107.822 Y87.428 E0.07526
G1 X138.17 Y87.428 E0.95154
G1 X140.387 Y88.347 E0.07526
G1 X142.195 Y90.154 E0.08015
G1 X143.113 Y92.372 E0.07526
G1 X143.113 Y95.98 E0.11312
G1 X143.728 Y97.275 E0.04495
G1 X144.022 Y98.582 E0.04202
G1 X144.016 Y115.68 E0.5361
G1 X143.098 Y117.897 E0.07524
G1 X141.29 Y119.704 E0.08014
G1 X139.073 Y120.622 E0.07524
G1 X137.027 Y120.622 E0.06414
G1 X135.496 Y122.153 E0.06791
G1 X133.278 Y123.072 E0.07526
G1 X115.688 Y123.072 E0.55154
G1 X114.431 Y122.801 E0.04031
G1 X113.185 Y122.238 E0.04286
G1 X112.152 Y121.473 E0.04031
G1 X108.015 Y116.772 E0.19634
G1 X107.822 Y116.772 E0.00607
G1 X105.604 Y115.853 E0.07526
G1 X103.797 Y114.046 E0.08015
G1 X102.878 Y111.828 E0.07526
G1 X102.878 Y92.372 E0.61004
G1 X103.774 Y90.21 E0.07337
M204 P1500
G1 X103.945 Y90.289 F10800
M204 P1000
G1 X104.116 Y90.368
G1 F1200
G1 X105.818 Y88.666 E0.07545
G1 X107.897 Y87.805 E0.07055
G1 X138.095 Y87.805 E0.94684
G1 X140.174 Y88.666 E0.07055
M73 P5 R40
G1 X141.875 Y90.368 E0.07545
G1 X142.736 Y92.447 E0.07055
G1 X142.736 Y96.109 E0.11484
G1 X142.796 Y96.186 E0.00304
G1 X143.37 Y97.398 E0.04205
G1 X143.645 Y98.624 E0.03939
G1 X143.639 Y115.605 E0.53243
M73 Q5 S40
G1 X142.778 Y117.683 E0.07054
G1 X141.076 Y119.384 E0.07543
G1 X138.998 Y120.245 E0.07054
G1 X136.871 Y120.245 E0.06669
G1 X135.282 Y121.834 E0.07045
M73 P5 R39
G1 X133.203 Y122.695 E0.07055
G1 X115.728 Y122.695 E0.54792
G1 X114.55 Y122.441 E0.03779
G1 X113.377 Y121.911 E0.04034
G1 X112.408 Y121.194 E0.03779
G1 X108.186 Y116.395 E0.20042
G1 X107.897 Y116.395 E0.00906
G1 X105.818 Y115.534 E0.07055
G1 X104.116 Y113.832 E0.07545
G1 X103.255 Y111.753 E0.07055
G1 X103.255 Y92.447 E0.60534
G1 X104.093 Y90.423 E0.06867
M204 P1500
G1 X104.265 Y90.502 F10800
M204 P1000
G1 X104.436 Y90.582
G1 F1200
G1 X106.032 Y88.986 E0.07075
G1 X107.972 Y88.182 E0.06585
G1 X138.02 Y88.182 E0.94213
G1 X139.96 Y88.986 E0.06585
G1 X141.556 Y90.582 E0.07075
G1 X142.359 Y92.522 E0.06585
G1 X142.359 Y96.239 E0.11656
G1 X142.473 Y96.385 E0.0058
G1 X143.011 Y97.521 E0.03942
G1 X143.268 Y98.665 E0.03676
G1 X143.262 Y115.53 E0.52877
G1 X142.458 Y117.469 E0.06584
G1 X140.863 Y119.064 E0.07073
G1 X138.923 Y119.868 E0.06583
G1 X136.685 Y119.868 E0.07017
G1 X136.664 Y119.918 E0.00172
G1 X135.068 Y121.514 E0.07075
G1 X133.128 Y122.318 E0.06585
G1 X115.768 Y122.318 E0.54431
