; generated by SuperSlicer 2.3.57 on 2022-03-16 at 09:20:40 UTC

; 

; external perimeters extrusion width = 0.45mm
; perimeters extrusion width = 0.45mm
; infill extrusion width = 0.45mm
; solid infill extrusion width = 0.45mm
; top infill extrusion width = 0.40mm
; support material extrusion width = 0.35mm
; first layer extrusion width = 0.42mm

; object:{"name":"Black - PSU Cover","id":"Black - PSU Cover.stl id:0 copy 0","object_center":[125.000000,105.000000,0.000000],"boundingbox_center":[125.000000,105.000000,35.523537],"boundingbox_size":[35.950253,119.000000,71.047073]}
; Total objects to print: 1
M486 T1
; plater:{"center":[125.000000,105.000000,0.000000],"boundingbox_center":[125.000000,105.000000,35.523537],"boundingbox_size":[35.950253,119.000000,71.047073]}

M73 P0 R323
M73 Q0 S328
;TYPE:Custom
M862.3 P "MK3S" ; printer model check
M862.1 P0.4 ; nozzle diameter check
M115 U3.10.0 ; tell printer latest fw version
G90 ; use absolute coordinates
M83 ; extruder relative mode
M104 S255 ; set extruder temp
M140 S100 ; set bed temp
M190 S100 ; wait for bed temp
M109 S255 ; wait for extruder temp
G28 W ; home all without mesh bed level
G80 ; mesh bed leveling
G1 Y-3.0 F1000.0 ; go outside print area
G92 E0.0
G1 X60.0 E9.0 F1000.0 ; intro line
G1 X100.0 E12.5 F1000.0 ; intro line
G92 E0.0
M221 S95

; Don't change E values below. Excessive value can damage the printer.
M907 E430 ; set extruder motor current
M107
G21 ; set units to millimeters
G90 ; use absolute coordinates
M83 ; use relative distances for extrusion
M900 K0.04 ; Filament gcode LA 1.5
M900 K20 ; Filament gcode LA 1.0
M107
;LAYER_CHANGE
;Z:0.2
;HEIGHT:0.2
;BEFORE_LAYER_CHANGE
G92 E0.0
;0.2


M73 P0 R322
G1 E-0.8 F2100
G1 Z0.4 F10800
;AFTER_LAYER_CHANGE
;0.2
G1 Z0.6
M204 P1500
G1 X98.488 Y41.856
G1 Z0.2
G1 E0.8 F2100
;TYPE:Skirt
;WIDTH:0.42
G1 F1200
G1 X101.781 Y38.563 E0.146
G1 X105.939 Y36.841 E0.14111
G1 X144.051 Y36.841 E1.19499
G1 X148.209 Y38.563 E0.14111
G1 X151.501 Y41.856 E0.146
G1 X153.224 Y46.014 E0.14111
G1 X153.224 Y48.64 E0.08234
G1 X153.224 Y97.313 E1.52612
G1 X153.513 Y97.506 E0.0109
G1 X155.252 Y99.246 E0.07712
G1 X156.49 Y101.098 E0.06987
G1 X157.371 Y103.226 E0.07222
G1 X157.806 Y105.412 E0.06987
G1 X157.806 Y123.868 E0.57869
G1 X157.806 Y142.762 E0.59239
G1 X156.084 Y146.92 E0.1411
G1 X153.224 Y149.78 E0.12682
G1 X153.224 Y158.495 E0.27325
G1 X152.956 Y160.218 E0.05468
G1 X152.41 Y161.936 E0.05652
G1 X151.634 Y163.498 E0.05468
G1 X146.197 Y171.186 E0.29524
G1 X144.15 Y172.969 E0.08512
G1 X141.658 Y174.259 E0.08799
G1 X139.02 Y174.901 E0.08511
G1 X110.934 Y174.901 E0.88062
G1 X108.296 Y174.259 E0.08511
G1 X105.804 Y172.969 E0.08799
G1 X103.757 Y171.186 E0.08512
G1 X98.357 Y163.549 E0.29327
G1 X97.58 Y161.987 E0.05468
G1 X97.034 Y160.269 E0.05652
G1 X96.767 Y158.546 E0.05468
G1 X96.766 Y46.014 E3.52836
G1 X98.465 Y41.912 E0.13922
G1 X98.637 Y41.991 F10800
M204 P1000
G1 X98.808 Y42.07
G1 F1200
G1 X101.995 Y38.883 E0.1413
G1 X106.014 Y37.218 E0.1364
G1 X143.976 Y37.218 E1.19028
G1 X147.995 Y38.883 E0.1364
G1 X151.182 Y42.07 E0.1413
G1 X152.847 Y46.089 E0.1364
G1 X152.847 Y48.64 E0.07999
G1 X152.847 Y97.515 E1.53244
G1 X153.272 Y97.799 E0.01605
G1 X154.959 Y99.486 E0.07479
G1 X156.156 Y101.277 E0.06754
G1 X157.009 Y103.336 E0.06989
G1 X157.429 Y105.449 E0.06754
G1 X157.429 Y123.906 E0.57869
G1 X157.429 Y142.687 E0.58888
G1 X155.764 Y146.706 E0.1364
G1 X152.847 Y149.624 E0.12937
G1 X152.847 Y158.466 E0.27723
G1 X152.588 Y160.132 E0.05286
G1 X152.06 Y161.794 E0.0547
G1 X151.309 Y163.304 E0.05286
G1 X145.915 Y170.931 E0.29291
G1 X143.936 Y172.655 E0.08228
G1 X141.524 Y173.903 E0.08516
G1 X138.975 Y174.524 E0.08228
G1 X110.979 Y174.524 E0.87778
G1 X108.43 Y173.903 E0.08228
G1 X106.018 Y172.655 E0.08516
G1 X104.039 Y170.931 E0.08228
G1 X98.681 Y163.355 E0.29094
G1 X97.93 Y161.845 E0.05286
G1 X97.402 Y160.183 E0.0547
G1 X97.144 Y158.517 E0.05286
G1 X97.143 Y46.089 E3.5251
G1 X98.785 Y42.125 E0.13452
M204 P1500
G1 X98.956 Y42.204 F10800
M204 P1000
G1 X99.128 Y42.283
G1 F1200
G1 X102.208 Y39.203 E0.1366
G1 X106.089 Y37.595 E0.1317
G1 X143.901 Y37.595 E1.18558
G1 X147.782 Y39.203 E0.1317
G1 X150.862 Y42.283 E0.1366
G1 X152.47 Y46.164 E0.1317
G1 X152.47 Y48.64 E0.07763
G1 X152.47 Y97.716 E1.53876
G1 X153.032 Y98.092 E0.02121
G1 X154.666 Y99.726 E0.07246
G1 X155.821 Y101.455 E0.06521
G1 X156.646 Y103.446 E0.06756
G1 X157.052 Y105.486 E0.06521
G1 X157.052 Y123.943 E0.57869
G1 X157.052 Y142.612 E0.58536
G1 X155.444 Y146.493 E0.1317
G1 X152.47 Y149.468 E0.13191
G1 X152.47 Y158.437 E0.28122
G1 X152.22 Y160.045 E0.05104
G1 X151.709 Y161.652 E0.05287
G1 X150.984 Y163.11 E0.05104
G1 X145.634 Y170.677 E0.29058
G1 X143.723 Y172.34 E0.07944
G1 X141.391 Y173.547 E0.08232
G1 X138.93 Y174.147 E0.07944
G1 X111.024 Y174.147 E0.87495
G1 X108.563 Y173.547 E0.07944
G1 X106.231 Y172.34 E0.08232
G1 X104.32 Y170.677 E0.07944
G1 X99.006 Y163.161 E0.28861
G1 X98.281 Y161.703 E0.05104
G1 X97.77 Y160.096 E0.05287
G1 X97.521 Y158.488 E0.05104
G1 X97.52 Y46.164 E3.52184
M73 Q0 S327
G1 X99.105 Y42.339 E0.12982
M204 P1500
G1 X99.276 Y42.418 F10800
M204 P1000
G1 X99.447 Y42.497
G1 F1200
G1 X102.422 Y39.522 E0.13189
G1 X106.164 Y37.972 E0.127
G1 X143.826 Y37.972 E1.18087
G1 X147.568 Y39.522 E0.127
G1 X150.542 Y42.497 E0.13189
G1 X152.092 Y46.239 E0.12699
G1 X152.092 Y48.64 E0.07528
G1 X152.092 Y97.918 E1.54507
M73 P0 R321
G1 X152.792 Y98.385 E0.02636
G1 X154.373 Y99.967 E0.07013
G1 X155.487 Y101.634 E0.06288
G1 X156.284 Y103.556 E0.06523
G1 X156.675 Y105.523 E0.06288
G1 X156.675 Y123.98 E0.57869
G1 X156.675 Y142.537 E0.58184
G1 X155.125 Y146.279 E0.12699
G1 X152.15 Y149.253 E0.13189
G1 X152.092 Y149.277 E0.00197
G1 X152.092 Y158.407 E0.28627
G1 X151.852 Y159.959 E0.04922
G1 X151.359 Y161.51 E0.05105
G1 X150.66 Y162.916 E0.04922
G1 X145.352 Y170.422 E0.28825
G1 X143.509 Y172.026 E0.0766
G1 X141.258 Y173.192 E0.07948
G1 X138.884 Y173.77 E0.0766
G1 X111.07 Y173.77 E0.87211
G1 X108.696 Y173.192 E0.0766
G1 X106.445 Y172.026 E0.07948
G1 X104.602 Y170.422 E0.0766
G1 X99.331 Y162.967 E0.28628
G1 X98.632 Y161.562 E0.04922
G1 X98.138 Y160.01 E0.05105
G1 X97.898 Y158.459 E0.04922
G1 X97.897 Y46.239 E3.51857
G1 X99.424 Y42.552 E0.12511
M204 P1500
G1 X99.596 Y42.631 F10800
M204 P1000
G1 X99.767 Y42.711
G1 F1200
G1 X102.635 Y39.842 E0.12719
G1 X106.239 Y38.35 E0.12229
G1 X143.751 Y38.35 E1.17617
G1 X147.354 Y39.842 E0.12229
G1 X150.223 Y42.711 E0.12719
G1 X151.715 Y46.314 E0.12229
G1 X151.715 Y48.64 E0.07293
G1 X151.715 Y98.119 E1.55139
G1 X152.551 Y98.678 E0.03152
G1 X154.08 Y100.207 E0.0678
G1 X155.153 Y101.813 E0.06055
G1 X155.921 Y103.666 E0.0629
G1 X156.298 Y105.56 E0.06055
G1 X156.296 Y124.009 E0.57845
G1 X156.298 Y142.462 E0.57858
G1 X154.805 Y146.065 E0.12229
G1 X151.937 Y148.934 E0.12719
G1 X151.715 Y149.025 E0.00751
G1 X151.715 Y158.378 E0.29326
G1 X151.484 Y159.872 E0.04739
G1 X151.008 Y161.368 E0.04923
G1 X150.335 Y162.722 E0.04739
G1 X145.07 Y170.167 E0.28592
G1 X143.296 Y171.712 E0.07377
G1 X141.125 Y172.836 E0.07665
G1 X138.839 Y173.393 E0.07377
G1 X111.115 Y173.393 E0.86927
G1 X108.829 Y172.836 E0.07377
G1 X106.658 Y171.712 E0.07665
G1 X104.884 Y170.167 E0.07377
G1 X99.655 Y162.773 E0.28395
G1 X98.982 Y161.42 E0.04739
G1 X98.507 Y159.923 E0.04923
G1 X98.275 Y158.43 E0.04739
G1 X98.274 Y46.314 E3.51531
G1 X99.744 Y42.766 E0.12041
M204 P1500
G1 X99.915 Y42.845 F10800
M204 P1000
G1 X100.087 Y42.924
G1 F1200
G1 X102.849 Y40.162 E0.12249
G1 X106.314 Y38.727 E0.11759
G1 X143.676 Y38.727 E1.17147
G1 X147.141 Y40.162 E0.11759
G1 X149.903 Y42.924 E0.12249
G1 X151.338 Y46.389 E0.11759
G1 X151.338 Y48.64 E0.07058
G1 X151.338 Y98.321 E1.55771
G1 X152.311 Y98.971 E0.03667
G1 X153.787 Y100.447 E0.06547
G1 X154.819 Y101.991 E0.05822
G1 X155.558 Y103.776 E0.06058
G1 X155.921 Y105.598 E0.05822
G1 X155.921 Y123.93 E0.57481
G1 X155.904 Y123.97 E0.00136
G1 X155.921 Y124.054 E0.00267
G1 X155.921 Y142.387 E0.57481
G1 X154.485 Y145.852 E0.11759
G1 X151.723 Y148.614 E0.12248
G1 X151.338 Y148.773 E0.01306
G1 X151.338 Y158.349 E0.30025
G1 X151.116 Y159.786 E0.04557
G1 X150.658 Y161.226 E0.0474
G1 X150.01 Y162.528 E0.04557
G1 X144.788 Y169.913 E0.28359
G1 X143.082 Y171.398 E0.07093
G1 X140.992 Y172.48 E0.07381
G1 X138.794 Y173.016 E0.07093
G1 X111.16 Y173.016 E0.86643
G1 X108.962 Y172.48 E0.07093
G1 X106.872 Y171.398 E0.07381
G1 X105.166 Y169.913 E0.07093
G1 X99.98 Y162.579 E0.28162
G1 X99.333 Y161.278 E0.04557
G1 X98.875 Y159.837 E0.0474
G1 X98.652 Y158.401 E0.04557
G1 X98.651 Y46.389 E3.51205
G1 X100.064 Y42.98 E0.11571
M204 P1500
G1 X100.235 Y43.059 F10800
M204 P1000
G1 X100.406 Y43.138
G1 F1200
G1 X103.063 Y40.481 E0.11778
G1 X106.389 Y39.104 E0.11288
G1 X143.601 Y39.104 E1.16676
G1 X146.927 Y40.481 E0.11288
G1 X149.583 Y43.138 E0.11778
G1 X150.961 Y46.464 E0.11288
M73 Q0 S326
G1 X150.961 Y48.64 E0.06823
G1 X150.961 Y98.523 E1.56403
G1 X152.07 Y99.264 E0.04183
G1 X153.494 Y100.688 E0.06315
G1 X154.485 Y102.17 E0.05589
G1 X155.196 Y103.886 E0.05825
G1 X155.544 Y105.635 E0.0559
G1 X155.544 Y123.855 E0.5713
G1 X155.512 Y123.932 E0.0026
G1 X155.544 Y124.091 E0.0051
G1 X155.544 Y142.312 E0.5713
G1 X154.166 Y145.638 E0.11288
G1 X151.51 Y148.294 E0.11778
G1 X150.961 Y148.522 E0.01861
G1 X150.961 Y158.32 E0.30723
G1 X150.747 Y159.699 E0.04375
G1 X150.307 Y161.085 E0.04558
G1 X149.686 Y162.334 E0.04375
G1 X144.507 Y169.658 E0.28126
G1 X142.869 Y171.084 E0.06809
G1 X140.859 Y172.125 E0.07097
G1 X138.749 Y172.638 E0.06809
G1 X111.205 Y172.638 E0.8636
M73 P0 R320
G1 X109.095 Y172.125 E0.06809
G1 X107.085 Y171.084 E0.07097
G1 X105.447 Y169.658 E0.06809
G1 X100.305 Y162.385 E0.27929
G1 X99.683 Y161.136 E0.04375
G1 X99.243 Y159.75 E0.04558
G1 X99.029 Y158.372 E0.04375
G1 X99.029 Y46.464 E3.50879
G1 X100.383 Y43.193 E0.111
M204 P1500
G1 X100.555 Y43.272 F10800
M204 P1000
G1 X100.726 Y43.351
G1 F1200
G1 X103.276 Y40.801 E0.11308
G1 X106.464 Y39.481 E0.10818
G1 X143.526 Y39.481 E1.16206
G1 X146.714 Y40.801 E0.10818
G1 X149.264 Y43.351 E0.11308
G1 X150.584 Y46.539 E0.10818
G1 X150.584 Y48.64 E0.06588
G1 X150.584 Y98.724 E1.57035
G1 X151.83 Y99.557 E0.04698
G1 X153.202 Y100.928 E0.06082
G1 X154.151 Y102.349 E0.05356
G1 X154.833 Y103.996 E0.05592
G1 X155.166 Y105.672 E0.05357
G1 X155.166 Y123.78 E0.56778
G1 X155.12 Y123.893 E0.00383
G1 X155.166 Y124.128 E0.00752
G1 X155.166 Y142.237 E0.56778
G1 X153.846 Y145.425 E0.10818
G1 X151.296 Y147.975 E0.11308
G1 X150.584 Y148.27 E0.02416
G1 X150.584 Y158.291 E0.31422
G1 X150.379 Y159.613 E0.04192
G1 X149.956 Y160.943 E0.04376
G1 X149.361 Y162.14 E0.04193
G1 X144.225 Y169.403 E0.27893
G1 X142.655 Y170.77 E0.06526
G1 X140.725 Y171.769 E0.06813
G1 X138.703 Y172.261 E0.06525
G1 X111.251 Y172.261 E0.86076
G1 X109.229 Y171.769 E0.06525
G1 X107.299 Y170.77 E0.06813
G1 X105.729 Y169.403 E0.06526
G1 X100.629 Y162.191 E0.27696
G1 X100.034 Y160.994 E0.04192
G1 X99.611 Y159.664 E0.04376
G1 X99.406 Y158.343 E0.04192
G1 X99.406 Y46.539 E3.50552
G1 X100.703 Y43.407 E0.1063
M204 P1500
G1 X100.874 Y43.486 F10800
M204 P1000
G1 X101.046 Y43.565
G1 F1200
G1 X103.49 Y41.121 E0.10837
G1 X106.539 Y39.858 E0.10348
G1 X143.451 Y39.858 E1.15736
G1 X146.5 Y41.121 E0.10348
G1 X148.944 Y43.565 E0.10837
G1 X150.207 Y46.614 E0.10348
G1 X150.207 Y48.64 E0.06352
G1 X150.207 Y98.932 E1.57686
G1 X150.231 Y98.942 E0.00081
G1 X151.59 Y99.849 E0.05124
G1 X152.909 Y101.168 E0.05849
G1 X153.816 Y102.527 E0.05124
G1 X154.471 Y104.106 E0.05359
G1 X154.789 Y105.709 E0.05124
G1 X154.789 Y123.705 E0.56426
G1 X154.728 Y123.855 E0.00507
G1 X154.789 Y124.166 E0.00994
G1 X154.789 Y142.162 E0.56426
G1 X153.526 Y145.211 E0.10348
G1 X151.082 Y147.655 E0.10837
G1 X150.207 Y148.018 E0.02971
G1 X150.207 Y158.262 E0.32121
G1 X150.011 Y159.526 E0.0401
G1 X149.606 Y160.801 E0.04194
G1 X149.036 Y161.946 E0.0401
G1 X143.943 Y169.149 E0.2766
G1 X142.442 Y170.456 E0.06242
G1 X140.592 Y171.413 E0.0653
G1 X138.658 Y171.884 E0.06242
G1 X111.296 Y171.884 E0.85792
G1 X109.362 Y171.413 E0.06242
G1 X107.512 Y170.456 E0.0653
G1 X106.011 Y169.149 E0.06242
G1 X100.954 Y161.997 E0.27463
G1 X100.384 Y160.852 E0.0401
G1 X99.979 Y159.577 E0.04194
G1 X99.783 Y158.313 E0.0401
G1 X99.783 Y46.614 E3.50226
G1 X101.023 Y43.62 E0.1016
M204 P1500
G1 X101.194 Y43.699 F10800
M204 P1000
G1 X101.365 Y43.779
G1 F1200
G1 X103.703 Y41.44 E0.10367
G1 X106.614 Y40.235 E0.09877
G1 X143.376 Y40.235 E1.15265
G1 X146.286 Y41.44 E0.09877
G1 X148.624 Y43.779 E0.10367
G1 X149.83 Y46.689 E0.09877
G1 X149.83 Y48.64 E0.06117
G1 X149.83 Y99.184 E1.58476
G1 X150.052 Y99.276 E0.00755
G1 X151.349 Y100.142 E0.04891
G1 X152.616 Y101.409 E0.05616
G1 X153.482 Y102.706 E0.04891
G1 X154.108 Y104.216 E0.05126
G1 X154.412 Y105.746 E0.04891
G1 X154.412 Y123.63 E0.56075
G1 X154.335 Y123.816 E0.0063
G1 X154.412 Y124.203 E0.01236
G1 X154.412 Y142.087 E0.56075
G1 X153.207 Y144.997 E0.09877
G1 X150.869 Y147.335 E0.10367
G1 X149.83 Y147.766 E0.03525
G1 X149.83 Y158.233 E0.3282
G1 X149.643 Y159.44 E0.03828
G1 X149.255 Y160.659 E0.04011
G1 X148.712 Y161.752 E0.03828
G1 X143.661 Y168.894 E0.27427
G1 X142.228 Y170.142 E0.05958
G1 X140.459 Y171.058 E0.06246
G1 X138.613 Y171.507 E0.05958
G1 X111.341 Y171.507 E0.85509
M73 Q0 S325
G1 X109.495 Y171.058 E0.05958
G1 X107.726 Y170.142 E0.06246
G1 X106.293 Y168.894 E0.05958
G1 X101.279 Y161.803 E0.2723
G1 X100.735 Y160.71 E0.03828
G1 X100.347 Y159.491 E0.04011
G1 X100.16 Y158.284 E0.03828
G1 X100.16 Y46.689 E3.499
G1 X101.342 Y43.834 E0.09689
M204 P1500
G1 X101.514 Y43.913 F10800
M204 P1000
G1 X101.685 Y43.992
G1 F1200
G1 X103.917 Y41.76 E0.09897
G1 X106.689 Y40.612 E0.09407
G1 X143.301 Y40.612 E1.14795
M73 P0 R319
G1 X146.073 Y41.76 E0.09407
G1 X148.305 Y43.992 E0.09897
G1 X149.453 Y46.764 E0.09407
G1 X149.453 Y48.64 E0.05882
G1 X149.453 Y99.436 E1.59266
G1 X149.874 Y99.61 E0.01428
G1 X151.109 Y100.435 E0.04658
G1 X152.323 Y101.649 E0.05383
G1 X153.148 Y102.884 E0.04658
G1 X153.745 Y104.326 E0.04893
G1 X154.035 Y105.783 E0.04658
G1 X154.035 Y123.555 E0.55723
G1 X153.943 Y123.777 E0.00754
G1 X154.035 Y124.24 E0.01478
G1 X154.035 Y142.012 E0.55723
G1 X152.887 Y144.784 E0.09407
G1 X150.655 Y147.016 E0.09897
G1 X149.453 Y147.514 E0.0408
M73 P1 R319
G1 X149.453 Y158.204 E0.33519
G1 X149.275 Y159.353 E0.03646
G1 X148.905 Y160.517 E0.03829
G1 X148.387 Y161.558 E0.03646
G1 X143.38 Y168.639 E0.27194
G1 X142.015 Y169.828 E0.05674
G1 X140.326 Y170.702 E0.05962
G1 X138.568 Y171.13 E0.05674
G1 X111.386 Y171.13 E0.85225
G1 X109.628 Y170.702 E0.05674
G1 X107.939 Y169.828 E0.05962
G1 X106.574 Y168.639 E0.05674
G1 X101.603 Y161.609 E0.26997
M73 Q1 S325
G1 X101.085 Y160.568 E0.03646
G1 X100.716 Y159.404 E0.03829
G1 X100.537 Y158.255 E0.03646
G1 X100.537 Y46.764 E3.49573
G1 X101.662 Y44.048 E0.09219
M204 P1500
G1 X101.833 Y44.127 F10800
M204 P1000
G1 X102.005 Y44.206
G1 F1200
G1 X104.131 Y42.08 E0.09426
G1 X106.764 Y40.989 E0.08937
G1 X143.226 Y40.989 E1.14325
G1 X145.859 Y42.08 E0.08937
G1 X147.985 Y44.206 E0.09426
G1 X149.076 Y46.839 E0.08937
G1 X149.076 Y48.64 E0.05647
G1 X149.076 Y99.688 E1.60056
G1 X149.695 Y99.944 E0.02102
G1 X150.869 Y100.728 E0.04425
G1 X152.03 Y101.89 E0.0515
G1 X152.814 Y103.063 E0.04425
G1 X153.383 Y104.436 E0.0466
G1 X153.658 Y105.82 E0.04425
G1 X153.658 Y123.48 E0.55371
G1 X153.551 Y123.739 E0.00877
G1 X153.658 Y124.277 E0.01721
G1 X153.658 Y141.937 E0.55371
G1 X152.567 Y144.57 E0.08937
G1 X150.442 Y146.696 E0.09426
G1 X149.076 Y147.262 E0.04635
G1 X149.076 Y158.175 E0.34218
G1 X148.907 Y159.266 E0.03463
G1 X148.554 Y160.375 E0.03647
G1 X148.062 Y161.364 E0.03463
G1 X143.098 Y168.385 E0.26961
G1 X141.801 Y169.514 E0.05391
G1 X140.193 Y170.346 E0.05678
G1 X138.522 Y170.753 E0.05391
G1 X111.432 Y170.753 E0.84941
G1 X109.761 Y170.346 E0.05391
G1 X108.153 Y169.514 E0.05678
G1 X106.856 Y168.385 E0.05391
G1 X101.928 Y161.415 E0.26764
G1 X101.436 Y160.426 E0.03463
G1 X101.084 Y159.318 E0.03647
G1 X100.914 Y158.226 E0.03463
G1 X100.914 Y46.839 E3.49247
G1 X101.982 Y44.261 E0.08749
M204 P1500
G1 X102.153 Y44.34 F10800
M204 P1000
G1 X102.324 Y44.419
G1 F1200
G1 X104.344 Y42.4 E0.08956
G1 X106.839 Y41.366 E0.08466
