; generated by SuperSlicer 2.3.57 on 2022-03-16 at 09:15:37 UTC

; 

; external perimeters extrusion width = 0.45mm
; perimeters extrusion width = 0.45mm
; infill extrusion width = 0.45mm
; solid infill extrusion width = 0.45mm
; top infill extrusion width = 0.40mm
; first layer extrusion width = 0.42mm

; object:{"name":"Black - MKS TS35 Bouton","id":"Black - MKS TS35 Bouton.stl id:0 copy 0","object_center":[125.000000,105.000000,0.000000],"boundingbox_center":[125.000000,105.000000,6.500002],"boundingbox_size":[28.860481,19.869712,13.000003]}
; Total objects to print: 1
M486 T1
; plater:{"center":[125.000000,105.000000,0.000000],"boundingbox_center":[125.000000,105.000000,6.500002],"boundingbox_size":[28.860481,19.869712,13.000003]}

M73 P0 R29
M73 Q0 S29
;TYPE:Custom
M862.3 P "MK3S" ; printer model check
M862.1 P0.4 ; nozzle diameter check
M115 U3.10.0 ; tell printer latest fw version
G90 ; use absolute coordinates
M83 ; extruder relative mode
M104 S255 ; set extruder temp
M140 S100 ; set bed temp
M190 S100 ; wait for bed temp
M109 S255 ; wait for extruder temp
G28 W ; home all without mesh bed level
G80 ; mesh bed leveling
G1 Y-3.0 F1000.0 ; go outside print area
G92 E0.0
G1 X60.0 E9.0 F1000.0 ; intro line
G1 X100.0 E12.5 F1000.0 ; intro line
G92 E0.0
M221 S95

; Don't change E values below. Excessive value can damage the printer.
M907 E430 ; set extruder motor current
M107
G21 ; set units to millimeters
G90 ; use absolute coordinates
M83 ; use relative distances for extrusion
M900 K0.04 ; Filament gcode LA 1.5
M900 K20 ; Filament gcode LA 1.0
;LAYER_CHANGE
;Z:0.2
;HEIGHT:0.2
;BEFORE_LAYER_CHANGE
G92 E0.0
;0.2


G1 E-0.8 F2100
G1 Z0.4 F10800
;AFTER_LAYER_CHANGE
;0.2
G1 Z0.6
M204 P1500
G1 X101.216 Y96.914
G1 Z0.2
G1 E0.8 F2100
;TYPE:Skirt
;WIDTH:0.42
G1 F1200
G1 X104.509 Y93.621 E0.146
G1 X108.666 Y91.899 E0.14111
G1 X113.103 Y91.899 E0.13911
G1 X113.781 Y91.063 E0.03374
G1 X114.24 Y90.563 E0.02128
G1 X115.562 Y89.283 E0.0577
G1 X116.077 Y88.841 E0.02128
G1 X117.543 Y87.729 E0.0577
G1 X118.108 Y87.351 E0.02128
G1 X119.696 Y86.422 E0.0577
G1 X120.302 Y86.115 E0.02128
G1 X121.99 Y85.383 E0.0577
G1 X122.628 Y85.151 E0.02128
G1 X124.392 Y84.626 E0.0577
G1 X125.053 Y84.472 E0.02128
G1 X126.868 Y84.162 E0.05775
G1 X127.546 Y84.087 E0.02139
G1 X129.397 Y83.997 E0.05811
G1 X130.076 Y84.005 E0.02128
G1 X130.795 Y84.056 E0.0226
G1 X131.899 Y84.135 E0.0347
G1 X132.568 Y84.223 E0.02118
G1 X134.374 Y84.571 E0.05765
G1 X135.031 Y84.74 E0.02128
G1 X136.783 Y85.302 E0.0577
G1 X137.416 Y85.548 E0.02128
G1 X139.088 Y86.316 E0.0577
G1 X139.687 Y86.636 E0.02128
G1 X141.256 Y87.598 E0.0577
G1 X141.812 Y87.987 E0.02128
G1 X143.254 Y89.131 E0.0577
G1 X143.759 Y89.584 E0.02128
G1 X145.054 Y90.892 E0.0577
G1 X145.502 Y91.402 E0.02128
G1 X146.631 Y92.855 E0.0577
G1 X147.014 Y93.415 E0.02128
G1 X147.961 Y94.993 E0.0577
G1 X148.275 Y95.595 E0.02128
M73 P0 R28
G1 X149.026 Y97.275 E0.0577
G1 X149.265 Y97.91 E0.02128
G1 X149.81 Y99.668 E0.0577
G1 X149.972 Y100.327 E0.02128
G1 X150.302 Y102.138 E0.0577
G1 X150.384 Y102.811 E0.02128
G1 X150.495 Y104.648 E0.0577
G1 X150.496 Y105.327 E0.02128
G1 X150.387 Y107.16 E0.05757
G1 X150.306 Y107.832 E0.02122
G1 X149.981 Y109.629 E0.05728
G1 X149.825 Y110.271 E0.02071
G1 X149.622 Y110.94 E0.0219
G1 X149.615 Y110.962 E0.00074
G1 X149.272 Y112.071 E0.03641
G1 X149.034 Y112.704 E0.02118
G1 X148.286 Y114.383 E0.05765
G1 X147.973 Y114.985 E0.02128
G1 X147.028 Y116.564 E0.0577
G1 X146.645 Y117.125 E0.02128
G1 X145.518 Y118.58 E0.0577
G1 X145.07 Y119.09 E0.02128
G1 X143.777 Y120.4 E0.0577
G1 X143.272 Y120.853 E0.02128
G1 X141.832 Y121.998 E0.0577
G1 X141.276 Y122.388 E0.02128
G1 X139.709 Y123.353 E0.0577
G1 X139.11 Y123.673 E0.02128
G1 X137.439 Y124.443 E0.0577
G1 X136.806 Y124.69 E0.02128
G1 X135.055 Y125.254 E0.0577
G1 X134.398 Y125.423 E0.02128
G1 X132.591 Y125.774 E0.0577
G1 X131.918 Y125.863 E0.02128
G1 X130.083 Y125.995 E0.0577
G1 X129.404 Y126.003 E0.02128
G1 X127.566 Y125.915 E0.0577
G1 X126.891 Y125.841 E0.02128
G1 X125.077 Y125.533 E0.0577
G1 X124.415 Y125.38 E0.02128
G1 X122.651 Y124.857 E0.0577
G1 X122.013 Y124.625 E0.02128
G1 X120.324 Y123.895 E0.0577
G1 X119.718 Y123.589 E0.02128
G1 X118.128 Y122.662 E0.0577
G1 X117.563 Y122.285 E0.02128
G1 X116.096 Y121.175 E0.0577
G1 X115.581 Y120.733 E0.02128
G1 X114.257 Y119.455 E0.0577
G1 X113.798 Y118.955 E0.02128
G1 X113.103 Y118.101 E0.03452
G1 X108.666 Y118.101 E0.1391
G1 X104.509 Y116.379 E0.14111
G1 X101.216 Y113.086 E0.146
G1 X99.494 Y108.928 E0.14111
G1 X99.494 Y101.072 E0.24634
G1 X101.193 Y96.969 E0.13922
G1 X101.364 Y97.048 F10800
M204 P1000
G1 X101.536 Y97.128
G1 F1200
G1 X104.722 Y93.941 E0.1413
G1 X108.741 Y92.276 E0.1364
G1 X113.283 Y92.276 E0.14239
G1 X114.067 Y91.31 E0.03902
G1 X114.51 Y90.826 E0.02057
G1 X115.816 Y89.562 E0.05699
G1 X116.314 Y89.135 E0.02057
G1 X117.762 Y88.036 E0.05699
G1 X118.308 Y87.671 E0.02057
G1 X119.877 Y86.754 E0.05699
G1 X120.462 Y86.457 E0.02057
G1 X122.13 Y85.734 E0.05699
G1 X122.746 Y85.509 E0.02057
G1 X124.488 Y84.991 E0.05699
G1 X125.127 Y84.842 E0.02057
G1 X126.921 Y84.535 E0.05704
G1 X127.576 Y84.463 E0.02067
G1 X129.404 Y84.374 E0.0574
G1 X130.06 Y84.382 E0.02057
M73 Q0 S28
G1 X130.768 Y84.432 E0.02224
G1 X131.861 Y84.51 E0.03435
G1 X132.508 Y84.595 E0.02047
G1 X134.291 Y84.939 E0.05694
G1 X134.927 Y85.102 E0.02057
G1 X136.657 Y85.658 E0.05699
G1 X137.269 Y85.895 E0.02057
G1 X138.921 Y86.654 E0.05699
G1 X139.5 Y86.963 E0.02057
G1 X141.049 Y87.914 E0.05699
G1 X141.586 Y88.29 E0.02057
G1 X143.011 Y89.419 E0.05699
M73 Q1 S28
G1 X143.499 Y89.857 E0.02057
G1 X144.778 Y91.149 E0.05699
G1 X145.211 Y91.642 E0.02057
G1 X146.326 Y93.077 E0.05699
M73 P1 R28
G1 X146.697 Y93.619 E0.02057
G1 X147.632 Y95.177 E0.05699
G1 X147.935 Y95.759 E0.02057
G1 X148.677 Y97.419 E0.05699
G1 X148.908 Y98.033 E0.02057
G1 X149.446 Y99.769 E0.05699
G1 X149.603 Y100.406 E0.02057
G1 X149.929 Y102.194 E0.05699
G1 X150.008 Y102.846 E0.02057
G1 X150.118 Y104.66 E0.05699
G1 X150.118 Y105.316 E0.02057
G1 X150.011 Y107.126 E0.05686
G1 X149.933 Y107.776 E0.02051
G1 X149.612 Y109.552 E0.05658
G1 X149.462 Y110.172 E0.02002
G1 X149.261 Y110.829 E0.02154
G1 X149.255 Y110.851 E0.00071
G1 X148.915 Y111.949 E0.03605
G1 X148.685 Y112.56 E0.02047
G1 X147.946 Y114.219 E0.05694
G1 X147.643 Y114.801 E0.02057
G1 X146.71 Y116.361 E0.05699
G1 X146.34 Y116.903 E0.02057
G1 X145.226 Y118.34 E0.05699
G1 X144.794 Y118.833 E0.02057
G1 X143.517 Y120.127 E0.05699
G1 X143.029 Y120.565 E0.02057
G1 X141.606 Y121.696 E0.05699
G1 X141.069 Y122.073 E0.02057
G1 X139.521 Y123.025 E0.05699
G1 X138.942 Y123.335 E0.02057
G1 X137.291 Y124.096 E0.05699
G1 X136.68 Y124.334 E0.02057
G1 X134.95 Y124.892 E0.05699
G1 X134.315 Y125.055 E0.02057
G1 X132.53 Y125.402 E0.05699
G1 X131.88 Y125.488 E0.02057
G1 X130.067 Y125.618 E0.05699
G1 X129.411 Y125.626 E0.02057
G1 X127.595 Y125.538 E0.05699
G1 X126.943 Y125.468 E0.02057
G1 X125.151 Y125.163 E0.05699
G1 X124.512 Y125.015 E0.02057
G1 X122.769 Y124.499 E0.05699
G1 X122.152 Y124.275 E0.02057
G1 X120.484 Y123.554 E0.05699
G1 X119.898 Y123.258 E0.02057
G1 X118.328 Y122.342 E0.05699
G1 X117.782 Y121.978 E0.02057
G1 X116.333 Y120.881 E0.05699
G1 X115.834 Y120.454 E0.02057
G1 X114.527 Y119.191 E0.05699
G1 X114.083 Y118.708 E0.02057
G1 X113.282 Y117.724 E0.03978
G1 X108.741 Y117.724 E0.14237
G1 X104.722 Y116.059 E0.1364
G1 X101.536 Y112.872 E0.1413
G1 X99.871 Y108.853 E0.1364
G1 X99.871 Y101.147 E0.24163
G1 X101.513 Y97.183 E0.13452
M204 P1500
G1 X101.684 Y97.262 F10800
M204 P1000
G1 X101.855 Y97.341
G1 F1200
G1 X104.936 Y94.261 E0.1366
G1 X108.816 Y92.653 E0.1317
G1 X113.462 Y92.653 E0.14567
G1 X114.353 Y91.556 E0.0443
G1 X114.781 Y91.089 E0.01986
G1 X116.07 Y89.841 E0.05628
G1 X116.551 Y89.428 E0.01986
G1 X117.981 Y88.343 E0.05628
G1 X118.508 Y87.991 E0.01986
G1 X120.057 Y87.085 E0.05628
G1 X120.622 Y86.798 E0.01986
G1 X122.269 Y86.084 E0.05628
G1 X122.865 Y85.867 E0.01986
G1 X124.585 Y85.355 E0.05628
G1 X125.202 Y85.211 E0.01986
G1 X126.973 Y84.909 E0.05633
G1 X127.606 Y84.839 E0.01996
G1 X129.411 Y84.751 E0.05669
G1 X130.045 Y84.759 E0.01986
G1 X130.741 Y84.808 E0.02189
G1 X131.823 Y84.885 E0.03399
G1 X132.448 Y84.968 E0.01977
G1 X134.209 Y85.307 E0.05623
G1 X134.822 Y85.465 E0.01986
G1 X136.531 Y86.013 E0.05628
G1 X137.122 Y86.243 E0.01986
G1 X138.753 Y86.992 E0.05628
G1 X139.312 Y87.29 E0.01986
G1 X140.842 Y88.229 E0.05628
G1 X141.361 Y88.592 E0.01986
G1 X142.767 Y89.708 E0.05628
G1 X143.239 Y90.13 E0.01986
G1 X144.502 Y91.406 E0.05628
G1 X144.92 Y91.882 E0.01986
G1 X146.021 Y93.3 E0.05628
G1 X146.379 Y93.823 E0.01986
G1 X147.303 Y95.362 E0.05628
G1 X147.595 Y95.924 E0.01986
G1 X148.328 Y97.562 E0.05628
G1 X148.552 Y98.155 E0.01986
G1 X149.083 Y99.87 E0.05628
G1 X149.234 Y100.485 E0.01986
G1 X149.556 Y102.251 E0.05628
G1 X149.632 Y102.88 E0.01986
G1 X149.741 Y104.671 E0.05628
G1 X149.741 Y105.305 E0.01986
G1 X149.635 Y107.093 E0.05615
G1 X149.56 Y107.72 E0.01981
G1 X149.243 Y109.474 E0.05588
G1 X149.098 Y110.073 E0.01933
G1 X148.901 Y110.719 E0.02118
G1 X148.894 Y110.74 E0.00069
G1 X148.558 Y111.827 E0.03568
G1 X148.336 Y112.417 E0.01976
G1 X147.606 Y114.055 E0.05623
G1 X147.314 Y114.617 E0.01986
G1 X146.392 Y116.158 E0.05628
G1 X146.035 Y116.681 E0.01986
G1 X144.935 Y118.1 E0.05628
G1 X144.518 Y118.576 E0.01986
G1 X143.257 Y119.854 E0.05628
G1 X142.785 Y120.277 E0.01986
G1 X141.38 Y121.394 E0.05628
G1 X140.861 Y121.758 E0.01986
G1 X139.333 Y122.698 E0.05628
G1 X138.774 Y122.997 E0.01986
G1 X137.144 Y123.749 E0.05628
G1 X136.554 Y123.979 E0.01986
G1 X134.845 Y124.529 E0.05628
G1 X134.232 Y124.687 E0.01986
G1 X132.469 Y125.029 E0.05628
G1 X131.841 Y125.112 E0.01986
G1 X130.051 Y125.241 E0.05628
G1 X129.418 Y125.249 E0.01986
G1 X127.625 Y125.162 E0.05628
G1 X126.995 Y125.094 E0.01986
G1 X125.225 Y124.794 E0.05628
G1 X124.608 Y124.65 E0.01986
G1 X122.887 Y124.14 E0.05628
G1 X122.291 Y123.924 E0.01986
G1 X120.644 Y123.212 E0.05628
G1 X120.078 Y122.926 E0.01986
G1 X118.528 Y122.022 E0.05628
G1 X118.001 Y121.67 E0.01986
G1 X116.569 Y120.587 E0.05628
G1 X116.088 Y120.175 E0.01986
G1 X114.797 Y118.928 E0.05628
G1 X114.368 Y118.461 E0.01986
G1 X113.462 Y117.347 E0.04505
G1 X108.816 Y117.347 E0.14565
G1 X104.936 Y115.739 E0.1317
G1 X101.855 Y112.659 E0.1366
G1 X100.248 Y108.778 E0.1317
G1 X100.248 Y101.222 E0.23693
G1 X101.832 Y97.397 E0.12982
M204 P1500
G1 X102.004 Y97.476 F10800
M204 P1000
G1 X102.175 Y97.555
G1 F1200
G1 X105.149 Y94.58 E0.13189
G1 X108.891 Y93.03 E0.127
G1 X113.642 Y93.03 E0.14895
G1 X114.638 Y91.803 E0.04957
G1 X115.051 Y91.352 E0.01915
G1 X116.325 Y90.119 E0.05557
G1 X116.788 Y89.722 E0.01915
G1 X118.2 Y88.65 E0.05557
G1 X118.708 Y88.311 E0.01915
G1 X120.238 Y87.416 E0.05557
G1 X120.783 Y87.14 E0.01915
G1 X122.409 Y86.435 E0.05557
G1 X122.983 Y86.226 E0.01915
G1 X124.682 Y85.72 E0.05557
G1 X125.277 Y85.581 E0.01915
G1 X127.025 Y85.282 E0.05562
G1 X127.635 Y85.216 E0.01925
G1 X129.418 Y85.129 E0.05597
G1 X130.029 Y85.135 E0.01915
G1 X130.714 Y85.184 E0.02153
G1 X131.784 Y85.261 E0.03364
G1 X132.387 Y85.34 E0.01906
G1 X134.126 Y85.676 E0.05553
G1 X134.718 Y85.827 E0.01915
G1 X136.405 Y86.369 E0.05557
G1 X136.975 Y86.59 E0.01915
G1 X138.586 Y87.33 E0.05557
G1 X139.124 Y87.617 E0.01915
G1 X140.635 Y88.545 E0.05557
G1 X141.135 Y88.895 E0.01915
G1 X142.524 Y89.996 E0.05557
G1 X142.979 Y90.404 E0.01915
G1 X144.226 Y91.663 E0.05557
G1 X144.629 Y92.122 E0.01915
G1 X145.716 Y93.522 E0.05557
G1 X146.062 Y94.026 E0.01915
G1 X146.973 Y95.546 E0.05557
G1 X147.256 Y96.088 E0.01915
G1 X147.979 Y97.706 E0.05557
G1 X148.195 Y98.277 E0.01915
G1 X148.719 Y99.97 E0.05557
G1 X148.865 Y100.564 E0.01915
G1 X149.183 Y102.307 E0.05557
G1 X149.257 Y102.914 E0.01915
G1 X149.364 Y104.683 E0.05557
G1 X149.364 Y105.294 E0.01915
G1 X149.259 Y107.059 E0.05544
G1 X149.187 Y107.664 E0.0191
G1 X148.873 Y109.396 E0.05518
G1 X148.734 Y109.973 E0.01864
G1 X148.54 Y110.609 E0.02083
G1 X148.534 Y110.629 E0.00066
G1 X148.201 Y111.705 E0.03531
G1 X147.987 Y112.274 E0.01906
G1 X147.266 Y113.891 E0.05553
G1 X146.985 Y114.434 E0.01915
G1 X146.074 Y115.954 E0.05557
G1 X145.73 Y116.459 E0.01915
G1 X144.644 Y117.86 E0.05557
G1 X144.242 Y118.319 E0.01915
G1 X142.996 Y119.581 E0.05557
G1 X142.542 Y119.989 E0.01915
G1 X141.154 Y121.092 E0.05557
G1 X140.654 Y121.442 E0.01915
G1 X139.145 Y122.371 E0.05557
G1 X138.606 Y122.66 E0.01915
G1 X136.996 Y123.401 E0.05557
G1 X136.427 Y123.623 E0.01915
G1 X134.74 Y124.167 E0.05557
G1 X134.149 Y124.319 E0.01915
G1 X132.409 Y124.657 E0.05557
G1 X131.803 Y124.737 E0.01915
G1 X130.035 Y124.864 E0.05557
G1 X129.424 Y124.872 E0.01915
G1 X127.654 Y124.786 E0.05557
G1 X127.047 Y124.72 E0.01915
G1 X125.299 Y124.424 E0.05557
G1 X124.704 Y124.286 E0.01915
G1 X123.005 Y123.782 E0.05557
G1 X122.431 Y123.574 E0.01915
M73 Q2 S28
G1 X120.804 Y122.87 E0.05557
G1 X120.259 Y122.595 E0.01915
G1 X118.727 Y121.702 E0.05557
G1 X118.219 Y121.363 E0.01915
M73 P2 R28
G1 X116.806 Y120.293 E0.05557
G1 X116.342 Y119.896 E0.01915
G1 X115.067 Y118.665 E0.05557
G1 X114.654 Y118.215 E0.01915
G1 X113.641 Y116.97 E0.05032
G1 X108.891 Y116.97 E0.14892
G1 X105.15 Y115.42 E0.12699
G1 X102.175 Y112.445 E0.13189
G1 X100.625 Y108.703 E0.12699
G1 X100.625 Y101.297 E0.23223
G1 X102.152 Y97.61 E0.12511
M204 P1500
G1 X102.323 Y97.689 F10800
M204 P1000
G1 X102.495 Y97.768
G1 F1200
G1 X105.363 Y94.9 E0.12719
G1 X108.966 Y93.407 E0.12229
G1 X113.822 Y93.407 E0.15223
G1 X114.924 Y92.049 E0.05485
G1 X115.321 Y91.615 E0.01844
G1 X116.579 Y90.398 E0.05486
G1 X117.025 Y90.015 E0.01844
G1 X118.419 Y88.957 E0.05486
G1 X118.908 Y88.631 E0.01844
G1 X120.419 Y87.747 E0.05486
G1 X120.943 Y87.481 E0.01844
G1 X122.549 Y86.785 E0.05486
G1 X123.101 Y86.584 E0.01844
G1 X124.778 Y86.085 E0.05486
G1 X125.351 Y85.951 E0.01844
G1 X127.077 Y85.656 E0.05491
G1 X127.665 Y85.592 E0.01853
G1 X129.426 Y85.506 E0.05526
G1 X130.014 Y85.512 E0.01844
G1 X130.687 Y85.56 E0.02118
G1 X131.746 Y85.636 E0.03329
G1 X132.327 Y85.712 E0.01835
G1 X134.043 Y86.044 E0.05482
G1 X134.613 Y86.19 E0.01844
G1 X136.279 Y86.724 E0.05486
G1 X136.828 Y86.937 E0.01844
G1 X138.418 Y87.668 E0.05486
G1 X138.937 Y87.945 E0.01844
G1 X140.428 Y88.86 E0.05486
G1 X140.91 Y89.197 E0.01844
G1 X142.281 Y90.285 E0.05486
G1 X142.719 Y90.677 E0.01844
G1 X143.95 Y91.921 E0.05486
G1 X144.338 Y92.363 E0.01844
G1 X145.412 Y93.745 E0.05486
G1 X145.744 Y94.23 E0.01844
G1 X146.644 Y95.73 E0.05486
G1 X146.916 Y96.252 E0.01844
G1 X147.63 Y97.849 E0.05486
G1 X147.838 Y98.4 E0.01844
G1 X148.356 Y100.071 E0.05486
G1 X148.496 Y100.643 E0.01844
G1 X148.81 Y102.364 E0.05486
G1 X148.881 Y102.948 E0.01844
G1 X148.987 Y104.694 E0.05486
G1 X148.987 Y105.283 E0.01844
G1 X148.884 Y107.025 E0.05473
G1 X148.814 Y107.608 E0.01839
G1 X148.504 Y109.318 E0.05448
G1 X148.37 Y109.874 E0.01795
G1 X148.179 Y110.498 E0.02047
G1 X148.174 Y110.518 E0.00064
G1 X147.844 Y111.583 E0.03495
G1 X147.638 Y112.131 E0.01835
G1 X146.926 Y113.728 E0.05482
G1 X146.655 Y114.25 E0.01844
G1 X145.757 Y115.751 E0.05486
G1 X145.425 Y116.237 E0.01844
G1 X144.353 Y117.62 E0.05486
G1 X143.966 Y118.063 E0.01844
G1 X142.736 Y119.308 E0.05486
G1 X142.298 Y119.701 E0.01844
G1 X140.928 Y120.789 E0.05486
G1 X140.447 Y121.127 E0.01844
G1 X138.957 Y122.044 E0.05486
G1 X138.438 Y122.322 E0.01845
G1 X136.849 Y123.054 E0.05486
G1 X136.301 Y123.268 E0.01844
G1 X134.635 Y123.804 E0.05486
G1 X134.066 Y123.951 E0.01844
G1 X132.348 Y124.285 E0.05486
G1 X131.765 Y124.362 E0.01844
G1 X130.019 Y124.487 E0.05486
G1 X129.431 Y124.494 E0.01844
G1 X127.683 Y124.41 E0.05486
G1 X127.099 Y124.347 E0.01844
G1 X125.374 Y124.054 E0.05486
G1 X124.801 Y123.921 E0.01844
G1 X123.123 Y123.424 E0.05486
G1 X122.57 Y123.223 E0.01844
G1 X120.964 Y122.529 E0.05486
G1 X120.439 Y122.263 E0.01844
G1 X118.927 Y121.382 E0.05486
G1 X118.438 Y121.055 E0.01844
G1 X117.043 Y119.999 E0.05486
G1 X116.596 Y119.617 E0.01844
G1 X115.337 Y118.401 E0.05486
G1 X114.939 Y117.968 E0.01844
G1 X113.835 Y116.611 E0.05486
G1 X113.822 Y116.593 E0.00069
G1 X108.967 Y116.593 E0.15224
G1 X105.363 Y115.1 E0.12229
G1 X102.495 Y112.232 E0.12719
