; generated by SuperSlicer 2.3.57 on 2022-03-16 at 09:13:58 UTC

; 

; external perimeters extrusion width = 0.45mm
; perimeters extrusion width = 0.45mm
; infill extrusion width = 0.45mm
; solid infill extrusion width = 0.45mm
; top infill extrusion width = 0.40mm
; first layer extrusion width = 0.42mm

; object:{"name":"Black - Makerbase Cable Clip","id":"Black - Makerbase Cable Clip.stl id:0 copy 0","object_center":[124.999973,105.000000,0.000000],"boundingbox_center":[124.999973,105.000000,5.625221],"boundingbox_size":[8.001259,29.999903,11.250441]}
; Total objects to print: 1
M486 T1
; plater:{"center":[124.999973,105.000000,0.000000],"boundingbox_center":[124.999973,105.000000,5.625221],"boundingbox_size":[8.001259,29.999903,11.250441]}

M73 P0 R23
M73 Q0 S24
;TYPE:Custom
M862.3 P "MK3S" ; printer model check
M862.1 P0.4 ; nozzle diameter check
M115 U3.10.0 ; tell printer latest fw version
G90 ; use absolute coordinates
M83 ; extruder relative mode
M104 S255 ; set extruder temp
M140 S100 ; set bed temp
M190 S100 ; wait for bed temp
M109 S255 ; wait for extruder temp
G28 W ; home all without mesh bed level
G80 ; mesh bed leveling
G1 Y-3.0 F1000.0 ; go outside print area
G92 E0.0
G1 X60.0 E9.0 F1000.0 ; intro line
M73 Q0 S23
G1 X100.0 E12.5 F1000.0 ; intro line
G92 E0.0
M221 S95

; Don't change E values below. Excessive value can damage the printer.
M907 E430 ; set extruder motor current
M107
G21 ; set units to millimeters
G90 ; use absolute coordinates
M83 ; use relative distances for extrusion
M900 K0.04 ; Filament gcode LA 1.5
M900 K20 ; Filament gcode LA 1.0
;LAYER_CHANGE
;Z:0.2
;HEIGHT:0.2
;BEFORE_LAYER_CHANGE
G92 E0.0
;0.2


G1 E-0.8 F2100
G1 Z0.4 F10800
;AFTER_LAYER_CHANGE
;0.2
G1 Z0.6
M204 P1500
G1 X111.422 Y83.714
G1 Z0.2
G1 E0.8 F2100
;TYPE:Skirt
;WIDTH:0.42
G1 F1200
G1 X114.715 Y80.421 E0.146
G1 X118.873 Y78.699 E0.14111
G1 X121.472 Y78.699 E0.08149
G1 X131.129 Y78.7 E0.30281
G1 X135.287 Y80.422 E0.1411
G1 X138.579 Y83.715 E0.146
G1 X140.302 Y87.873 E0.14111
G1 X140.3 Y122.129 E1.07408
G1 X138.578 Y126.286 E0.1411
G1 X135.285 Y129.579 E0.146
G1 X131.127 Y131.301 E0.14111
G1 X118.871 Y131.3 E0.3843
G1 X114.713 Y129.578 E0.1411
G1 X111.42 Y126.285 E0.146
G1 X109.698 Y122.127 E0.14111
G1 X109.7 Y87.871 E1.07408
M73 P1 R23
M73 Q1 S23
G1 X111.399 Y83.769 E0.13922
G1 X111.57 Y83.848 F10800
M204 P1000
G1 X111.742 Y83.927
G1 F1200
G1 X114.928 Y80.741 E0.1413
G1 X118.948 Y79.076 E0.1364
G1 X121.472 Y79.076 E0.07913
G1 X131.054 Y79.077 E0.30046
G1 X135.073 Y80.742 E0.1364
G1 X138.26 Y83.928 E0.1413
G1 X139.924 Y87.948 E0.1364
G1 X139.923 Y122.054 E1.06937
G1 X138.258 Y126.073 E0.1364
G1 X135.071 Y129.259 E0.1413
G1 X131.052 Y130.924 E0.1364
G1 X118.946 Y130.923 E0.37959
G1 X114.927 Y129.258 E0.1364
G1 X111.74 Y126.072 E0.1413
G1 X110.075 Y122.052 E0.1364
G1 X110.077 Y87.946 E1.06937
G1 X111.719 Y83.983 E0.13452
M204 P1500
G1 X111.89 Y84.062 F10800
M204 P1000
G1 X112.061 Y84.141
G1 F1200
G1 X115.142 Y81.06 E0.1366
G1 X119.023 Y79.453 E0.1317
G1 X121.472 Y79.453 E0.07678
G1 X130.979 Y79.454 E0.29811
G1 X134.86 Y81.061 E0.1317
G1 X137.94 Y84.142 E0.1366
G1 X139.547 Y88.023 E0.1317
G1 X139.546 Y121.979 E1.06467
G1 X137.938 Y125.859 E0.1317
G1 X134.858 Y128.94 E0.1366
G1 X130.977 Y130.547 E0.1317
G1 X119.021 Y130.546 E0.37489
G1 X115.14 Y128.939 E0.1317
G1 X112.06 Y125.858 E0.1366
G1 X110.453 Y121.977 E0.1317
G1 X110.454 Y88.021 E1.06467
M73 P2 R23
M73 Q2 S23
G1 X112.038 Y84.196 E0.12982
M204 P1500
G1 X112.21 Y84.275 F10800
M204 P1000
G1 X112.381 Y84.354
G1 F1200
G1 X115.356 Y81.38 E0.13189
G1 X119.098 Y79.83 E0.127
G1 X121.472 Y79.83 E0.07443
G1 X130.904 Y79.831 E0.29575
G1 X134.646 Y81.381 E0.12699
G1 X137.62 Y84.355 E0.13189
G1 X139.17 Y88.098 E0.127
G1 X139.169 Y121.904 E1.05997
G1 X137.619 Y125.646 E0.12699
G1 X134.644 Y128.62 E0.13189
G1 X130.902 Y130.17 E0.12699
G1 X119.096 Y130.169 E0.37019
G1 X115.354 Y128.619 E0.12699
G1 X112.379 Y125.645 E0.13189
G1 X110.83 Y121.902 E0.127
G1 X110.831 Y88.096 E1.05997
G1 X112.358 Y84.41 E0.12511
M204 P1500
G1 X112.529 Y84.489 F10800
M204 P1000
G1 X112.701 Y84.568
G1 F1200
G1 X115.569 Y81.7 E0.12719
G1 X119.173 Y80.207 E0.12229
G1 X121.472 Y80.207 E0.07208
G1 X130.829 Y80.208 E0.2934
G1 X134.433 Y81.701 E0.12229
G1 X137.301 Y84.569 E0.12719
G1 X138.793 Y88.172 E0.12229
G1 X138.792 Y121.829 E1.05526
G1 X137.299 Y125.432 E0.12229
G1 X134.431 Y128.3 E0.12719
G1 X130.827 Y129.793 E0.12229
G1 X119.171 Y129.792 E0.36548
G1 X115.567 Y128.299 E0.12229
G1 X112.699 Y125.431 E0.12719
G1 X111.207 Y121.828 E0.12229
G1 X111.208 Y88.171 E1.05526
M73 P3 R23
M73 Q3 S23
G1 X112.678 Y84.624 E0.12041
M204 P1500
G1 X112.849 Y84.703 F10800
M204 P1000
G1 X113.02 Y84.782
G1 F1200
G1 X115.783 Y82.019 E0.12249
G1 X119.248 Y80.584 E0.11759
G1 X121.472 Y80.585 E0.06973
G1 X130.754 Y80.585 E0.29105
G1 X134.219 Y82.02 E0.11759
G1 X136.981 Y84.783 E0.12248
G1 X138.416 Y88.247 E0.11759
G1 X138.415 Y121.754 E1.05056
G1 X136.98 Y125.218 E0.11759
G1 X134.217 Y127.98 E0.12248
G1 X130.752 Y129.416 E0.11759
G1 X119.246 Y129.415 E0.36078
G1 X115.781 Y127.98 E0.11759
G1 X113.019 Y125.217 E0.12248
G1 X111.584 Y121.753 E0.11759
G1 X111.585 Y88.246 E1.05056
G1 X112.997 Y84.837 E0.11571
M204 P1500
G1 X113.169 Y84.916 F10800
M204 P1000
G1 X113.34 Y84.995
G1 F1200
G1 X115.996 Y82.339 E0.11778
G1 X119.323 Y80.962 E0.11289
G1 X121.472 Y80.962 E0.06738
G1 X130.679 Y80.962 E0.2887
G1 X134.005 Y82.34 E0.11288
G1 X136.661 Y84.996 E0.11778
G1 X138.039 Y88.322 E0.11288
G1 X138.038 Y121.679 E1.04586
G1 X136.66 Y125.005 E0.11288
G1 X134.004 Y127.661 E0.11778
G1 X130.677 Y129.038 E0.11288
G1 X119.321 Y129.038 E0.35607
G1 X115.995 Y127.66 E0.11288
G1 X113.338 Y125.004 E0.11778
G1 X111.961 Y121.678 E0.11288
M73 P3 R22
G1 X111.962 Y88.321 E1.04586
M73 P4 R22
M73 Q4 S23
G1 X113.317 Y85.051 E0.111
M204 P1500
G1 X113.488 Y85.13 F10800
M204 P1000
G1 X113.66 Y85.209
G1 F1200
G1 X116.21 Y82.659 E0.11308
G1 X119.398 Y81.339 E0.10818
G1 X121.471 Y81.339 E0.06502
G1 X130.604 Y81.339 E0.28635
G1 X133.792 Y82.66 E0.10818
G1 X136.342 Y85.21 E0.11308
G1 X137.662 Y88.397 E0.10818
G1 X137.661 Y121.604 E1.04115
G1 X136.34 Y124.791 E0.10818
G1 X133.79 Y127.341 E0.11308
G1 X130.602 Y128.661 E0.10818
G1 X119.396 Y128.661 E0.35137
G1 X116.208 Y127.34 E0.10818
G1 X113.658 Y124.79 E0.11308
G1 X112.338 Y121.603 E0.10818
G1 X112.339 Y88.396 E1.04115
M73 Q4 S22
G1 X113.637 Y85.264 E0.1063
M204 P1500
G1 X113.808 Y85.343 F10800
M204 P1000
G1 X113.979 Y85.423
G1 F1200
G1 X116.424 Y82.979 E0.10837
G1 X119.473 Y81.716 E0.10348
G1 X121.471 Y81.716 E0.06267
G1 X130.529 Y81.716 E0.284
G1 X133.578 Y82.979 E0.10348
G1 X136.022 Y85.423 E0.10837
G1 X137.285 Y88.472 E0.10348
G1 X137.284 Y121.529 E1.03645
G1 X136.021 Y124.577 E0.10348
G1 X133.576 Y127.021 E0.10837
G1 X130.527 Y128.284 E0.10348
G1 X119.471 Y128.284 E0.34667
G1 X116.422 Y127.021 E0.10348
G1 X113.978 Y124.577 E0.10837
G1 X112.715 Y121.528 E0.10348
G1 X112.716 Y88.471 E1.03645
G1 X113.956 Y85.478 E0.1016
M204 P1500
G1 X114.128 Y85.557 F10800
M204 P1000
G1 X114.299 Y85.636
G1 F1200
G1 X116.637 Y83.298 E0.10367
G1 X119.548 Y82.093 E0.09877
G1 X121.471 Y82.093 E0.06032
G1 X130.454 Y82.093 E0.28164
M73 P5 R22
M73 Q5 S22
G1 X133.364 Y83.299 E0.09877
G1 X135.702 Y85.637 E0.10367
G1 X136.908 Y88.547 E0.09877
G1 X136.906 Y121.453 E1.03175
G1 X135.701 Y124.364 E0.09877
G1 X133.363 Y126.702 E0.10367
G1 X130.452 Y127.907 E0.09877
G1 X119.546 Y127.907 E0.34196
G1 X116.635 Y126.701 E0.09877
G1 X114.298 Y124.363 E0.10367
G1 X113.092 Y121.453 E0.09877
G1 X113.093 Y88.547 E1.03175
G1 X114.276 Y85.692 E0.09689
M204 P1500
G1 X114.447 Y85.771 F10800
M204 P1000
G1 X114.619 Y85.85
G1 F1200
G1 X116.851 Y83.618 E0.09897
G1 X119.623 Y82.47 E0.09407
G1 X121.471 Y82.47 E0.05797
G1 X130.379 Y82.47 E0.27929
G1 X133.151 Y83.619 E0.09407
G1 X135.383 Y85.851 E0.09897
G1 X136.531 Y88.622 E0.09407
G1 X136.529 Y121.378 E1.02704
G1 X135.381 Y124.15 E0.09407
G1 X133.149 Y126.382 E0.09897
G1 X130.377 Y127.53 E0.09407
G1 X119.621 Y127.53 E0.33726
G1 X116.849 Y126.381 E0.09407
G1 X114.617 Y124.149 E0.09897
G1 X113.469 Y121.378 E0.09407
G1 X113.47 Y88.622 E1.02704
G1 X114.596 Y85.905 E0.09219
M204 P1500
G1 X114.767 Y85.984 F10800
M204 P1000
G1 X114.938 Y86.063
G1 F1200
G1 X117.064 Y83.938 E0.09426
G1 X119.698 Y82.847 E0.08937
G1 X121.471 Y82.847 E0.05562
G1 X130.304 Y82.847 E0.27694
G1 X132.937 Y83.938 E0.08937
G1 X135.063 Y86.064 E0.09426
G1 X136.154 Y88.697 E0.08937
G1 X136.152 Y121.303 E1.02234
M73 P6 R22
M73 Q6 S22
G1 X135.062 Y123.937 E0.08937
G1 X132.936 Y126.062 E0.09426
G1 X130.302 Y127.153 E0.08937
G1 X119.696 Y127.153 E0.33256
G1 X117.063 Y126.062 E0.08937
G1 X114.937 Y123.936 E0.09426
G1 X113.846 Y121.303 E0.08937
G1 X113.848 Y88.697 E1.02234
G1 X114.915 Y86.119 E0.08748
M204 P1500
G1 X115.087 Y86.198 F10800
M204 P1000
G1 X115.258 Y86.277
G1 F1200
G1 X117.278 Y84.257 E0.08956
G1 X119.773 Y83.224 E0.08466
G1 X121.471 Y83.224 E0.05326
G1 X130.229 Y83.224 E0.27459
G1 X132.724 Y84.258 E0.08466
G1 X134.743 Y86.278 E0.08956
G1 X135.777 Y88.772 E0.08466
G1 X135.775 Y121.228 E1.01763
G1 X134.742 Y123.723 E0.08466
G1 X132.722 Y125.743 E0.08956
G1 X130.227 Y126.776 E0.08466
G1 X119.771 Y126.776 E0.32785
G1 X117.276 Y125.742 E0.08466
G1 X115.257 Y123.722 E0.08956
G1 X114.223 Y121.228 E0.08466
G1 X114.225 Y88.772 E1.01764
G1 X115.235 Y86.332 E0.08278
M204 P1500
G1 X115.406 Y86.411 F10800
M204 P1000
G1 X115.578 Y86.491
G1 F1200
G1 X117.491 Y84.577 E0.08486
G1 X119.848 Y83.601 E0.07996
G1 X121.471 Y83.601 E0.05091
G1 X130.154 Y83.602 E0.27224
G1 X132.51 Y84.578 E0.07996
G1 X134.424 Y86.491 E0.08486
G1 X135.399 Y88.847 E0.07996
G1 X135.398 Y121.153 E1.01293
G1 X134.422 Y123.509 E0.07996
G1 X132.508 Y125.423 E0.08486
G1 X130.152 Y126.399 E0.07996
G1 X119.846 Y126.398 E0.32315
G1 X117.49 Y125.422 E0.07996
G1 X115.576 Y123.509 E0.08486
G1 X114.6 Y121.153 E0.07996
G1 X114.602 Y88.847 E1.01293
M73 P7 R22
M73 Q7 S22
G1 X115.555 Y86.546 E0.07808
M204 P1500
G1 X115.726 Y86.625 F10800
M204 P1000
G1 X115.897 Y86.704
G1 F1200
G1 X117.705 Y84.897 E0.08015
G1 X119.923 Y83.978 E0.07526
G1 X121.471 Y83.978 E0.04856
G1 X130.079 Y83.979 E0.26989
G1 X132.296 Y84.897 E0.07526
G1 X134.104 Y86.705 E0.08015
G1 X135.022 Y88.922 E0.07526
G1 X135.021 Y121.078 E1.00823
G1 X134.103 Y123.296 E0.07526
G1 X132.295 Y125.103 E0.08015
G1 X130.077 Y126.022 E0.07526
G1 X119.921 Y126.021 E0.31845
G1 X117.703 Y125.103 E0.07526
G1 X115.896 Y123.295 E0.08015
G1 X114.977 Y121.078 E0.07526
G1 X114.979 Y88.922 E1.00823
G1 X115.874 Y86.76 E0.07337
M204 P1500
G1 X116.046 Y86.839 F10800
M204 P1000
G1 X116.217 Y86.918
G1 F1200
G1 X117.919 Y85.216 E0.07545
G1 X119.998 Y84.355 E0.07055
G1 X121.471 Y84.355 E0.04621
G1 X130.004 Y84.356 E0.26753
G1 X132.083 Y85.217 E0.07055
G1 X133.784 Y86.918 E0.07545
G1 X134.645 Y88.997 E0.07055
G1 X134.644 Y121.003 E1.00352
G1 X133.783 Y123.082 E0.07055
G1 X132.081 Y124.784 E0.07545
G1 X130.002 Y125.645 E0.07055
G1 X119.996 Y125.644 E0.31374
G1 X117.917 Y124.783 E0.07055
G1 X116.216 Y123.082 E0.07545
G1 X115.355 Y121.003 E0.07055
G1 X115.356 Y88.997 E1.00352
G1 X116.194 Y86.973 E0.06867
M204 P1500
G1 X116.365 Y87.052 F10800
M204 P1000
G1 X116.537 Y87.131
G1 F1200
G1 X118.132 Y85.536 E0.07075
G1 X120.073 Y84.732 E0.06585
G1 X121.471 Y84.732 E0.04386
G1 X129.929 Y84.733 E0.26518
G1 X131.869 Y85.537 E0.06585
G1 X133.465 Y87.132 E0.07075
G1 X134.268 Y89.072 E0.06585
G1 X134.267 Y120.928 E0.99882
M73 P8 R22
M73 Q8 S22
G1 X133.463 Y122.869 E0.06585
G1 X131.868 Y124.464 E0.07075
G1 X129.927 Y125.268 E0.06585
G1 X120.071 Y125.267 E0.30904
M73 P8 R21
G1 X118.131 Y124.463 E0.06585
G1 X116.535 Y122.868 E0.07075
G1 X115.732 Y120.928 E0.06585
G1 X115.733 Y89.072 E0.99882
G1 X116.514 Y87.187 E0.06397
M204 P1500
G1 X116.685 Y87.266 F10800
M204 P1000
G1 X116.856 Y87.345
G1 F1200
G1 X118.346 Y85.856 E0.06604
G1 X120.148 Y85.109 E0.06115
G1 X121.471 Y85.109 E0.04151
G1 X129.854 Y85.11 E0.26283
G1 X131.656 Y85.856 E0.06115
G1 X133.145 Y87.346 E0.06604
G1 X133.891 Y89.147 E0.06115
G1 X133.89 Y120.853 E0.99412
G1 X133.144 Y122.655 E0.06115
G1 X131.654 Y124.144 E0.06604
G1 X129.852 Y124.891 E0.06115
G1 X120.146 Y124.89 E0.30434
G1 X118.344 Y124.144 E0.06115
G1 X116.855 Y122.654 E0.06604
G1 X116.109 Y120.853 E0.06115
G1 X116.11 Y89.147 E0.99412
G1 X116.833 Y87.4 E0.05926
M204 P1500
G1 X117.005 Y87.48 F10800
M204 P1000
G1 X117.176 Y87.559
G1 F1200
G1 X118.559 Y86.175 E0.06134
G1 X120.223 Y85.487 E0.05644
G1 X121.471 Y85.487 E0.03915
M73 Q8 S21
G1 X129.779 Y85.487 E0.26048
G1 X131.442 Y86.176 E0.05644
G1 X132.825 Y87.559 E0.06134
G1 X133.514 Y89.222 E0.05644
G1 X133.513 Y120.778 E0.98941
G1 X132.824 Y122.441 E0.05644
G1 X131.44 Y123.825 E0.06134
G1 X129.777 Y124.513 E0.05644
G1 X120.221 Y124.513 E0.29963
G1 X118.558 Y123.824 E0.05644
G1 X117.175 Y122.441 E0.06134
G1 X116.486 Y120.778 E0.05644
G1 X116.487 Y89.222 E0.98941
M73 P9 R21
M73 Q9 S21
G1 X117.153 Y87.614 E0.05456
M204 P1500
G1 X117.324 Y87.693 F10800
M204 P1000
G1 X117.496 Y87.772
G1 F1200
G1 X118.773 Y86.495 E0.05664
G1 X120.298 Y85.864 E0.05174
G1 X121.471 Y85.864 E0.0368
G1 X129.704 Y85.864 E0.25813
G1 X131.228 Y86.496 E0.05174
G1 X132.506 Y87.773 E0.05664
G1 X133.137 Y89.297 E0.05174
G1 X133.136 Y120.703 E0.98471
G1 X132.504 Y122.228 E0.05174
G1 X131.227 Y123.505 E0.05664
G1 X129.702 Y124.136 E0.05174
G1 X120.296 Y124.136 E0.29493
G1 X118.772 Y123.504 E0.05174
G1 X117.494 Y122.227 E0.05664
G1 X116.863 Y120.703 E0.05174
G1 X116.864 Y89.297 E0.98471
G1 X117.473 Y87.828 E0.04986
M204 P1500
G1 X117.644 Y87.907 F10800
M204 P1000
G1 X117.815 Y87.986
G1 F1200
G1 X118.987 Y86.815 E0.05193
G1 X120.373 Y86.241 E0.04704
G1 X121.471 Y86.241 E0.03445
G1 X129.629 Y86.241 E0.25577
G1 X131.015 Y86.815 E0.04703
G1 X132.186 Y87.986 E0.05193
G1 X132.76 Y89.372 E0.04704
G1 X132.759 Y120.628 E0.98001
G1 X132.185 Y122.014 E0.04703
G1 X131.013 Y123.185 E0.05193
G1 X129.627 Y123.759 E0.04704
G1 X120.371 Y123.759 E0.29023
G1 X118.985 Y123.185 E0.04703
G1 X117.814 Y122.014 E0.05193
G1 X117.24 Y120.628 E0.04704
G1 X117.241 Y89.372 E0.98001
G1 X117.792 Y88.041 E0.04515
M204 P1500
G1 X117.964 Y88.12 F10800
M204 P1000
G1 X118.135 Y88.199
G1 F1200
G1 X119.2 Y87.134 E0.04723
G1 X120.448 Y86.618 E0.04233
G1 X121.471 Y86.618 E0.0321
G1 X129.554 Y86.618 E0.25342
G1 X130.801 Y87.135 E0.04233
G1 X131.866 Y88.2 E0.04723
G1 X132.383 Y89.447 E0.04233
G1 X132.382 Y120.553 E0.9753
G1 X131.865 Y121.801 E0.04233
G1 X130.8 Y122.866 E0.04723
G1 X129.552 Y123.382 E0.04233
G1 X120.446 Y123.382 E0.28552
M73 P10 R21
G1 X119.199 Y122.865 E0.04233
G1 X118.134 Y121.8 E0.04723
G1 X117.617 Y120.553 E0.04233
G1 X117.618 Y89.447 E0.9753
M73 Q10 S21
G1 X118.112 Y88.255 E0.04045
M204 P1500
G1 X118.283 Y88.334 F10800
M204 P1000
G1 X118.455 Y88.413
G1 F1200
G1 X119.414 Y87.454 E0.04253
G1 X120.523 Y86.995 E0.03763
G1 X121.471 Y86.995 E0.02975
G1 X129.479 Y86.995 E0.25107
G1 X130.588 Y87.455 E0.03763
G1 X131.547 Y88.414 E0.04253
G1 X132.006 Y89.522 E0.03763
G1 X132.005 Y120.478 E0.9706
G1 X131.545 Y121.587 E0.03763
G1 X130.586 Y122.546 E0.04253
G1 X129.477 Y123.005 E0.03763
G1 X120.521 Y123.005 E0.28082
G1 X119.412 Y122.546 E0.03763
G1 X118.453 Y121.586 E0.04253
G1 X117.994 Y120.478 E0.03763
G1 X117.995 Y89.522 E0.9706
G1 X118.432 Y88.468 E0.03575
M204 P1500
G1 X118.603 Y88.548 F10800
M204 P1000
G1 X118.774 Y88.627
G1 F1200
G1 X119.627 Y87.774 E0.03782
G1 X120.598 Y87.372 E0.03292
G1 X121.471 Y87.372 E0.0274
G1 X129.404 Y87.372 E0.24872
G1 X130.374 Y87.774 E0.03292
G1 X131.227 Y88.627 E0.03782
G1 X131.629 Y89.597 E0.03292
G1 X131.627 Y120.403 E0.9659
G1 X131.226 Y121.373 E0.03292
G1 X130.373 Y122.226 E0.03782
G1 X129.402 Y122.628 E0.03292
G1 X120.596 Y122.628 E0.27612
G1 X119.626 Y122.226 E0.03292
G1 X118.773 Y121.373 E0.03782
G1 X118.371 Y120.403 E0.03292
G1 X118.372 Y89.597 E0.9659
G1 X118.751 Y88.682 E0.03104
M204 P1500
G1 X118.923 Y88.761 F10800
M204 P1000
G1 X119.094 Y88.84
G1 F1200
G1 X119.841 Y88.093 E0.03312
G1 X120.673 Y87.749 E0.02822
G1 X121.471 Y87.749 E0.02504
G1 X129.329 Y87.749 E0.24637
G1 X130.16 Y88.094 E0.02822
G1 X130.907 Y88.841 E0.03312
