; generated by SuperSlicer 2.3.57 on 2022-03-16 at 09:22:21 UTC

; 

; external perimeters extrusion width = 0.45mm
; perimeters extrusion width = 0.45mm
; infill extrusion width = 0.45mm
; solid infill extrusion width = 0.45mm
; top infill extrusion width = 0.40mm
; support material extrusion width = 0.35mm
; first layer extrusion width = 0.42mm

; object:{"name":"Black - Y Idler Support","id":"Black - Y Idler Support.stl id:0 copy 0","object_center":[125.000000,105.000000,0.000000],"boundingbox_center":[125.000000,105.000000,7.000000],"boundingbox_size":[83.999977,38.900227,14.000000]}
; Total objects to print: 1
M486 T1
; plater:{"center":[125.000000,105.000000,0.000000],"boundingbox_center":[125.000000,105.000000,7.000000],"boundingbox_size":[83.999977,38.900227,14.000000]}

M73 P0 R97
M73 Q0 S98
;TYPE:Custom
M862.3 P "MK3S" ; printer model check
M862.1 P0.4 ; nozzle diameter check
M115 U3.10.0 ; tell printer latest fw version
G90 ; use absolute coordinates
M83 ; extruder relative mode
M104 S255 ; set extruder temp
M140 S100 ; set bed temp
M190 S100 ; wait for bed temp
M109 S255 ; wait for extruder temp
G28 W ; home all without mesh bed level
G80 ; mesh bed leveling
G1 Y-3.0 F1000.0 ; go outside print area
G92 E0.0
G1 X60.0 E9.0 F1000.0 ; intro line
G1 X100.0 E12.5 F1000.0 ; intro line
G92 E0.0
M221 S95

; Don't change E values below. Excessive value can damage the printer.
M907 E430 ; set extruder motor current
M107
G21 ; set units to millimeters
G90 ; use absolute coordinates
M83 ; use relative distances for extrusion
M900 K0.04 ; Filament gcode LA 1.5
M900 K20 ; Filament gcode LA 1.0
;LAYER_CHANGE
;Z:0.2
;HEIGHT:0.2
;BEFORE_LAYER_CHANGE
G92 E0.0
;0.2


G1 E-0.8 F2100
G1 Z0.4 F10800
;AFTER_LAYER_CHANGE
;0.2
G1 Z0.6
M204 P1500
G1 X79.321 Y79.264
G1 Z0.2
G1 E0.8 F2100
;TYPE:Skirt
;WIDTH:0.42
G1 F1200
G1 X82.614 Y75.971 E0.146
G1 X86.772 Y74.249 E0.14111
G1 X163.228 Y74.249 E2.39724
G1 X167.386 Y75.971 E0.14111
G1 X170.679 Y79.264 E0.146
G1 X172.401 Y83.422 E0.1411
M73 Q0 S97
G1 X172.401 Y116.578 E1.03961
G1 X170.679 Y120.736 E0.14111
G1 X167.386 Y124.029 E0.146
G1 X163.228 Y125.751 E0.14111
G1 X152.654 Y125.751 E0.33156
G1 X145.208 Y133.197 E0.33016
G1 X143.355 Y134.435 E0.06987
G1 X141.227 Y135.316 E0.07222
G1 X139.042 Y135.751 E0.06987
G1 X113.133 Y135.751 E0.81233
G1 X110.948 Y135.316 E0.06987
G1 X108.82 Y134.435 E0.07222
G1 X106.967 Y133.197 E0.06987
G1 X99.521 Y125.751 E0.33016
G1 X86.772 Y125.751 E0.39975
G1 X82.614 Y124.029 E0.1411
G1 X79.321 Y120.736 E0.146
G1 X77.599 Y116.578 E0.14111
G1 X77.599 Y83.422 E1.03961
G1 X79.298 Y79.319 E0.13922
G1 X79.47 Y79.398 F10800
M204 P1000
G1 X79.641 Y79.477
G1 F1200
G1 X82.828 Y76.291 E0.1413
G1 X86.847 Y74.626 E0.1364
G1 X163.153 Y74.626 E2.39254
M73 P0 R96
G1 X167.172 Y76.291 E0.1364
G1 X170.359 Y79.477 E0.1413
G1 X172.024 Y83.497 E0.1364
G1 X172.024 Y116.503 E1.0349
G1 X170.359 Y120.523 E0.1364
G1 X167.172 Y123.709 E0.1413
G1 X163.153 Y125.374 E0.1364
G1 X152.498 Y125.374 E0.3341
G1 X144.968 Y132.904 E0.33389
G1 X143.176 Y134.101 E0.06754
G1 X141.117 Y134.954 E0.06989
G1 X139.004 Y135.374 E0.06754
G1 X113.171 Y135.374 E0.81
G1 X111.058 Y134.954 E0.06754
G1 X108.999 Y134.101 E0.06989
G1 X107.207 Y132.904 E0.06754
G1 X99.677 Y125.374 E0.33389
G1 X86.847 Y125.374 E0.4023
G1 X82.828 Y123.709 E0.1364
G1 X79.641 Y120.523 E0.1413
G1 X77.976 Y116.503 E0.1364
G1 X77.976 Y83.497 E1.0349
G1 X79.618 Y79.533 E0.13452
M204 P1500
G1 X79.789 Y79.612 F10800
M204 P1000
G1 X79.961 Y79.691
G1 F1200
G1 X83.041 Y76.611 E0.1366
G1 X86.922 Y75.003 E0.1317
G1 X163.078 Y75.003 E2.38783
G1 X166.959 Y76.611 E0.1317
G1 X170.039 Y79.691 E0.1366
G1 X171.647 Y83.572 E0.1317
G1 X171.647 Y116.428 E1.0302
G1 X170.039 Y120.309 E0.1317
G1 X166.959 Y123.389 E0.1366
G1 X163.078 Y124.997 E0.1317
G1 X152.341 Y124.997 E0.33665
G1 X144.727 Y132.611 E0.33763
G1 X142.998 Y133.767 E0.06521
G1 X141.007 Y134.591 E0.06756
G1 X138.967 Y134.997 E0.06521
G1 X113.208 Y134.997 E0.80767
G1 X111.168 Y134.591 E0.06521
G1 X109.177 Y133.767 E0.06756
G1 X107.448 Y132.611 E0.06521
G1 X99.834 Y124.997 E0.33763
G1 X86.922 Y124.997 E0.40484
G1 X83.041 Y123.39 E0.1317
G1 X79.961 Y120.309 E0.1366
G1 X78.353 Y116.428 E0.1317
G1 X78.353 Y83.572 E1.0302
G1 X79.938 Y79.746 E0.12982
M204 P1500
G1 X80.109 Y79.826 F10800
M204 P1000
G1 X80.28 Y79.905
G1 F1200
G1 X83.255 Y76.93 E0.13189
G1 X86.997 Y75.38 E0.12699
G1 X163.003 Y75.38 E2.38313
G1 X166.745 Y76.93 E0.127
G1 X169.72 Y79.905 E0.13189
G1 X171.27 Y83.647 E0.12699
G1 X171.27 Y116.353 E1.0255
G1 X169.72 Y120.095 E0.12699
G1 X166.745 Y123.07 E0.13189
G1 X163.003 Y124.62 E0.12699
G1 X152.185 Y124.62 E0.33919
G1 X144.487 Y132.318 E0.34136
G1 X142.819 Y133.432 E0.06288
G1 X140.897 Y134.229 E0.06523
G1 X138.93 Y134.62 E0.06288
G1 X113.245 Y134.62 E0.80534
M73 P1 R96
M73 Q1 S97
G1 X111.278 Y134.229 E0.06288
G1 X109.356 Y133.432 E0.06523
G1 X107.688 Y132.318 E0.06288
G1 X99.99 Y124.62 E0.34136
G1 X86.997 Y124.62 E0.40739
G1 X83.255 Y123.07 E0.12699
G1 X80.28 Y120.095 E0.13189
G1 X78.73 Y116.353 E0.127
G1 X78.73 Y83.647 E1.0255
G1 X80.257 Y79.96 E0.12511
M204 P1500
G1 X80.429 Y80.039 F10800
M204 P1000
G1 X80.6 Y80.118
G1 F1200
G1 X83.468 Y77.25 E0.12719
G1 X87.072 Y75.757 E0.12229
G1 X162.928 Y75.757 E2.37843
G1 X166.532 Y77.25 E0.12229
G1 X169.4 Y80.118 E0.12719
G1 X170.893 Y83.722 E0.12229
G1 X170.893 Y116.278 E1.02079
G1 X169.4 Y119.882 E0.12229
G1 X166.532 Y122.75 E0.12719
G1 X162.928 Y124.243 E0.12229
G1 X152.029 Y124.243 E0.34174
G1 X144.246 Y132.025 E0.34509
G1 X142.641 Y133.098 E0.06055
G1 X140.787 Y133.866 E0.0629
G1 X138.893 Y134.243 E0.06055
G1 X113.282 Y134.243 E0.80302
M73 Q1 S96
G1 X111.388 Y133.866 E0.06055
G1 X109.534 Y133.098 E0.0629
G1 X107.929 Y132.025 E0.06055
G1 X100.146 Y124.243 E0.34509
G1 X87.072 Y124.243 E0.40993
G1 X83.468 Y122.75 E0.12229
G1 X80.6 Y119.882 E0.12719
G1 X79.107 Y116.278 E0.12229
G1 X79.107 Y83.722 E1.02079
G1 X80.577 Y80.174 E0.12041
M204 P1500
G1 X80.748 Y80.253 F10800
M204 P1000
G1 X80.92 Y80.332
G1 F1200
G1 X83.682 Y77.57 E0.12248
G1 X87.147 Y76.134 E0.11759
G1 X162.853 Y76.134 E2.37372
G1 X166.318 Y77.57 E0.11759
G1 X169.08 Y80.332 E0.12248
G1 X170.516 Y83.797 E0.11759
G1 X170.516 Y116.203 E1.01609
G1 X169.08 Y119.668 E0.11759
G1 X166.318 Y122.43 E0.12248
M73 P1 R95
G1 X162.853 Y123.866 E0.11759
G1 X151.873 Y123.866 E0.34428
G1 X144.006 Y131.732 E0.34882
G1 X142.462 Y132.764 E0.05822
G1 X140.677 Y133.503 E0.06058
G1 X138.856 Y133.866 E0.05822
G1 X113.319 Y133.866 E0.80069
G1 X111.498 Y133.503 E0.05822
G1 X109.713 Y132.764 E0.06058
G1 X108.169 Y131.732 E0.05822
G1 X100.302 Y123.866 E0.34882
G1 X87.147 Y123.866 E0.41248
G1 X83.682 Y122.43 E0.11759
G1 X80.92 Y119.668 E0.12248
G1 X79.484 Y116.203 E0.11759
G1 X79.484 Y83.797 E1.01609
G1 X80.897 Y80.387 E0.11571
M204 P1500
G1 X81.068 Y80.466 F10800
M204 P1000
G1 X81.239 Y80.545
G1 F1200
G1 X83.896 Y77.889 E0.11778
G1 X87.222 Y76.511 E0.11288
G1 X162.778 Y76.511 E2.36902
G1 X166.104 Y77.889 E0.11288
G1 X168.761 Y80.545 E0.11778
G1 X170.138 Y83.872 E0.11288
G1 X170.138 Y116.128 E1.01139
G1 X168.761 Y119.455 E0.11288
G1 X166.104 Y122.111 E0.11778
G1 X162.778 Y123.489 E0.11288
G1 X151.717 Y123.489 E0.34683
G1 X143.766 Y131.439 E0.35256
G1 X142.283 Y132.43 E0.0559
G1 X140.567 Y133.141 E0.05825
G1 X138.819 Y133.489 E0.05589
G1 X113.356 Y133.489 E0.79836
G1 X111.608 Y133.141 E0.05589
G1 X109.892 Y132.43 E0.05825
G1 X108.409 Y131.439 E0.0559
G1 X100.458 Y123.489 E0.35256
G1 X87.222 Y123.489 E0.41503
G1 X83.896 Y122.111 E0.11288
G1 X81.239 Y119.455 E0.11778
G1 X79.862 Y116.128 E0.11288
G1 X79.862 Y83.872 E1.01139
G1 X81.216 Y80.601 E0.111
M204 P1500
G1 X81.388 Y80.68 F10800
M204 P1000
G1 X81.559 Y80.759
G1 F1200
G1 X84.109 Y78.209 E0.11308
G1 X87.297 Y76.889 E0.10818
G1 X162.703 Y76.889 E2.36432
G1 X165.891 Y78.209 E0.10818
G1 X168.441 Y80.759 E0.11308
G1 X169.761 Y83.947 E0.10818
G1 X169.761 Y116.053 E1.00668
G1 X168.441 Y119.241 E0.10818
G1 X165.891 Y121.791 E0.11308
G1 X162.703 Y123.111 E0.10818
G1 X151.56 Y123.111 E0.34938
G1 X143.525 Y131.147 E0.35629
G1 X142.105 Y132.096 E0.05357
G1 X140.457 Y132.778 E0.05592
G1 X138.782 Y133.111 E0.05356
G1 X113.393 Y133.111 E0.79603
G1 X111.718 Y132.778 E0.05356
G1 X110.07 Y132.096 E0.05592
G1 X108.65 Y131.147 E0.05357
G1 X100.615 Y123.111 E0.35629
G1 X87.297 Y123.111 E0.41757
G1 X84.109 Y121.791 E0.10818
G1 X81.559 Y119.241 E0.11308
G1 X80.239 Y116.053 E0.10818
G1 X80.239 Y83.947 E1.00668
M73 P2 R95
G1 X81.536 Y80.814 E0.1063
M204 P1500
G1 X81.707 Y80.894 F10800
M204 P1000
G1 X81.879 Y80.973
G1 F1200
G1 X84.323 Y78.529 E0.10837
G1 X87.372 Y77.266 E0.10348
G1 X162.628 Y77.266 E2.35961
M73 Q2 S96
G1 X165.677 Y78.529 E0.10348
G1 X168.121 Y80.973 E0.10837
G1 X169.384 Y84.022 E0.10348
G1 X169.384 Y115.978 E1.00198
G1 X168.121 Y119.027 E0.10348
G1 X165.677 Y121.471 E0.10837
G1 X162.628 Y122.734 E0.10348
G1 X151.404 Y122.734 E0.35192
G1 X143.285 Y130.854 E0.36002
G1 X141.926 Y131.762 E0.05124
G1 X140.347 Y132.416 E0.05359
G1 X138.744 Y132.734 E0.05124
G1 X113.431 Y132.734 E0.7937
G1 X111.828 Y132.416 E0.05124
G1 X110.249 Y131.762 E0.05359
G1 X108.89 Y130.854 E0.05124
G1 X100.771 Y122.734 E0.36002
G1 X87.372 Y122.734 E0.42012
G1 X84.323 Y121.471 E0.10348
G1 X81.879 Y119.027 E0.10837
G1 X80.616 Y115.978 E0.10348
G1 X80.616 Y84.022 E1.00198
G1 X81.856 Y81.028 E0.1016
M204 P1500
G1 X82.027 Y81.107 F10800
M204 P1000
G1 X82.198 Y81.186
G1 F1200
G1 X84.536 Y78.848 E0.10367
G1 X87.447 Y77.643 E0.09877
G1 X162.553 Y77.643 E2.35491
M73 Q2 S95
G1 X165.464 Y78.848 E0.09877
G1 X167.802 Y81.186 E0.10367
G1 X169.007 Y84.097 E0.09877
G1 X169.007 Y115.903 E0.99728
G1 X167.802 Y118.814 E0.09877
G1 X165.464 Y121.152 E0.10367
G1 X162.553 Y122.357 E0.09877
G1 X151.248 Y122.357 E0.35447
G1 X143.045 Y130.561 E0.36376
G1 X141.748 Y131.427 E0.04891
G1 X140.237 Y132.053 E0.05126
G1 X138.707 Y132.357 E0.04891
G1 X113.468 Y132.357 E0.79137
G1 X111.938 Y132.053 E0.04891
G1 X110.427 Y131.427 E0.05126
G1 X109.13 Y130.561 E0.04891
G1 X100.927 Y122.357 E0.36376
G1 X87.447 Y122.357 E0.42266
G1 X84.536 Y121.152 E0.09877
G1 X82.198 Y118.814 E0.10367
G1 X80.993 Y115.903 E0.09877
G1 X80.993 Y84.097 E0.99728
G1 X82.175 Y81.242 E0.09689
M204 P1500
G1 X82.347 Y81.321 F10800
M204 P1000
G1 X82.518 Y81.4
G1 F1200
G1 X84.75 Y79.168 E0.09897
G1 X87.522 Y78.02 E0.09407
G1 X162.478 Y78.02 E2.35021
M73 P2 R94
G1 X165.25 Y79.168 E0.09407
G1 X167.482 Y81.4 E0.09897
G1 X168.63 Y84.172 E0.09407
G1 X168.63 Y115.828 E0.99257
G1 X167.482 Y118.6 E0.09407
G1 X165.25 Y120.832 E0.09897
G1 X162.478 Y121.98 E0.09407
G1 X151.092 Y121.98 E0.35701
G1 X142.804 Y130.268 E0.36749
G1 X141.569 Y131.093 E0.04658
G1 X140.127 Y131.69 E0.04893
G1 X138.67 Y131.98 E0.04658
G1 X113.505 Y131.98 E0.78904
G1 X112.048 Y131.69 E0.04658
G1 X110.606 Y131.093 E0.04893
G1 X109.371 Y130.268 E0.04658
G1 X101.083 Y121.98 E0.36749
G1 X87.522 Y121.98 E0.42521
G1 X84.75 Y120.832 E0.09407
G1 X82.518 Y118.6 E0.09897
G1 X81.37 Y115.828 E0.09407
G1 X81.37 Y84.172 E0.99257
G1 X82.495 Y81.455 E0.09219
M204 P1500
G1 X82.666 Y81.534 F10800
M204 P1000
G1 X82.838 Y81.613
G1 F1200
G1 X84.964 Y79.488 E0.09426
G1 X87.597 Y78.397 E0.08937
G1 X162.403 Y78.397 E2.3455
G1 X165.036 Y79.488 E0.08937
G1 X167.162 Y81.613 E0.09426
G1 X168.253 Y84.247 E0.08937
G1 X168.253 Y115.753 E0.98787
G1 X167.162 Y118.387 E0.08937
G1 X165.036 Y120.512 E0.09426
G1 X162.403 Y121.603 E0.08937
G1 X150.936 Y121.603 E0.35956
G1 X142.564 Y129.975 E0.37122
G1 X141.39 Y130.759 E0.04425
G1 X140.017 Y131.328 E0.0466
G1 X138.633 Y131.603 E0.04425
G1 X113.542 Y131.603 E0.78671
G1 X112.158 Y131.328 E0.04425
G1 X110.785 Y130.759 E0.0466
G1 X109.611 Y129.975 E0.04425
G1 X101.239 Y121.603 E0.37122
G1 X87.597 Y121.603 E0.42775
G1 X84.964 Y120.512 E0.08937
G1 X82.838 Y118.387 E0.09426
G1 X81.747 Y115.753 E0.08937
G1 X81.747 Y84.247 E0.98787
G1 X82.815 Y81.669 E0.08749
M204 P1500
G1 X82.986 Y81.748 F10800
M204 P1000
G1 X83.157 Y81.827
G1 F1200
G1 X85.177 Y79.807 E0.08956
G1 X87.672 Y78.774 E0.08466
G1 X162.328 Y78.774 E2.3408
G1 X164.823 Y79.807 E0.08466
G1 X166.843 Y81.827 E0.08956
G1 X167.876 Y84.322 E0.08466
G1 X167.876 Y115.678 E0.98317
M73 P3 R94
G1 X166.843 Y118.173 E0.08466
G1 X164.823 Y120.193 E0.08956
G1 X162.328 Y121.226 E0.08466
G1 X150.779 Y121.226 E0.3621
G1 X142.323 Y129.682 E0.37495
M73 Q3 S95
G1 X141.212 Y130.425 E0.04192
G1 X139.907 Y130.965 E0.04427
G1 X138.596 Y131.226 E0.04192
G1 X113.579 Y131.226 E0.78438
G1 X112.268 Y130.965 E0.04192
G1 X110.963 Y130.425 E0.04427
G1 X109.852 Y129.682 E0.04192
G1 X101.396 Y121.226 E0.37495
G1 X87.672 Y121.226 E0.4303
G1 X85.177 Y120.193 E0.08466
G1 X83.157 Y118.173 E0.08956
G1 X82.124 Y115.678 E0.08466
G1 X82.124 Y84.322 E0.98317
G1 X83.134 Y81.882 E0.08278
M204 P1500
G1 X83.306 Y81.962 F10800
M204 P1000
G1 X83.477 Y82.041
G1 F1200
G1 X85.391 Y80.127 E0.08486
G1 X87.747 Y79.151 E0.07996
G1 X162.253 Y79.151 E2.3361
G1 X164.609 Y80.127 E0.07996
G1 X166.523 Y82.041 E0.08486
G1 X167.499 Y84.397 E0.07996
G1 X167.499 Y115.603 E0.97846
G1 X166.523 Y117.959 E0.07996
G1 X164.609 Y119.873 E0.08486
G1 X162.253 Y120.849 E0.07996
G1 X150.623 Y120.849 E0.36465
G1 X142.083 Y129.389 E0.37869
G1 X141.033 Y130.091 E0.03959
G1 X139.797 Y130.603 E0.04194
G1 X138.559 Y130.849 E0.03959
G1 X113.616 Y130.849 E0.78205
G1 X112.378 Y130.603 E0.03959
G1 X111.142 Y130.091 E0.04194
G1 X110.092 Y129.389 E0.03959
G1 X101.552 Y120.849 E0.37869
G1 X87.747 Y120.849 E0.43284
G1 X85.391 Y119.873 E0.07996
G1 X83.477 Y117.959 E0.08486
G1 X82.501 Y115.603 E0.07996
M73 Q3 S94
G1 X82.501 Y84.397 E0.97846
G1 X83.454 Y82.096 E0.07808
M204 P1500
G1 X83.625 Y82.175 F10800
M204 P1000
G1 X83.797 Y82.254
G1 F1200
G1 X85.604 Y80.447 E0.08015
G1 X87.822 Y79.528 E0.07526
G1 X162.178 Y79.528 E2.33139
G1 X164.396 Y80.447 E0.07526
G1 X166.203 Y82.254 E0.08015
G1 X167.122 Y84.472 E0.07526
G1 X167.122 Y115.528 E0.97376
G1 X166.203 Y117.746 E0.07526
G1 X164.396 Y119.553 E0.08015
G1 X162.178 Y120.472 E0.07526
G1 X150.467 Y120.472 E0.36719
G1 X141.843 Y129.096 E0.38242
G1 X140.855 Y129.757 E0.03726
G1 X139.687 Y130.24 E0.03961
G1 X138.522 Y130.472 E0.03726
G1 X113.653 Y130.472 E0.77973
G1 X112.488 Y130.24 E0.03726
G1 X111.321 Y129.757 E0.03961
G1 X110.332 Y129.096 E0.03726
G1 X101.708 Y120.472 E0.38242
M73 P3 R93
G1 X87.822 Y120.472 E0.43539
G1 X85.604 Y119.553 E0.07526
G1 X83.797 Y117.746 E0.08015
G1 X82.878 Y115.528 E0.07526
G1 X82.878 Y84.472 E0.97376
G1 X83.774 Y82.31 E0.07337
M204 P1500
G1 X83.945 Y82.389 F10800
M204 P1000
G1 X84.116 Y82.468
G1 F1200
G1 X85.818 Y80.766 E0.07545
G1 X87.897 Y79.905 E0.07055
G1 X162.103 Y79.905 E2.32669
G1 X164.182 Y80.766 E0.07055
G1 X165.884 Y82.468 E0.07545
G1 X166.745 Y84.547 E0.07055
G1 X166.745 Y115.453 E0.96905
G1 X165.884 Y117.532 E0.07055
G1 X164.182 Y119.234 E0.07545
G1 X162.103 Y120.095 E0.07055
G1 X150.311 Y120.095 E0.36974
G1 X141.602 Y128.803 E0.38615
G1 X140.676 Y129.422 E0.03493
G1 X139.577 Y129.877 E0.03729
G1 X138.484 Y130.095 E0.03493
G1 X113.691 Y130.095 E0.7774
G1 X112.598 Y129.877 E0.03493
G1 X111.499 Y129.422 E0.03729
G1 X110.573 Y128.803 E0.03493
G1 X101.864 Y120.095 E0.38615
G1 X87.897 Y120.095 E0.43794
G1 X85.818 Y119.234 E0.07055
G1 X84.116 Y117.532 E0.07545
G1 X83.255 Y115.453 E0.07055
G1 X83.255 Y84.547 E0.96906
G1 X84.093 Y82.523 E0.06867
M204 P1500
G1 X84.265 Y82.602 F10800
M204 P1000
G1 X84.436 Y82.681
G1 F1200
G1 X86.032 Y81.086 E0.07075
G1 X87.972 Y80.282 E0.06585
G1 X162.028 Y80.282 E2.32198
G1 X163.968 Y81.086 E0.06585
G1 X165.564 Y82.681 E0.07075
G1 X166.368 Y84.622 E0.06585
G1 X166.368 Y115.378 E0.96435
G1 X165.564 Y117.319 E0.06585
G1 X163.968 Y118.914 E0.07075
G1 X162.028 Y119.718 E0.06585
G1 X150.155 Y119.718 E0.37228
G1 X141.362 Y128.511 E0.38988
G1 X140.497 Y129.088 E0.03261
G1 X139.467 Y129.515 E0.03496
G1 X138.447 Y129.718 E0.0326
G1 X113.728 Y129.718 E0.77507
G1 X112.708 Y129.515 E0.0326
G1 X111.678 Y129.088 E0.03496
G1 X110.813 Y128.511 E0.03261
G1 X102.02 Y119.718 E0.38988
G1 X87.972 Y119.718 E0.44048
G1 X86.032 Y118.914 E0.06585
G1 X84.436 Y117.319 E0.07075
G1 X83.632 Y115.378 E0.06585
G1 X83.632 Y84.622 E0.96435
