; generated by SuperSlicer 2.3.57 on 2022-03-16 at 09:12:27 UTC

; 

; external perimeters extrusion width = 0.45mm
; perimeters extrusion width = 0.45mm
; infill extrusion width = 0.45mm
; solid infill extrusion width = 0.45mm
; top infill extrusion width = 0.40mm
; first layer extrusion width = 0.42mm

; object:{"name":"Black - Heatsink Support Front","id":"Black - Heatsink Support Front.stl id:0 copy 0","object_center":[125.000000,105.000000,0.000000],"boundingbox_center":[125.000000,105.000000,8.000014],"boundingbox_size":[42.000000,43.099991,16.000029]}
; Total objects to print: 1
M486 T1
; plater:{"center":[125.000000,105.000000,0.000000],"boundingbox_center":[125.000000,105.000000,8.000014],"boundingbox_size":[42.000000,43.099991,16.000029]}

M73 P0 R73
M73 Q0 S74
;TYPE:Custom
M862.3 P "MK3S" ; printer model check
M862.1 P0.4 ; nozzle diameter check
M115 U3.10.0 ; tell printer latest fw version
G90 ; use absolute coordinates
M83 ; extruder relative mode
M104 S255 ; set extruder temp
M140 S100 ; set bed temp
M190 S100 ; wait for bed temp
M109 S255 ; wait for extruder temp
G28 W ; home all without mesh bed level
G80 ; mesh bed leveling
G1 Y-3.0 F1000.0 ; go outside print area
G92 E0.0
G1 X60.0 E9.0 F1000.0 ; intro line
G1 X100.0 E12.5 F1000.0 ; intro line
G92 E0.0
M221 S95

; Don't change E values below. Excessive value can damage the printer.
M907 E430 ; set extruder motor current
M107
G21 ; set units to millimeters
G90 ; use absolute coordinates
M83 ; use relative distances for extrusion
M900 K0.04 ; Filament gcode LA 1.5
M900 K20 ; Filament gcode LA 1.0
M107
;LAYER_CHANGE
;Z:0.2
;HEIGHT:0.2
;BEFORE_LAYER_CHANGE
G92 E0.0
;0.2


G1 E-0.8 F2100
G1 Z0.4 F10800
;AFTER_LAYER_CHANGE
;0.2
G1 Z0.6
M204 P1500
G1 X94.858 Y79.789
G1 Z0.2
G1 E0.8 F2100
;TYPE:Skirt
;WIDTH:0.42
G1 F1200
G1 X96.836 Y77.702 E0.09015
G1 X103.792 Y73.346 E0.25735
G1 X106.844 Y72.466 E0.09957
G1 X120.111 Y72.444 E0.41599
G1 X120.243 Y72.439 E0.00414
G1 X122.662 Y72.283 E0.07601
G1 X122.922 Y72.272 E0.00814
G1 X124.108 Y72.25 E0.03719
G1 X124.231 Y72.249 E0.00388
G1 X126.357 Y72.256 E0.06665
G1 X126.528 Y72.259 E0.00537
G1 X127.718 Y72.299 E0.03732
G1 X127.94 Y72.31 E0.00697
G1 X129.393 Y72.416 E0.04567
G1 X129.964 Y72.444 E0.01794
G1 X143.087 Y72.45 E0.41145
G1 X146.131 Y73.321 E0.09929
G1 X153.146 Y77.686 E0.25906
G1 X155.138 Y79.782 E0.09065
G1 X156.581 Y82.39 E0.09345
G1 X157.301 Y85.173 E0.09015
G1 X157.302 Y101.415 E0.50924
G1 X157.373 Y104.416 E0.09411
G1 X157.373 Y104.681 E0.00832
G1 X157.302 Y107.685 E0.09423
G1 X157.301 Y125.619 E0.56231
G1 X156.866 Y127.805 E0.06986
G1 X155.985 Y129.933 E0.07221
G1 X154.747 Y131.785 E0.06986
G1 X151.235 Y135.297 E0.15571
G1 X149.382 Y136.535 E0.06987
G1 X147.254 Y137.416 E0.07222
G1 X145.069 Y137.851 E0.06987
G1 X104.931 Y137.851 E1.25849
G1 X102.746 Y137.416 E0.06987
G1 X100.618 Y136.535 E0.07222
G1 X98.765 Y135.297 E0.06987
G1 X95.253 Y131.785 E0.15571
G1 X94.015 Y129.933 E0.06986
G1 X93.134 Y127.805 E0.07221
G1 X92.699 Y125.619 E0.06986
G1 X92.698 Y107.686 E0.5623
G1 X92.627 Y104.686 E0.09409
G1 X92.627 Y104.42 E0.00832
G1 X92.698 Y101.415 E0.09426
G1 X92.699 Y85.173 E0.50925
G1 X93.419 Y82.39 E0.09015
G1 X94.829 Y79.842 E0.09132
G1 X94.994 Y79.933 F10800
M204 P1000
G1 X95.159 Y80.024
G1 F1200
G1 X97.077 Y77.997 E0.08751
G1 X103.948 Y73.694 E0.25419
G1 X106.897 Y72.843 E0.09625
G1 X120.118 Y72.821 E0.41452
G1 X120.261 Y72.816 E0.00451
G1 X122.682 Y72.659 E0.07606
G1 X122.933 Y72.649 E0.00786
G1 X124.113 Y72.627 E0.03699
G1 X124.232 Y72.626 E0.00375
G1 X126.353 Y72.633 E0.0665
G1 X126.519 Y72.636 E0.00519
G1 X127.702 Y72.675 E0.03712
G1 X127.916 Y72.687 E0.00674
G1 X129.37 Y72.793 E0.0457
G1 X129.955 Y72.821 E0.01836
G1 X143.034 Y72.827 E0.41008
G1 X145.977 Y73.669 E0.09598
G1 X152.906 Y77.981 E0.25589
G1 X154.831 Y80.007 E0.08763
G1 X156.228 Y82.53 E0.09044
G1 X156.924 Y85.221 E0.08714
G1 X156.925 Y101.419 E0.50788
G1 X156.996 Y104.42 E0.09411
G1 X156.996 Y104.676 E0.00804
G1 X156.925 Y107.681 E0.09423
G1 X156.924 Y125.582 E0.56128
G1 X156.503 Y127.695 E0.06753
G1 X155.65 Y129.754 E0.06988
G1 X154.454 Y131.545 E0.06753
G1 X150.995 Y135.004 E0.15338
G1 X149.204 Y136.201 E0.06754
G1 X147.144 Y137.054 E0.06989
G1 X145.032 Y137.474 E0.06754
G1 X104.968 Y137.474 E1.25616
G1 X102.856 Y137.054 E0.06754
G1 X100.796 Y136.201 E0.06989
G1 X99.005 Y135.004 E0.06754
G1 X95.546 Y131.545 E0.15338
G1 X94.35 Y129.754 E0.06753
G1 X93.497 Y127.695 E0.06988
G1 X93.076 Y125.582 E0.06753
G1 X93.075 Y107.681 E0.56128
G1 X93.004 Y104.681 E0.09409
G1 X93.004 Y104.425 E0.00804
G1 X93.075 Y101.419 E0.09426
G1 X93.076 Y85.221 E0.50788
G1 X93.772 Y82.53 E0.08714
G1 X95.13 Y80.077 E0.08793
M204 P1500
G1 X95.295 Y80.168 F10800
M204 P1000
G1 X95.46 Y80.26
G1 F1200
G1 X95.472 Y80.238 E0.00076
G1 X97.318 Y78.291 E0.08414
G1 X103.473 Y74.436 E0.22773
G1 X104.823 Y73.833 E0.04634
G1 X106.294 Y73.41 E0.04801
G1 X107.758 Y73.204 E0.04634
G1 X120.131 Y73.198 E0.38795
G1 X120.28 Y73.193 E0.00467
G1 X122.702 Y73.036 E0.07611
G1 X122.944 Y73.026 E0.00759
G1 X124.118 Y73.004 E0.03679
G1 X124.233 Y73.003 E0.00362
G1 X126.349 Y73.01 E0.06634
G1 X126.509 Y73.013 E0.00501
G1 X127.685 Y73.052 E0.03691
G1 X127.893 Y73.063 E0.00651
G1 X129.347 Y73.169 E0.04573
G1 X129.946 Y73.198 E0.01879
G1 X142.242 Y73.204 E0.38554
M73 Q0 S73
G1 X143.706 Y73.41 E0.04634
G1 X145.177 Y73.833 E0.04801
G1 X146.527 Y74.436 E0.04634
G1 X152.682 Y78.291 E0.22773
G1 X154.528 Y80.238 E0.08414
G1 X155.875 Y82.671 E0.08719
G1 X156.547 Y85.269 E0.08414
G1 X156.548 Y101.424 E0.50651
G1 X156.618 Y104.424 E0.09411
G1 X156.618 Y104.672 E0.00776
G1 X156.548 Y107.677 E0.09423
G1 X156.547 Y125.545 E0.56026
G1 X156.141 Y127.585 E0.0652
G1 X155.316 Y129.575 E0.06756
G1 X154.161 Y131.304 E0.0652
G1 X150.754 Y134.711 E0.15105
G1 X149.025 Y135.866 E0.06521
G1 X147.034 Y136.691 E0.06756
G1 X144.995 Y137.097 E0.06521
G1 X105.005 Y137.097 E1.25383
M73 P0 R72
G1 X102.966 Y136.691 E0.06521
G1 X100.975 Y135.866 E0.06756
G1 X99.246 Y134.711 E0.06521
G1 X95.839 Y131.304 E0.15105
G1 X94.684 Y129.575 E0.0652
G1 X93.859 Y127.585 E0.06756
G1 X93.453 Y125.545 E0.0652
G1 X93.452 Y107.677 E0.56025
G1 X93.382 Y104.677 E0.09409
G1 X93.382 Y104.429 E0.00776
G1 X93.452 Y101.424 E0.09426
G1 X93.453 Y85.269 E0.50652
G1 X94.125 Y82.671 E0.08414
G1 X95.431 Y80.312 E0.08455
M204 P1500
G1 X95.596 Y80.403 F10800
M204 P1000
G1 X95.761 Y80.495
G1 F1200
G1 X95.779 Y80.463 E0.00114
G1 X97.558 Y78.585 E0.08113
G1 X103.651 Y74.769 E0.2254
G1 X104.952 Y74.188 E0.04469
G1 X106.373 Y73.78 E0.04635
G1 X107.784 Y73.581 E0.04469
G1 X120.137 Y73.575 E0.38732
G1 X120.298 Y73.569 E0.00505
G1 X122.722 Y73.413 E0.07616
G1 X122.956 Y73.403 E0.00732
G1 X124.123 Y73.381 E0.03659
G1 X124.234 Y73.38 E0.00349
G1 X126.345 Y73.387 E0.06619
G1 X126.499 Y73.39 E0.00483
G1 X127.669 Y73.429 E0.03671
G1 X127.869 Y73.44 E0.00628
G1 X129.325 Y73.546 E0.04576
G1 X129.937 Y73.575 E0.01922
G1 X142.216 Y73.581 E0.38499
M73 P1 R72
M73 Q1 S73
G1 X143.627 Y73.78 E0.04469
G1 X145.048 Y74.188 E0.04635
G1 X146.349 Y74.769 E0.04469
G1 X152.442 Y78.585 E0.2254
G1 X154.221 Y80.463 E0.08113
G1 X155.522 Y82.812 E0.08419
G1 X156.17 Y85.317 E0.08113
G1 X156.171 Y101.428 E0.50515
G1 X156.241 Y104.429 E0.09411
G1 X156.241 Y104.668 E0.00749
G1 X156.171 Y107.672 E0.09423
G1 X156.17 Y125.508 E0.55923
G1 X155.778 Y127.475 E0.06288
G1 X154.982 Y129.397 E0.06523
G1 X153.868 Y131.064 E0.06288
G1 X150.514 Y134.418 E0.14872
G1 X148.847 Y135.532 E0.06288
G1 X146.924 Y136.328 E0.06523
G1 X144.957 Y136.72 E0.06288
G1 X105.043 Y136.72 E1.2515
G1 X103.076 Y136.328 E0.06288
G1 X101.153 Y135.532 E0.06523
G1 X99.486 Y134.418 E0.06288
G1 X96.132 Y131.064 E0.14872
G1 X95.018 Y129.397 E0.06288
G1 X94.222 Y127.475 E0.06523
G1 X93.83 Y125.508 E0.06288
G1 X93.829 Y107.672 E0.55923
G1 X93.759 Y104.672 E0.09409
G1 X93.759 Y104.434 E0.00749
G1 X93.829 Y101.428 E0.09426
G1 X93.83 Y85.317 E0.50515
G1 X94.478 Y82.812 E0.08113
G1 X95.732 Y80.547 E0.08117
M204 P1500
G1 X95.897 Y80.639 F10800
M204 P1000
G1 X96.062 Y80.73
G1 F1200
G1 X96.085 Y80.688 E0.00152
G1 X97.799 Y78.879 E0.07813
G1 X103.829 Y75.103 E0.22307
G1 X105.082 Y74.543 E0.04303
G1 X106.452 Y74.15 E0.04469
G1 X107.811 Y73.958 E0.04303
G1 X120.144 Y73.952 E0.38668
G1 X120.317 Y73.946 E0.00543
G1 X122.742 Y73.789 E0.07621
G1 X122.967 Y73.78 E0.00705
G1 X124.128 Y73.758 E0.03639
G1 X124.235 Y73.757 E0.00336
G1 X126.341 Y73.764 E0.06603
G1 X126.489 Y73.767 E0.00466
G1 X127.653 Y73.806 E0.0365
G1 X127.845 Y73.816 E0.00604
G1 X129.302 Y73.922 E0.0458
G1 X129.928 Y73.952 E0.01965
G1 X142.189 Y73.958 E0.38444
G1 X143.548 Y74.15 E0.04303
G1 X144.918 Y74.543 E0.04469
G1 X146.171 Y75.103 E0.04303
G1 X152.201 Y78.879 E0.22307
G1 X153.915 Y80.688 E0.07813
G1 X155.169 Y82.953 E0.08118
G1 X155.792 Y85.365 E0.07813
G1 X155.794 Y101.433 E0.50378
G1 X155.864 Y104.433 E0.09411
G1 X155.864 Y104.663 E0.00721
G1 X155.794 Y107.668 E0.09423
G1 X155.793 Y125.471 E0.55821
G1 X155.416 Y127.365 E0.06055
G1 X154.648 Y129.218 E0.0629
G1 X153.575 Y130.824 E0.06055
G1 X150.274 Y134.125 E0.14639
G1 X148.668 Y135.198 E0.06055
G1 X146.814 Y135.966 E0.0629
G1 X144.92 Y136.343 E0.06055
G1 X105.08 Y136.343 E1.24917
G1 X103.186 Y135.966 E0.06055
G1 X101.332 Y135.198 E0.0629
G1 X99.726 Y134.125 E0.06055
G1 X96.425 Y130.824 E0.14639
G1 X95.352 Y129.218 E0.06055
G1 X94.584 Y127.365 E0.0629
G1 X94.207 Y125.471 E0.06055
G1 X94.206 Y107.668 E0.5582
G1 X94.136 Y104.668 E0.09409
G1 X94.136 Y104.438 E0.00721
G1 X94.206 Y101.433 E0.09425
G1 X94.208 Y85.365 E0.50379
G1 X94.831 Y82.953 E0.07813
G1 X96.033 Y80.782 E0.07778
M204 P1500
G1 X96.198 Y80.874 F10800
M204 P1000
G1 X96.363 Y80.965
G1 F1200
G1 X96.392 Y80.912 E0.00189
G1 X98.04 Y79.173 E0.07512
G1 X104.006 Y75.436 E0.22074
G1 X105.212 Y74.899 E0.04138
G1 X106.531 Y74.519 E0.04304
G1 X107.838 Y74.335 E0.04138
G1 X120.15 Y74.329 E0.38605
G1 X120.335 Y74.323 E0.00581
G1 X122.762 Y74.166 E0.07626
G1 X122.978 Y74.157 E0.00678
G1 X124.133 Y74.135 E0.03619
G1 X124.236 Y74.134 E0.00324
G1 X126.337 Y74.141 E0.06588
G1 X126.48 Y74.144 E0.00448
G1 X127.636 Y74.182 E0.0363
G1 X127.822 Y74.192 E0.00581
G1 X129.279 Y74.298 E0.04583
G1 X129.919 Y74.329 E0.02007
G1 X142.162 Y74.335 E0.38389
G1 X143.469 Y74.519 E0.04138
G1 X144.788 Y74.899 E0.04304
G1 X145.994 Y75.436 E0.04138
G1 X151.96 Y79.173 E0.22074
G1 X153.608 Y80.912 E0.07512
G1 X154.816 Y83.093 E0.07818
G1 X155.415 Y85.413 E0.07512
G1 X155.417 Y101.437 E0.50242
G1 X155.487 Y104.438 E0.09411
G1 X155.487 Y104.659 E0.00693
G1 X155.417 Y107.663 E0.09423
G1 X155.415 Y125.434 E0.55718
G1 X155.053 Y127.255 E0.05822
G1 X154.314 Y129.039 E0.06057
G1 X153.282 Y130.583 E0.05822
G1 X150.033 Y133.832 E0.14406
G1 X148.489 Y134.864 E0.05822
G1 X146.704 Y135.603 E0.06058
G1 X144.883 Y135.966 E0.05822
G1 X105.117 Y135.966 E1.24684
G1 X103.296 Y135.603 E0.05822
G1 X101.511 Y134.864 E0.06058
G1 X99.967 Y133.832 E0.05822
G1 X96.718 Y130.583 E0.14406
G1 X95.686 Y129.039 E0.05822
G1 X94.947 Y127.255 E0.06057
G1 X94.585 Y125.434 E0.05822
G1 X94.583 Y107.663 E0.55717
G1 X94.513 Y104.663 E0.09409
G1 X94.513 Y104.442 E0.00693
G1 X94.583 Y101.437 E0.09425
G1 X94.585 Y85.413 E0.50242
G1 X95.184 Y83.093 E0.07512
G1 X96.334 Y81.018 E0.0744
M204 P1500
G1 X96.498 Y81.109 F10800
M204 P1000
G1 X96.663 Y81.2
G1 F1200
G1 X96.699 Y81.137 E0.00227
G1 X98.281 Y79.467 E0.07212
G1 X104.184 Y75.77 E0.21841
G1 X105.341 Y75.254 E0.03972
G1 X106.61 Y74.889 E0.04138
G1 X107.864 Y74.712 E0.03972
G1 X120.156 Y74.706 E0.38542
G1 X120.354 Y74.699 E0.00619
G1 X122.782 Y74.542 E0.07631
G1 X122.99 Y74.534 E0.00651
G1 X124.138 Y74.512 E0.03599
G1 X124.237 Y74.511 E0.00311
G1 X126.333 Y74.518 E0.06572
G1 X126.47 Y74.521 E0.0043
G1 X127.62 Y74.559 E0.03609
G1 X127.798 Y74.569 E0.00558
G1 X129.257 Y74.675 E0.04586
G1 X129.91 Y74.706 E0.0205
G1 X142.136 Y74.712 E0.38334
G1 X143.39 Y74.889 E0.03972
G1 X144.659 Y75.254 E0.04138
G1 X145.816 Y75.77 E0.03972
G1 X151.719 Y79.467 E0.21841
G1 X153.301 Y81.137 E0.07212
G1 X154.463 Y83.234 E0.07517
G1 X155.038 Y85.461 E0.07212
G1 X155.04 Y101.441 E0.50105
G1 X155.11 Y104.442 E0.09411
G1 X155.11 Y104.654 E0.00665
G1 X155.04 Y107.659 E0.09423
G1 X155.038 Y125.397 E0.55615
G1 X154.691 Y127.145 E0.05589
G1 X153.98 Y128.861 E0.05824
G1 X152.989 Y130.343 E0.05589
G1 X149.793 Y133.539 E0.14173
G1 X148.311 Y134.53 E0.0559
G1 X146.594 Y135.241 E0.05825
G1 X144.846 Y135.588 E0.05589
G1 X105.154 Y135.588 E1.24451
G1 X103.406 Y135.241 E0.05589
G1 X101.689 Y134.53 E0.05825
G1 X100.207 Y133.539 E0.0559
G1 X97.011 Y130.343 E0.14173
G1 X96.02 Y128.861 E0.05589
G1 X95.309 Y127.145 E0.05824
G1 X94.962 Y125.397 E0.05589
G1 X94.96 Y107.659 E0.55615
G1 X94.89 Y104.659 E0.09409
G1 X94.89 Y104.447 E0.00665
G1 X94.96 Y101.442 E0.09425
G1 X94.962 Y85.461 E0.50106
G1 X95.537 Y83.234 E0.07212
G1 X96.634 Y81.253 E0.07102
M204 P1500
G1 X96.799 Y81.344 F10800
M204 P1000
G1 X96.964 Y81.435
G1 F1200
G1 X97.005 Y81.361 E0.00265
G1 X98.521 Y79.761 E0.06911
G1 X104.362 Y76.104 E0.21608
G1 X105.471 Y75.609 E0.03807
G1 X106.689 Y75.259 E0.03973
G1 X107.891 Y75.089 E0.03807
G1 X120.163 Y75.083 E0.38478
M73 P2 R72
G1 X120.372 Y75.076 E0.00657
G1 X122.802 Y74.919 E0.07636
G1 X123.001 Y74.911 E0.00624
G1 X124.142 Y74.889 E0.03579
G1 X124.237 Y74.889 E0.00298
G1 X126.329 Y74.895 E0.06557
G1 X126.46 Y74.898 E0.00412
G1 X127.604 Y74.936 E0.03588
G1 X127.774 Y74.945 E0.00535
G1 X129.234 Y75.051 E0.04589
M73 Q2 S73
G1 X129.901 Y75.083 E0.02093
G1 X142.109 Y75.089 E0.38279
G1 X143.311 Y75.259 E0.03807
G1 X144.529 Y75.609 E0.03973
G1 X145.638 Y76.104 E0.03807
G1 X151.479 Y79.761 E0.21608
G1 X152.995 Y81.361 E0.06911
G1 X154.11 Y83.375 E0.07217
G1 X154.661 Y85.509 E0.06911
G1 X154.663 Y101.446 E0.49969
G1 X154.733 Y104.446 E0.09411
G1 X154.733 Y104.65 E0.00638
G1 X154.662 Y107.654 E0.09423
G1 X154.661 Y125.359 E0.55513
G1 X154.328 Y127.035 E0.05356
G1 X153.645 Y128.682 E0.05591
G1 X152.696 Y130.103 E0.05356
G1 X149.553 Y133.246 E0.1394
G1 X148.132 Y134.196 E0.05357
G1 X146.484 Y134.878 E0.05592
G1 X144.809 Y135.211 E0.05356
M73 Q2 S72
G1 X105.191 Y135.211 E1.24219
G1 X103.516 Y134.878 E0.05356
G1 X101.868 Y134.196 E0.05592
G1 X100.447 Y133.246 E0.05357
G1 X97.304 Y130.103 E0.1394
G1 X96.355 Y128.682 E0.05356
G1 X95.672 Y127.035 E0.05591
G1 X95.339 Y125.359 E0.05356
G1 X95.338 Y107.655 E0.55512
G1 X95.267 Y104.655 E0.09409
G1 X95.267 Y104.451 E0.00638
G1 X95.337 Y101.446 E0.09425
G1 X95.339 Y85.509 E0.49969
M73 P2 R71
G1 X95.89 Y83.375 E0.06911
G1 X96.935 Y81.488 E0.06763
M204 P1500
G1 X97.1 Y81.579 F10800
M204 P1000
G1 X97.265 Y81.671
G1 F1200
G1 X97.312 Y81.586 E0.00303
G1 X98.762 Y80.056 E0.06611
G1 X104.54 Y76.437 E0.21375
G1 X105.6 Y75.964 E0.03641
G1 X106.767 Y75.628 E0.03807
G1 X107.917 Y75.466 E0.03641
G1 X120.169 Y75.46 E0.38415
G1 X120.391 Y75.453 E0.00695
G1 X122.823 Y75.295 E0.07641
G1 X123.013 Y75.288 E0.00597
G1 X124.147 Y75.266 E0.03559
G1 X124.238 Y75.266 E0.00285
G1 X126.325 Y75.272 E0.06542
G1 X126.45 Y75.275 E0.00394
G1 X127.588 Y75.313 E0.03568
G1 X127.75 Y75.321 E0.00511
G1 X129.211 Y75.428 E0.04592
G1 X129.892 Y75.46 E0.02136
G1 X142.083 Y75.466 E0.38225
G1 X143.233 Y75.628 E0.03641
G1 X144.4 Y75.964 E0.03807
G1 X145.46 Y76.437 E0.03641
G1 X151.238 Y80.056 E0.21375
G1 X152.688 Y81.586 E0.06611
G1 X153.757 Y83.516 E0.06916
G1 X154.284 Y85.557 E0.06611
G1 X154.286 Y101.45 E0.49832
G1 X154.356 Y104.451 E0.09411
G1 X154.356 Y104.645 E0.0061
G1 X154.285 Y107.65 E0.09423
G1 X154.284 Y125.322 E0.5541
G1 X153.965 Y126.925 E0.05123
G1 X153.311 Y128.504 E0.05358
G1 X152.404 Y129.862 E0.05123
G1 X149.312 Y132.954 E0.13708
G1 X147.953 Y133.861 E0.05124
G1 X146.374 Y134.515 E0.05359
G1 X144.772 Y134.834 E0.05124
G1 X105.228 Y134.834 E1.23986
G1 X103.626 Y134.515 E0.05124
G1 X102.047 Y133.861 E0.05359
G1 X100.688 Y132.954 E0.05124
G1 X97.596 Y129.862 E0.13708
G1 X96.689 Y128.504 E0.05123
G1 X96.035 Y126.925 E0.05358
G1 X95.716 Y125.322 E0.05123
G1 X95.715 Y107.65 E0.5541
G1 X95.644 Y104.65 E0.09409
G1 X95.644 Y104.456 E0.0061
G1 X95.714 Y101.45 E0.09425
G1 X95.716 Y85.557 E0.49833
G1 X96.243 Y83.516 E0.06611
