; generated by SuperSlicer 2.3.57 on 2022-03-16 at 09:07:40 UTC

; 

; external perimeters extrusion width = 0.45mm
; perimeters extrusion width = 0.45mm
; infill extrusion width = 0.45mm
; solid infill extrusion width = 0.45mm
; top infill extrusion width = 0.40mm
; first layer extrusion width = 0.42mm

; object:{"name":"Black - Extruder Cable Strain Relief","id":"Black - Extruder Cable Strain Relief.stl id:0 copy 0","object_center":[125.000000,105.000000,0.000000],"boundingbox_center":[125.000000,105.000000,17.500000],"boundingbox_size":[15.273575,16.441650,35.000000]}
; Total objects to print: 1
M486 T1
; plater:{"center":[125.000000,105.000000,0.000000],"boundingbox_center":[125.000000,105.000000,17.500000],"boundingbox_size":[15.273575,16.441650,35.000000]}

M73 P0 R49
M73 Q0 S50
;TYPE:Custom
M862.3 P "MK3S" ; printer model check
M862.1 P0.4 ; nozzle diameter check
M115 U3.10.0 ; tell printer latest fw version
G90 ; use absolute coordinates
M83 ; extruder relative mode
M104 S255 ; set extruder temp
M140 S100 ; set bed temp
M190 S100 ; wait for bed temp
M109 S255 ; wait for extruder temp
G28 W ; home all without mesh bed level
G80 ; mesh bed leveling
G1 Y-3.0 F1000.0 ; go outside print area
G92 E0.0
G1 X60.0 E9.0 F1000.0 ; intro line
G1 X100.0 E12.5 F1000.0 ; intro line
G92 E0.0
M221 S95

; Don't change E values below. Excessive value can damage the printer.
M907 E430 ; set extruder motor current
M107
G21 ; set units to millimeters
G90 ; use absolute coordinates
M83 ; use relative distances for extrusion
M900 K0.04 ; Filament gcode LA 1.5
M900 K20 ; Filament gcode LA 1.0
;LAYER_CHANGE
;Z:0.2
;HEIGHT:0.2
;BEFORE_LAYER_CHANGE
G92 E0.0
;0.2


G1 E-0.8 F2100
G1 Z0.4 F10800
;AFTER_LAYER_CHANGE
;0.2
G1 Z0.6
M204 P1500
G1 X108.59 Y92.89
G1 Z0.2
G1 E0.8 F2100
;TYPE:Skirt
;WIDTH:0.42
G1 F1200
G1 X109.889 Y91.477 E0.06018
G1 X110.934 Y90.586 E0.04307
G1 X112.246 Y89.717 E0.04932
G1 X113.518 Y89.087 E0.04453
G1 X115.372 Y88.443 E0.06153
G1 X117.234 Y88.128 E0.05922
G1 X132.1 Y88.112 E0.46611
G1 X133.016 Y88.186 E0.02881
G1 X134.388 Y88.409 E0.04359
G1 X135.638 Y88.763 E0.04072
G1 X137.057 Y89.347 E0.0481
G1 X138.29 Y90.046 E0.04445
G1 X139.638 Y91.052 E0.05275
G1 X140.609 Y91.973 E0.04194
G1 X141.601 Y93.166 E0.04866
G1 X142.363 Y94.358 E0.04436
G1 X143.185 Y96.087 E0.06002
G1 X143.69 Y97.809 E0.05628
G1 X143.931 Y99.692 E0.05952
G1 X143.94 Y101.061 E0.04293
G1 X143.81 Y102.187 E0.03553
G1 X143.722 Y102.726 E0.01712
G1 X140.981 Y115.516 E0.41012
G1 X140.264 Y117.306 E0.06046
G1 X139.221 Y119.003 E0.06248
G1 X137.948 Y120.451 E0.06045
G1 X135.298 Y122.592 E0.10681
G1 X133.616 Y123.532 E0.06041
G1 X131.739 Y124.196 E0.06244
G1 X129.84 Y124.522 E0.06041
G1 X120.16 Y124.522 E0.3035
G1 X118.261 Y124.196 E0.06041
G1 X116.384 Y123.532 E0.06244
G1 X114.702 Y122.592 E0.06041
G1 X112.051 Y120.45 E0.10685
G1 X110.777 Y119. E0.06054
G1 X109.733 Y117.3 E0.06257
G1 X109.016 Y115.507 E0.06054
G1 X106.133 Y101.99 E0.43335
G1 X106.034 Y100.252 E0.05458
G1 X106.238 Y98.156 E0.06602
G1 X106.706 Y96.386 E0.0574
G1 X107.584 Y94.421 E0.06747
G1 X108.557 Y92.94 E0.05557
G1 X108.715 Y93.044 F10800
M204 P1000
G1 X108.872 Y93.148
G1 F1200
G1 X108.889 Y93.123 E0.00092
G1 X110.151 Y91.749 E0.0585
G1 X111.161 Y90.887 E0.04164
G1 X112.434 Y90.044 E0.04786
G1 X113.665 Y89.435 E0.04305
G1 X115.466 Y88.81 E0.0598
G1 X117.266 Y88.505 E0.05724
G1 X132.085 Y88.489 E0.46464
G1 X132.971 Y88.56 E0.02785
G1 X134.307 Y88.778 E0.04243
G1 X135.514 Y89.12 E0.03936
G1 X136.891 Y89.687 E0.04668
G1 X138.083 Y90.362 E0.04297
G1 X139.395 Y91.341 E0.05131
G1 X140.333 Y92.231 E0.04054
G1 X141.296 Y93.389 E0.04722
G1 X142.032 Y94.541 E0.04288
G1 X142.831 Y96.222 E0.05835
G1 X143.32 Y97.886 E0.0544
G1 X143.554 Y99.717 E0.05787
G1 X143.563 Y101.041 E0.0415
G1 X143.437 Y102.135 E0.03453
G1 X143.351 Y102.656 E0.01654
G1 X140.619 Y115.405 E0.40883
G1 X139.926 Y117.135 E0.05844
G1 X138.916 Y118.778 E0.06047
G1 X137.686 Y120.178 E0.05844
G1 X135.086 Y122.279 E0.10479
G1 X133.46 Y123.187 E0.0584
G1 X131.643 Y123.83 E0.06042
G1 X129.808 Y124.145 E0.05839
G1 X120.192 Y124.145 E0.30149
G1 X118.357 Y123.83 E0.05839
G1 X116.54 Y123.187 E0.06042
G1 X114.914 Y122.279 E0.05839
G1 X112.313 Y120.177 E0.10483
G1 X111.081 Y118.775 E0.05852
G1 X110.071 Y117.13 E0.06055
G1 X109.378 Y115.397 E0.05852
G1 X106.508 Y101.94 E0.43143
M73 Q0 S49
G1 X106.412 Y100.26 E0.05276
G1 X106.611 Y98.223 E0.06415
G1 X107.063 Y96.512 E0.05549
G1 X107.915 Y94.603 E0.06556
G1 X108.839 Y93.198 E0.05273
M204 P1500
G1 X108.997 Y93.301 F10800
M204 P1000
G1 X109.154 Y93.405
G1 F1200
G1 X109.187 Y93.356 E0.00185
G1 X110.413 Y92.021 E0.05682
G1 X111.389 Y91.189 E0.0402
G1 X112.622 Y90.372 E0.0464
G1 X113.811 Y89.784 E0.04156
G1 X115.56 Y89.176 E0.05807
G1 X117.298 Y88.882 E0.05527
G1 X132.07 Y88.866 E0.46317
G1 X132.925 Y88.935 E0.02689
G1 X134.225 Y89.146 E0.04127
G1 X135.391 Y89.477 E0.03801
G1 X136.726 Y90.026 E0.04526
G1 X137.877 Y90.679 E0.04149
G1 X139.152 Y91.63 E0.04987
G1 X140.057 Y92.489 E0.03914
G1 X140.991 Y93.612 E0.04578
G1 X141.702 Y94.724 E0.0414
G1 X142.478 Y96.357 E0.05667
G1 X142.95 Y97.964 E0.05252
G1 X143.177 Y99.742 E0.05622
G1 X143.185 Y101.02 E0.04007
G1 X143.063 Y102.083 E0.03353
G1 X142.98 Y102.586 E0.01597
G1 X140.257 Y115.295 E0.40754
G1 X139.588 Y116.965 E0.05643
G1 X138.612 Y118.554 E0.05845
G1 X137.424 Y119.905 E0.05642
G1 X134.874 Y121.965 E0.10278
G1 X133.304 Y122.843 E0.05638
G1 X131.548 Y123.464 E0.05841
G1 X129.776 Y123.768 E0.05638
G1 X120.224 Y123.768 E0.29948
G1 X118.452 Y123.464 E0.05638
G1 X116.696 Y122.843 E0.05841
G1 X115.126 Y121.965 E0.05638
G1 X112.575 Y119.904 E0.10282
G1 X111.386 Y118.551 E0.0565
G1 X110.409 Y116.96 E0.05853
G1 X109.74 Y115.287 E0.0565
G1 X106.882 Y101.889 E0.42951
G1 X106.791 Y100.267 E0.05094
G1 X106.983 Y98.29 E0.06228
G1 X107.42 Y96.638 E0.05358
G1 X108.247 Y94.785 E0.06364
G1 X109.121 Y93.455 E0.04989
M204 P1500
G1 X109.279 Y93.559 F10800
M204 P1000
G1 X109.437 Y93.662
G1 F1200
G1 X109.485 Y93.588 E0.00277
G1 X110.675 Y92.293 E0.05515
G1 X111.616 Y91.491 E0.03877
G1 X112.811 Y90.699 E0.04494
G1 X113.957 Y90.132 E0.04008
G1 X115.654 Y89.543 E0.05634
G1 X117.33 Y89.259 E0.05329
G1 X132.056 Y89.243 E0.46171
G1 X132.88 Y89.309 E0.02593
G1 X134.143 Y89.515 E0.04011
G1 X135.267 Y89.833 E0.03665
G1 X136.56 Y90.366 E0.04384
G1 X137.67 Y90.995 E0.04
G1 X138.908 Y91.919 E0.04843
G1 X139.782 Y92.747 E0.03774
G1 X140.686 Y93.835 E0.04434
G1 X141.371 Y94.908 E0.03992
G1 X142.125 Y96.491 E0.05499
G1 X142.58 Y98.041 E0.05065
G1 X142.8 Y99.768 E0.05456
G1 X142.808 Y101. E0.03864
G1 X142.689 Y102.031 E0.03253
G1 X142.61 Y102.515 E0.0154
G1 X139.895 Y115.184 E0.40624
G1 X139.25 Y116.795 E0.05441
G1 X138.307 Y118.329 E0.05644
G1 X137.162 Y119.632 E0.05441
G1 X134.662 Y121.652 E0.10076
G1 X133.148 Y122.498 E0.05437
G1 X131.453 Y123.097 E0.0564
G1 X129.744 Y123.391 E0.05437
G1 X120.256 Y123.391 E0.29746
G1 X118.547 Y123.097 E0.05437
G1 X116.852 Y122.498 E0.0564
G1 X115.338 Y121.652 E0.05437
M73 P1 R49
M73 Q1 S49
G1 X112.837 Y119.631 E0.1008
G1 X111.69 Y118.326 E0.05448
G1 X110.747 Y116.79 E0.05652
G1 X110.102 Y115.176 E0.05448
G1 X107.257 Y101.839 E0.4276
G1 X107.169 Y100.275 E0.04912
G1 X107.355 Y98.357 E0.06042
G1 X107.776 Y96.764 E0.05166
G1 X108.579 Y94.966 E0.06173
G1 X109.404 Y93.712 E0.04706
M204 P1500
G1 X109.561 Y93.816 F10800
M204 P1000
G1 X109.719 Y93.919
G1 F1200
G1 X109.783 Y93.821 E0.00369
G1 X110.937 Y92.565 E0.05347
G1 X111.843 Y91.793 E0.03733
G1 X112.999 Y91.027 E0.04348
G1 X114.103 Y90.481 E0.0386
G1 X115.748 Y89.909 E0.05461
G1 X117.362 Y89.636 E0.05132
G1 X132.041 Y89.62 E0.46024
G1 X132.834 Y89.684 E0.02497
G1 X134.061 Y89.884 E0.03895
G1 X135.144 Y90.19 E0.03529
G1 X136.395 Y90.706 E0.04242
G1 X137.464 Y91.312 E0.03852
G1 X138.665 Y92.208 E0.04699
G1 X139.506 Y93.006 E0.03634
G1 X140.381 Y94.058 E0.0429
G1 X141.041 Y95.091 E0.03844
G1 X141.771 Y96.626 E0.05332
G1 X142.209 Y98.119 E0.04877
G1 X142.423 Y99.793 E0.05291
G1 X142.431 Y100.979 E0.03721
G1 X142.316 Y101.978 E0.03153
G1 X142.239 Y102.445 E0.01483
G1 X139.533 Y115.074 E0.40495
G1 X138.912 Y116.625 E0.0524
G1 X138.003 Y118.104 E0.05442
G1 X136.9 Y119.359 E0.05239
G1 X134.45 Y121.338 E0.09875
G1 X132.992 Y122.153 E0.05235
G1 X131.357 Y122.731 E0.05438
G1 X129.711 Y123.013 E0.05235
G1 X120.289 Y123.013 E0.29545
G1 X118.643 Y122.731 E0.05235
G1 X117.008 Y122.153 E0.05438
G1 X115.55 Y121.338 E0.05235
G1 X113.099 Y119.358 E0.09879
G1 X111.995 Y118.101 E0.05246
G1 X111.085 Y116.62 E0.0545
G1 X110.464 Y115.066 E0.05247
G1 X107.632 Y101.789 E0.42568
G1 X107.547 Y100.283 E0.0473
G1 X107.728 Y98.424 E0.05855
G1 X108.133 Y96.89 E0.04975
G1 X108.911 Y95.148 E0.05981
G1 X109.686 Y93.97 E0.04422
M204 P1500
G1 X109.843 Y94.073 F10800
M204 P1000
G1 X110.001 Y94.177
G1 F1200
G1 X110.082 Y94.054 E0.00462
G1 X111.2 Y92.837 E0.0518
G1 X112.071 Y92.094 E0.03589
G1 X113.188 Y91.354 E0.04202
G1 X114.249 Y90.829 E0.03711
G1 X115.842 Y90.276 E0.05288
G1 X117.394 Y90.013 E0.04935
G1 X132.026 Y89.997 E0.45877
G1 X132.789 Y90.059 E0.02401
G1 X133.979 Y90.252 E0.0378
G1 X135.02 Y90.547 E0.03393
G1 X136.229 Y91.045 E0.041
G1 X137.257 Y91.628 E0.03704
G1 X138.422 Y92.497 E0.04555
G1 X139.23 Y93.264 E0.03495
G1 X140.076 Y94.281 E0.04146
G1 X140.711 Y95.274 E0.03696
G1 X141.418 Y96.761 E0.05164
G1 X141.839 Y98.196 E0.0469
G1 X142.046 Y99.818 E0.05126
G1 X142.054 Y100.959 E0.03577
G1 X141.942 Y101.926 E0.03053
G1 X141.869 Y102.375 E0.01426
G1 X139.171 Y114.964 E0.40366
M73 P1 R48
G1 X138.574 Y116.455 E0.05038
G1 X137.698 Y117.879 E0.05241
G1 X136.638 Y119.086 E0.05038
G1 X134.238 Y121.025 E0.09673
G1 X132.836 Y121.808 E0.05034
G1 X131.262 Y122.365 E0.05237
G1 X129.679 Y122.636 E0.05034
G1 X120.321 Y122.636 E0.29344
G1 X118.738 Y122.365 E0.05034
G1 X117.164 Y121.808 E0.05237
G1 X115.762 Y121.025 E0.05034
G1 X113.361 Y119.085 E0.09677
G1 X112.299 Y117.877 E0.05045
G1 X111.424 Y116.45 E0.05248
G1 X110.826 Y114.956 E0.05045
G1 X108.007 Y101.738 E0.42376
G1 X107.925 Y100.29 E0.04548
G1 X108.1 Y98.491 E0.05669
G1 X108.49 Y97.016 E0.04784
G1 X109.243 Y95.33 E0.0579
G1 X109.968 Y94.227 E0.04138
M204 P1500
G1 X110.125 Y94.33 F10800
M204 P1000
G1 X110.283 Y94.434
G1 F1200
G1 X110.38 Y94.286 E0.00554
G1 X111.462 Y93.109 E0.05012
G1 X112.298 Y92.396 E0.03446
G1 X113.376 Y91.682 E0.04056
G1 X114.395 Y91.178 E0.03563
G1 X115.936 Y90.642 E0.05115
G1 X117.426 Y90.39 E0.04737
G1 X132.011 Y90.375 E0.45731
G1 X132.744 Y90.433 E0.02305
G1 X133.897 Y90.621 E0.03664
G1 X134.897 Y90.904 E0.03258
G1 X136.064 Y91.385 E0.03959
G1 X137.051 Y91.944 E0.03556
G1 X138.178 Y92.786 E0.04411
G1 X138.954 Y93.522 E0.03355
G1 X139.771 Y94.504 E0.04003
G1 X140.38 Y95.457 E0.03549
G1 X141.064 Y96.896 E0.04996
G1 X141.469 Y98.274 E0.04502
G1 X141.67 Y99.843 E0.0496
G1 X141.676 Y100.939 E0.03434
G1 X141.569 Y101.874 E0.02953
G1 X141.498 Y102.305 E0.01369
G1 X138.809 Y114.853 E0.40237
G1 X138.236 Y116.285 E0.04837
G1 X137.394 Y117.654 E0.05039
G1 X136.376 Y118.813 E0.04836
G1 X134.026 Y120.711 E0.09472
G1 X132.68 Y121.463 E0.04833
G1 X131.166 Y121.999 E0.05035
G1 X129.647 Y122.259 E0.04833
G1 X120.353 Y122.259 E0.29142
G1 X118.834 Y121.999 E0.04833
G1 X117.32 Y121.463 E0.05035
G1 X115.974 Y120.711 E0.04833
G1 X113.623 Y118.812 E0.09476
G1 X112.604 Y117.652 E0.04843
G1 X111.762 Y116.28 E0.05046
G1 X111.188 Y114.846 E0.04843
G1 X108.382 Y101.688 E0.42184
G1 X108.303 Y100.298 E0.04366
G1 X108.472 Y98.558 E0.05482
G1 X108.847 Y97.142 E0.04592
G1 X109.575 Y95.511 E0.05599
G1 X110.25 Y94.484 E0.03854
M204 P1500
G1 X110.408 Y94.588 F10800
M204 P1000
G1 X110.565 Y94.691
G1 F1200
G1 X110.678 Y94.519 E0.00647
G1 X111.724 Y93.381 E0.04845
G1 X112.525 Y92.698 E0.03302
G1 X113.565 Y92.009 E0.0391
G1 X114.541 Y91.526 E0.03414
G1 X116.03 Y91.009 E0.04943
G1 X117.458 Y90.767 E0.0454
G1 X131.996 Y90.752 E0.45584
G1 X132.698 Y90.808 E0.02209
G1 X133.815 Y90.99 E0.03548
G1 X134.773 Y91.261 E0.03122
G1 X135.899 Y91.725 E0.03817
G1 X136.844 Y92.261 E0.03408
G1 X137.935 Y93.074 E0.04267
G1 X138.679 Y93.78 E0.03215
G1 X139.466 Y94.727 E0.03859
G1 X140.05 Y95.64 E0.03401
G1 X140.711 Y97.031 E0.04828
G1 X141.099 Y98.351 E0.04314
G1 X141.293 Y99.868 E0.04795
G1 X141.299 Y100.918 E0.03291
G1 X141.195 Y101.822 E0.02853
G1 X141.127 Y102.235 E0.01312
G1 X138.447 Y114.743 E0.40107
G1 X137.898 Y116.115 E0.04635
G1 X137.09 Y117.429 E0.04838
G1 X136.114 Y118.54 E0.04635
G1 X133.814 Y120.398 E0.09271
G1 X132.525 Y121.119 E0.04631
G1 X131.071 Y121.632 E0.04834
G1 X129.615 Y121.882 E0.04631
G1 X120.385 Y121.882 E0.28941
G1 X118.929 Y121.632 E0.04631
G1 X117.475 Y121.119 E0.04834
G1 X116.186 Y120.398 E0.04631
G1 X113.885 Y118.539 E0.09274
G1 X112.908 Y117.427 E0.04641
G1 X112.1 Y116.11 E0.04844
G1 X111.55 Y114.736 E0.04641
G1 X108.757 Y101.638 E0.41992
G1 X108.681 Y100.305 E0.04184
G1 X108.845 Y98.625 E0.05295
G1 X109.203 Y97.268 E0.04401
G1 X109.907 Y95.693 E0.05407
G1 X110.532 Y94.741 E0.0357
M204 P1500
G1 X110.69 Y94.845 F10800
M204 P1000
G1 X110.847 Y94.949
G1 F1200
G1 X110.977 Y94.752 E0.00739
G1 X111.986 Y93.653 E0.04677
G1 X112.752 Y93. E0.03159
G1 X113.753 Y92.337 E0.03764
G1 X114.687 Y91.875 E0.03266
G1 X116.124 Y91.376 E0.0477
G1 X117.489 Y91.144 E0.04342
G1 X131.981 Y91.129 E0.45437
G1 X132.653 Y91.183 E0.02113
G1 X133.733 Y91.358 E0.03432
G1 X134.649 Y91.618 E0.02986
G1 X135.733 Y92.064 E0.03675
G1 X136.637 Y92.577 E0.0326
G1 X137.691 Y93.363 E0.04123
G1 X138.403 Y94.038 E0.03075
G1 X139.161 Y94.949 E0.03715
G1 X139.719 Y95.824 E0.03253
G1 X140.358 Y97.166 E0.04661
G1 X140.728 Y98.429 E0.04127
G1 X140.916 Y99.894 E0.0463
G1 X140.922 Y100.898 E0.03148
G1 X140.822 Y101.77 E0.02753
G1 X140.757 Y102.165 E0.01255
G1 X138.085 Y114.632 E0.39978
G1 X137.56 Y115.945 E0.04433
G1 X136.785 Y117.205 E0.04636
G1 X135.852 Y118.267 E0.04433
G1 X133.602 Y120.084 E0.09069
G1 X132.369 Y120.774 E0.0443
G1 X130.976 Y121.266 E0.04633
G1 X129.583 Y121.505 E0.0443
G1 X120.417 Y121.505 E0.28739
G1 X119.024 Y121.266 E0.0443
G1 X117.631 Y120.774 E0.04633
G1 X116.398 Y120.084 E0.0443
G1 X114.148 Y118.266 E0.09072
G1 X113.213 Y117.202 E0.04439
G1 X112.438 Y115.941 E0.04643
G1 X111.912 Y114.626 E0.04439
G1 X109.131 Y101.588 E0.418
G1 X109.059 Y100.313 E0.04002
G1 X109.217 Y98.691 E0.05109
G1 X109.56 Y97.393 E0.0421
G1 X110.238 Y95.875 E0.05216
G1 X110.814 Y94.999 E0.03286
M204 P1500
G1 X110.972 Y95.102 F10800
M204 P1000
G1 X111.129 Y95.206
G1 F1200
G1 X111.275 Y94.984 E0.00831
G1 X112.248 Y93.925 E0.0451
G1 X112.98 Y93.301 E0.03015
G1 X113.942 Y92.664 E0.03618
G1 X114.833 Y92.223 E0.03117
G1 X116.218 Y91.742 E0.04597
G1 X117.521 Y91.522 E0.04145
G1 X131.966 Y91.506 E0.4529
M73 P2 R48
M73 Q2 S49
G1 X132.607 Y91.557 E0.02017
G1 X133.651 Y91.727 E0.03316
G1 X134.526 Y91.975 E0.0285
G1 X135.568 Y92.404 E0.03533
G1 X136.431 Y92.893 E0.03111
G1 X137.448 Y93.652 E0.03979
G1 X138.127 Y94.297 E0.02935
G1 X138.856 Y95.172 E0.03571
G1 X139.389 Y96.007 E0.03105
G1 X140.004 Y97.301 E0.04493
G1 X140.358 Y98.506 E0.03939
G1 X140.539 Y99.919 E0.04464
G1 X140.545 Y100.877 E0.03005
G1 X140.448 Y101.718 E0.02653
G1 X140.386 Y102.095 E0.01198
G1 X137.724 Y114.522 E0.39849
G1 X137.221 Y115.775 E0.04232
G1 X136.481 Y116.98 E0.04435
G1 X135.59 Y117.993 E0.04232
G1 X133.39 Y119.771 E0.08868
G1 X132.213 Y120.429 E0.04229
G1 X130.88 Y120.9 E0.04431
G1 X129.551 Y121.128 E0.04229
G1 X120.449 Y121.128 E0.28538
G1 X119.12 Y120.9 E0.04229
G1 X117.787 Y120.429 E0.04431
G1 X116.61 Y119.771 E0.04229
G1 X114.41 Y117.993 E0.08871
G1 X113.517 Y116.978 E0.04237
G1 X112.776 Y115.771 E0.04441
G1 X112.274 Y114.516 E0.04238
G1 X109.506 Y101.537 E0.41608
G1 X109.437 Y100.321 E0.0382
G1 X109.589 Y98.758 E0.04922
G1 X109.917 Y97.519 E0.04018
G1 X110.57 Y96.056 E0.05024
G1 X111.096 Y95.256 E0.03002
M204 P1500
G1 X111.254 Y95.36 F10800
M204 P1000
G1 X111.411 Y95.463
G1 F1200
G1 X111.573 Y95.217 E0.00924
G1 X112.51 Y94.197 E0.04342
G1 X113.207 Y93.603 E0.02872
G1 X114.13 Y92.991 E0.03472
G1 X114.979 Y92.571 E0.02969
G1 X116.312 Y92.109 E0.04424
G1 X117.553 Y91.899 E0.03948
G1 X131.951 Y91.883 E0.45144
G1 X132.562 Y91.932 E0.01921
