; generated by SuperSlicer 2.3.57 on 2022-03-16 at 09:07:09 UTC

; 

; external perimeters extrusion width = 0.45mm
; perimeters extrusion width = 0.45mm
; infill extrusion width = 0.45mm
; solid infill extrusion width = 0.45mm
; top infill extrusion width = 0.40mm
; first layer extrusion width = 0.42mm

; object:{"name":"Black - Bearing Holder","id":"Black - Bearing Holder.stl id:0 copy 0","object_center":[138.677423,95.595821,0.000000],"boundingbox_center":[138.677423,95.595821,12.000000],"boundingbox_size":[28.000000,16.598358,24.000000]}
; object:{"name":"Black - Bearing Holder","id":"Black - Bearing Holder.stl id:0 copy 1","object_center":[138.677423,114.404179,0.000000],"boundingbox_center":[138.677423,114.404179,12.000000],"boundingbox_size":[28.000000,16.598358,24.000000]}
; object:{"name":"Black - Bearing Holder","id":"Black - Bearing Holder.stl id:0 copy 2","object_center":[111.322578,104.998523,0.000000],"boundingbox_center":[111.322578,104.998523,12.000000],"boundingbox_size":[28.000000,16.598358,24.000000]}
; Total objects to print: 3
M486 T3
; plater:{"center":[125.000000,105.000000,0.000000],"boundingbox_center":[125.000000,105.000000,12.000000],"boundingbox_size":[55.354845,35.406716,24.000000]}

M73 P0 R92
M73 Q0 S93
;TYPE:Custom
M862.3 P "MK3S" ; printer model check
M862.1 P0.4 ; nozzle diameter check
M115 U3.10.0 ; tell printer latest fw version
G90 ; use absolute coordinates
M83 ; extruder relative mode
M104 S255 ; set extruder temp
M140 S100 ; set bed temp
M190 S100 ; wait for bed temp
M109 S255 ; wait for extruder temp
G28 W ; home all without mesh bed level
G80 ; mesh bed leveling
G1 Y-3.0 F1000.0 ; go outside print area
G92 E0.0
G1 X60.0 E9.0 F1000.0 ; intro line
G1 X100.0 E12.5 F1000.0 ; intro line
G92 E0.0
M221 S95

; Don't change E values below. Excessive value can damage the printer.
M907 E430 ; set extruder motor current
M107
G21 ; set units to millimeters
G90 ; use absolute coordinates
M83 ; use relative distances for extrusion
M900 K0.04 ; Filament gcode LA 1.5
M900 K20 ; Filament gcode LA 1.0
;LAYER_CHANGE
;Z:0.2
;HEIGHT:0.2
;BEFORE_LAYER_CHANGE
G92 E0.0
;0.2


G1 E-0.8 F2100
G1 Z0.4 F10800
;AFTER_LAYER_CHANGE
;0.2
G1 Z0.6
M204 P1500
G1 X89.171 Y89.171
G1 Z0.2
G1 E0.8 F2100
;TYPE:Skirt
;WIDTH:0.42
G1 F1200
G1 X91.037 Y87.306 E0.0827
G1 X95.194 Y85.584 E0.14111
G1 X107.552 Y85.584 E0.38748
G1 X111.326 Y87.147 E0.12806
G1 X113.377 Y86.298 E0.0696
G1 X113.377 Y85.354 E0.02958
G1 X115.099 Y81.196 E0.14111
G1 X118.391 Y77.904 E0.146
G1 X122.549 Y76.181 E0.14111
G1 X134.907 Y76.181 E0.38748
G1 X138.681 Y77.744 E0.12806
G1 X142.448 Y76.184 E0.12785
G1 X154.806 Y76.184 E0.38748
G1 X158.964 Y77.906 E0.14111
G1 X162.256 Y81.199 E0.146
G1 X163.978 Y85.357 E0.1411
G1 X163.978 Y92.94 E0.23777
G1 X163.708 Y94.674 E0.05504
G1 X163.154 Y96.402 E0.05689
G1 X162.368 Y97.972 E0.05504
G1 X161.474 Y99.225 E0.04827
G1 X162.256 Y100.007 E0.03468
G1 X163.978 Y104.165 E0.1411
G1 X163.978 Y111.748 E0.23777
G1 X163.708 Y113.483 E0.05504
G1 X163.154 Y115.211 E0.05689
G1 X162.368 Y116.78 E0.05504
G1 X156.086 Y125.589 E0.33924
G1 X155.581 Y126.201 E0.02486
G1 X153.917 Y127.953 E0.07577
G1 X153.3 Y128.514 E0.02614
G1 X151.38 Y130.016 E0.07643
G1 X150.688 Y130.48 E0.02615
G1 X148.568 Y131.684 E0.07643
G1 X147.814 Y132.041 E0.02615
G1 X145.541 Y132.921 E0.07643
G1 X144.743 Y133.163 E0.02615
G1 X142.365 Y133.699 E0.07643
G1 X141.54 Y133.822 E0.02615
G1 X139.109 Y134.003 E0.07643
G1 X138.275 Y134.004 E0.02615
G1 X135.843 Y133.826 E0.07643
G1 X135.018 Y133.704 E0.02615
G1 X132.639 Y133.171 E0.07643
G1 X131.841 Y132.929 E0.02615
G1 X129.567 Y132.053 E0.07643
G1 X128.813 Y131.696 E0.02615
G1 X126.691 Y130.495 E0.07643
G1 X125.998 Y130.032 E0.02615
G1 X124.076 Y128.532 E0.07643
G1 X123.458 Y127.972 E0.02615
G1 X121.789 Y126.219 E0.0759
G1 X121.28 Y125.603 E0.02505
G1 X119.444 Y123.028 E0.09915
G1 X118.186 Y123.515 E0.04229
G1 X117.388 Y123.758 E0.02615
G1 X115.01 Y124.294 E0.07643
G1 X114.185 Y124.417 E0.02615
G1 X111.754 Y124.598 E0.07643
G1 X110.92 Y124.598 E0.02615
G1 X108.488 Y124.42 E0.07643
G1 X107.663 Y124.298 E0.02615
G1 X105.285 Y123.765 E0.07643
G1 X104.486 Y123.524 E0.02615
G1 X102.212 Y122.647 E0.07643
G1 X101.458 Y122.291 E0.02615
G1 X99.336 Y121.089 E0.07643
G1 X98.643 Y120.626 E0.02615
G1 X96.721 Y119.127 E0.07643
G1 X96.103 Y118.566 E0.02615
G1 X94.434 Y116.813 E0.0759
G1 X93.925 Y116.197 E0.02505
G1 X87.633 Y107.375 E0.33976
G1 X86.846 Y105.805 E0.05506
G1 X86.292 Y104.077 E0.0569
G1 X86.022 Y102.343 E0.05504
G1 X86.022 Y94.757 E0.23785
G1 X87.744 Y90.599 E0.14111
G1 X89.129 Y89.214 E0.06142
G1 X89.262 Y89.347 F10800
M204 P1000
G1 X89.396 Y89.48
G1 F1200
G1 X91.25 Y87.626 E0.08223
G1 X95.269 Y85.961 E0.1364
G1 X107.477 Y85.961 E0.38277
G1 X111.326 Y87.555 E0.1306
G1 X113.754 Y86.55 E0.0824
G1 X113.754 Y85.429 E0.03513
G1 X115.418 Y81.41 E0.1364
G1 X118.605 Y78.223 E0.1413
G1 X122.624 Y76.558 E0.1364
G1 X134.832 Y76.558 E0.38277
G1 X138.681 Y78.153 E0.1306
G1 X142.523 Y76.561 E0.13039
G1 X154.731 Y76.561 E0.38277
G1 X158.75 Y78.226 E0.1364
G1 X161.936 Y81.412 E0.1413
G1 X163.601 Y85.432 E0.1364
G1 X163.601 Y92.911 E0.2345
G1 X163.339 Y94.587 E0.05321
G1 X162.804 Y96.26 E0.05505
G1 X162.044 Y97.777 E0.05321
G1 X160.982 Y99.266 E0.05736
G1 X161.936 Y100.221 E0.04234
G1 X163.601 Y104.24 E0.1364
G1 X163.601 Y111.719 E0.2345
G1 X163.339 Y113.396 E0.05321
G1 X162.804 Y115.068 E0.05505
G1 X162.044 Y116.585 E0.05321
G1 X155.786 Y125.359 E0.33791
G1 X155.299 Y125.951 E0.02403
G1 X153.653 Y127.683 E0.07492
G1 X153.057 Y128.225 E0.02527
G1 X151.159 Y129.71 E0.07556
G1 X150.489 Y130.159 E0.02528
G1 X148.394 Y131.349 E0.07556
G1 X147.665 Y131.694 E0.02528
G1 X145.417 Y132.564 E0.07556
G1 X144.646 Y132.799 E0.02528
G1 X142.295 Y133.329 E0.07556
G1 X141.498 Y133.447 E0.02528
G1 X139.094 Y133.626 E0.07556
G1 X138.288 Y133.627 E0.02528
G1 X135.885 Y133.451 E0.07556
G1 X135.087 Y133.333 E0.02528
G1 X132.735 Y132.806 E0.07556
G1 X131.964 Y132.572 E0.02528
G1 X129.715 Y131.706 E0.07556
G1 X128.986 Y131.361 E0.02528
G1 X126.889 Y130.174 E0.07556
G1 X126.219 Y129.726 E0.02528
G1 X124.319 Y128.243 E0.07556
G1 X123.721 Y127.702 E0.02528
G1 X122.071 Y125.969 E0.07504
G1 X121.579 Y125.373 E0.02422
G1 X119.581 Y122.571 E0.10791
G1 X118.063 Y123.158 E0.05103
G1 X117.291 Y123.393 E0.02528
G1 X114.94 Y123.923 E0.07556
G1 X114.143 Y124.042 E0.02528
G1 X111.74 Y124.221 E0.07556
G1 X110.933 Y124.221 E0.02528
G1 X108.53 Y124.045 E0.07556
G1 X107.732 Y123.927 E0.02528
G1 X105.381 Y123.4 E0.07556
G1 X104.609 Y123.167 E0.02528
G1 X102.36 Y122.3 E0.07556
G1 X101.631 Y121.956 E0.02528
G1 X99.534 Y120.768 E0.07556
G1 X98.864 Y120.32 E0.02528
G1 X96.964 Y118.838 E0.07556
G1 X96.366 Y118.296 E0.02528
G1 X94.716 Y116.563 E0.07504
G1 X94.224 Y115.967 E0.02422
G1 X87.957 Y107.18 E0.33843
G1 X87.196 Y105.663 E0.05322
G1 X86.661 Y103.99 E0.05506
G1 X86.399 Y102.313 E0.05321
G1 X86.399 Y94.832 E0.23458
G1 X88.064 Y90.813 E0.1364
G1 X89.353 Y89.523 E0.05719
M204 P1500
G1 X89.487 Y89.656 F10800
M204 P1000
G1 X89.62 Y89.79
G1 F1200
G1 X91.464 Y87.946 E0.08176
G1 X95.344 Y86.338 E0.1317
G1 X107.402 Y86.338 E0.37807
G1 X111.283 Y87.946 E0.1317
G1 X111.324 Y87.987 E0.00182
G1 X111.362 Y87.948 E0.0017
G1 X114.131 Y86.801 E0.09395
G1 X114.131 Y85.504 E0.04068
G1 X115.738 Y81.623 E0.1317
G1 X118.819 Y78.543 E0.1366
G1 X122.699 Y76.936 E0.1317
G1 X134.757 Y76.936 E0.37807
G1 X138.638 Y78.543 E0.1317
G1 X138.679 Y78.584 E0.00182
G1 X138.717 Y78.545 E0.0017
G1 X142.598 Y76.938 E0.1317
G1 X154.656 Y76.938 E0.37807
G1 X158.536 Y78.546 E0.1317
G1 X161.617 Y81.626 E0.1366
G1 X163.224 Y85.507 E0.1317
G1 X163.224 Y92.881 E0.23123
G1 X162.971 Y94.5 E0.05137
G1 X162.454 Y96.117 E0.05322
G1 X161.72 Y97.582 E0.05137
G1 X160.489 Y99.307 E0.06645
G1 X161.617 Y100.434 E0.04999
G1 X163.224 Y104.315 E0.1317
G1 X163.224 Y111.69 E0.23123
G1 X162.971 Y113.309 E0.05137
G1 X162.454 Y114.925 E0.05322
G1 X161.72 Y116.39 E0.05137
G1 X155.487 Y125.13 E0.33658
G1 X155.016 Y125.701 E0.0232
G1 X153.39 Y127.414 E0.07407
G1 X152.814 Y127.937 E0.0244
G1 X150.938 Y129.405 E0.07468
G1 X150.291 Y129.838 E0.02441
G1 X148.219 Y131.014 E0.07469
G1 X147.516 Y131.348 E0.02441
G1 X145.294 Y132.207 E0.07469
G1 X144.55 Y132.434 E0.02441
G1 X142.226 Y132.958 E0.07469
G1 X141.456 Y133.072 E0.02441
G1 X139.08 Y133.249 E0.07469
G1 X138.302 Y133.25 E0.02441
G1 X135.926 Y133.076 E0.07469
G1 X135.156 Y132.962 E0.02441
G1 X132.832 Y132.441 E0.07469
G1 X132.087 Y132.216 E0.02441
G1 X129.864 Y131.359 E0.07469
G1 X129.16 Y131.026 E0.02441
G1 X127.087 Y129.853 E0.07469
G1 X126.44 Y129.42 E0.02441
G1 X124.562 Y127.955 E0.07469
G1 X123.985 Y127.432 E0.02441
G1 X122.353 Y125.718 E0.07419
M73 Q0 S92
G1 X121.879 Y125.143 E0.02338
G1 X119.718 Y122.114 E0.11668
G1 X117.94 Y122.801 E0.05978
G1 X117.195 Y123.028 E0.02441
G1 X114.871 Y123.552 E0.07469
G1 X114.101 Y123.667 E0.02441
G1 X111.725 Y123.844 E0.07469
G1 X110.947 Y123.844 E0.02441
G1 X108.571 Y123.67 E0.07469
G1 X107.801 Y123.556 E0.02441
G1 X105.477 Y123.036 E0.07469
G1 X104.732 Y122.81 E0.02441
G1 X102.509 Y121.953 E0.07469
G1 X101.805 Y121.621 E0.02441
G1 X99.732 Y120.447 E0.07469
G1 X99.085 Y120.014 E0.02441
G1 X97.207 Y118.549 E0.07469
G1 X96.63 Y118.026 E0.02441
G1 X94.999 Y116.313 E0.07419
G1 X94.524 Y115.737 E0.02338
G1 X88.281 Y106.985 E0.33709
G1 X87.546 Y105.52 E0.05139
G1 X87.029 Y103.903 E0.05323
G1 X86.776 Y102.284 E0.05138
G1 X86.776 Y94.907 E0.23131
G1 X88.383 Y91.026 E0.1317
G1 X89.577 Y89.832 E0.05295
M204 P1500
G1 X89.711 Y89.965 F10800
M204 P1000
G1 X89.844 Y90.099
G1 F1200
G1 X91.677 Y88.265 E0.08129
G1 X95.419 Y86.715 E0.12699
G1 X107.327 Y86.715 E0.37337
G1 X111.069 Y88.265 E0.127
G1 X111.324 Y88.52 E0.01129
G1 X111.576 Y88.268 E0.01117
G1 X114.508 Y87.053 E0.0995
G1 X114.508 Y85.579 E0.04623
G1 X116.058 Y81.837 E0.12699
G1 X119.032 Y78.863 E0.13189
G1 X122.774 Y77.313 E0.12699
G1 X134.682 Y77.313 E0.37337
G1 X138.424 Y78.863 E0.127
G1 X138.679 Y79.117 E0.01129
G1 X138.931 Y78.865 E0.01117
G1 X142.673 Y77.315 E0.12699
G1 X154.581 Y77.315 E0.37337
G1 X158.323 Y78.865 E0.127
G1 X161.297 Y81.84 E0.13189
G1 X162.847 Y85.582 E0.12699
G1 X162.847 Y92.852 E0.22796
G1 X162.603 Y94.413 E0.04954
G1 X162.104 Y95.974 E0.05138
G1 X161.396 Y97.386 E0.04954
G1 X159.997 Y99.348 E0.07554
G1 X161.297 Y100.648 E0.05765
G1 X162.847 Y104.39 E0.12699
G1 X162.847 Y111.66 E0.22796
G1 X162.603 Y113.221 E0.04954
G1 X162.104 Y114.782 E0.05138
M73 P0 R91
G1 X161.396 Y116.195 E0.04954
G1 X155.188 Y124.9 E0.33525
G1 X154.734 Y125.45 E0.02237
G1 X153.126 Y127.144 E0.07322
G1 X152.57 Y127.648 E0.02352
G1 X150.716 Y129.099 E0.07381
G1 X150.093 Y129.517 E0.02354
G1 X148.045 Y130.679 E0.07382
G1 X147.367 Y131.001 E0.02354
G1 X145.171 Y131.85 E0.07382
G1 X144.453 Y132.069 E0.02354
G1 X142.156 Y132.587 E0.07382
G1 X141.414 Y132.697 E0.02354
G1 X139.066 Y132.872 E0.07382
G1 X138.316 Y132.873 E0.02354
G1 X135.967 Y132.701 E0.07382
G1 X135.225 Y132.591 E0.02354
G1 X132.928 Y132.076 E0.07382
G1 X132.209 Y131.859 E0.02354
G1 X130.012 Y131.012 E0.07382
G1 X129.334 Y130.691 E0.02354
G1 X127.285 Y129.531 E0.07382
G1 X126.661 Y129.114 E0.02354
G1 X124.805 Y127.666 E0.07382
G1 X124.248 Y127.162 E0.02354
G1 X122.636 Y125.468 E0.07334
G1 X122.178 Y124.913 E0.02255
G1 X119.855 Y121.656 E0.12544
G1 X117.816 Y122.445 E0.06852
G1 X117.098 Y122.663 E0.02354
G1 X114.802 Y123.181 E0.07382
G1 X114.059 Y123.292 E0.02354
G1 X111.711 Y123.467 E0.07382
G1 X110.961 Y123.467 E0.02354
G1 X108.613 Y123.295 E0.07382
G1 X107.87 Y123.185 E0.02354
G1 X105.573 Y122.671 E0.07382
G1 X104.854 Y122.453 E0.02354
G1 X102.657 Y121.606 E0.07382
G1 X101.979 Y121.286 E0.02354
G1 X99.93 Y120.126 E0.07382
G1 X99.306 Y119.709 E0.02354
G1 X97.45 Y118.26 E0.07382
G1 X96.894 Y117.756 E0.02354
G1 X95.281 Y116.062 E0.07334
G1 X94.823 Y115.508 E0.02255
G1 X88.605 Y106.79 E0.33576
G1 X87.896 Y105.377 E0.04955
G1 X87.397 Y103.816 E0.05139
G1 X87.153 Y102.255 E0.04954
G1 X87.153 Y94.982 E0.22804
G1 X88.703 Y91.24 E0.12699
G1 X89.802 Y90.141 E0.04872
M204 P1500
G1 X89.935 Y90.274 F10800
M204 P1000
G1 X90.068 Y90.408
G1 F1200
G1 X91.891 Y88.585 E0.08082
G1 X95.494 Y87.092 E0.12229
G1 X107.252 Y87.092 E0.36866
G1 X110.856 Y88.585 E0.12229
G1 X111.324 Y89.053 E0.02076
G1 X111.789 Y88.588 E0.02065
G1 X114.885 Y87.305 E0.10505
G1 X114.885 Y85.654 E0.05178
G1 X116.377 Y82.051 E0.12229
G1 X119.246 Y79.182 E0.12719
G1 X122.849 Y77.69 E0.12229
G1 X134.607 Y77.69 E0.36866
M73 P1 R91
M73 Q1 S92
G1 X138.211 Y79.182 E0.12229
G1 X138.679 Y79.65 E0.02076
G1 X139.144 Y79.185 E0.02065
G1 X142.748 Y77.692 E0.12229
G1 X154.506 Y77.692 E0.36866
G1 X158.109 Y79.185 E0.12229
G1 X160.977 Y82.053 E0.12719
G1 X162.47 Y85.657 E0.12229
G1 X162.47 Y92.823 E0.22469
G1 X162.235 Y94.326 E0.0477
G1 X161.754 Y95.831 E0.04955
G1 X161.072 Y97.191 E0.0477
G1 X159.505 Y99.389 E0.08463
G1 X160.977 Y100.862 E0.0653
G1 X162.47 Y104.465 E0.12229
G1 X162.47 Y111.631 E0.22469
G1 X162.235 Y113.134 E0.0477
G1 X161.754 Y114.639 E0.04955
G1 X161.072 Y116. E0.0477
G1 X154.888 Y124.67 E0.33391
G1 X154.451 Y125.2 E0.02154
G1 X152.862 Y126.874 E0.07237
G1 X152.327 Y127.36 E0.02265
G1 X150.495 Y128.793 E0.07294
G1 X149.894 Y129.196 E0.02266
G1 X147.871 Y130.345 E0.07295
G1 X147.218 Y130.654 E0.02266
G1 X145.048 Y131.494 E0.07295
G1 X144.357 Y131.704 E0.02266
G1 X142.087 Y132.216 E0.07295
G1 X141.372 Y132.322 E0.02266
G1 X139.052 Y132.495 E0.07295
G1 X138.329 Y132.496 E0.02266
G1 X136.009 Y132.326 E0.07295
G1 X135.294 Y132.22 E0.02266
G1 X133.024 Y131.711 E0.07295
G1 X132.332 Y131.502 E0.02266
G1 X130.161 Y130.665 E0.07295
G1 X129.507 Y130.356 E0.02266
G1 X127.483 Y129.21 E0.07295
G1 X126.882 Y128.808 E0.02266
G1 X125.047 Y127.377 E0.07295
G1 X124.512 Y126.892 E0.02266
G1 X122.918 Y125.217 E0.07248
G1 X122.477 Y124.683 E0.02171
G1 X119.986 Y121.191 E0.13452
G1 X119.863 Y121.249 E0.00425
G1 X117.693 Y122.088 E0.07295
G1 X117.002 Y122.299 E0.02266
G1 X114.732 Y122.81 E0.07295
G1 X114.017 Y122.917 E0.02266
G1 X111.697 Y123.09 E0.07295
G1 X110.974 Y123.09 E0.02266
G1 X108.654 Y122.92 E0.07295
G1 X107.939 Y122.814 E0.02266
G1 X105.669 Y122.306 E0.07295
G1 X104.977 Y122.096 E0.02266
G1 X102.806 Y121.26 E0.07295
G1 X102.152 Y120.951 E0.02266
G1 X100.128 Y119.804 E0.07295
G1 X99.527 Y119.403 E0.02266
G1 X97.693 Y117.972 E0.07295
G1 X97.157 Y117.486 E0.02266
G1 X95.563 Y115.812 E0.07248
G1 X95.122 Y115.278 E0.02171
G1 X88.928 Y106.595 E0.33442
G1 X88.246 Y105.234 E0.04772
G1 X87.765 Y103.729 E0.04956
G1 X87.53 Y102.226 E0.04771
G1 X87.53 Y95.057 E0.22477
G1 X89.023 Y91.453 E0.12229
G1 X90.026 Y90.45 E0.04449
M204 P1500
G1 X90.159 Y90.583 F10800
M204 P1000
G1 X90.292 Y90.717
G1 F1200
G1 X92.105 Y88.905 E0.08035
G1 X95.569 Y87.469 E0.11759
G1 X107.177 Y87.469 E0.36396
G1 X110.642 Y88.905 E0.11759
G1 X111.324 Y89.586 E0.03023
G1 X112.003 Y88.907 E0.03012
G1 X115.262 Y87.557 E0.1106
G1 X115.262 Y85.729 E0.05733
G1 X116.697 Y82.264 E0.11759
G1 X119.459 Y79.502 E0.12248
G1 X122.924 Y78.067 E0.11759
G1 X134.532 Y78.067 E0.36396
G1 X137.997 Y79.502 E0.11759
G1 X138.679 Y80.184 E0.03023
G1 X139.358 Y79.505 E0.03012
G1 X142.823 Y78.069 E0.11759
G1 X154.431 Y78.069 E0.36396
G1 X157.896 Y79.505 E0.11759
G1 X160.658 Y82.267 E0.12248
G1 X162.093 Y85.732 E0.11759
G1 X162.093 Y92.794 E0.22142
G1 X161.867 Y94.239 E0.04587
G1 X161.403 Y95.688 E0.04771
G1 X160.748 Y96.996 E0.04587
G1 X159.012 Y99.43 E0.09372
G1 X160.658 Y101.075 E0.07296
G1 X162.093 Y104.54 E0.11759
G1 X162.093 Y111.602 E0.22142
G1 X161.867 Y113.047 E0.04587
G1 X161.403 Y114.497 E0.04771
G1 X160.748 Y115.805 E0.04587
G1 X154.589 Y124.441 E0.33258
G1 X154.169 Y124.95 E0.02071
G1 X152.598 Y126.604 E0.07152
G1 X152.084 Y127.072 E0.02178
G1 X150.273 Y128.488 E0.07207
G1 X149.696 Y128.875 E0.02179
G1 X147.697 Y130.01 E0.07208
G1 X147.069 Y130.308 E0.02179
G1 X144.925 Y131.137 E0.07208
G1 X144.26 Y131.339 E0.02179
G1 X142.018 Y131.845 E0.07208
G1 X141.33 Y131.947 E0.02179
G1 X139.038 Y132.118 E0.07208
G1 X138.343 Y132.119 E0.02179
G1 X136.05 Y131.951 E0.07208
G1 X135.363 Y131.849 E0.02179
G1 X133.12 Y131.346 E0.07208
