; generated by SuperSlicer 2.3.57 on 2022-03-16 at 09:11:06 UTC

; 

; external perimeters extrusion width = 0.45mm
; perimeters extrusion width = 0.45mm
; infill extrusion width = 0.45mm
; solid infill extrusion width = 0.45mm
; top infill extrusion width = 0.40mm
; first layer extrusion width = 0.42mm

; object:{"name":"Black - Heatbead Cable Cover","id":"Black - Heatbead Cable Cover.stl id:0 copy 0","object_center":[125.000000,105.000000,0.000000],"boundingbox_center":[125.000000,105.000000,4.000000],"boundingbox_size":[35.000002,43.999985,8.000000]}
; Total objects to print: 1
M486 T1
; plater:{"center":[125.000000,105.000000,0.000000],"boundingbox_center":[125.000000,105.000000,4.000000],"boundingbox_size":[35.000002,43.999985,8.000000]}

M73 P0 R42
M73 Q0 S42
;TYPE:Custom
M862.3 P "MK3S" ; printer model check
M862.1 P0.4 ; nozzle diameter check
M115 U3.10.0 ; tell printer latest fw version
G90 ; use absolute coordinates
M83 ; extruder relative mode
M104 S255 ; set extruder temp
M140 S100 ; set bed temp
M190 S100 ; wait for bed temp
M109 S255 ; wait for extruder temp
G28 W ; home all without mesh bed level
G80 ; mesh bed leveling
G1 Y-3.0 F1000.0 ; go outside print area
G92 E0.0
G1 X60.0 E9.0 F1000.0 ; intro line
G1 X100.0 E12.5 F1000.0 ; intro line
G92 E0.0
M221 S95

; Don't change E values below. Excessive value can damage the printer.
M907 E430 ; set extruder motor current
M107
G21 ; set units to millimeters
G90 ; use absolute coordinates
M83 ; use relative distances for extrusion
M900 K0.04 ; Filament gcode LA 1.5
M900 K20 ; Filament gcode LA 1.0
;LAYER_CHANGE
;Z:0.2
;HEIGHT:0.2
;BEFORE_LAYER_CHANGE
G92 E0.0
;0.2


M73 P0 R41
G1 E-0.8 F2100
G1 Z0.4 F10800
;AFTER_LAYER_CHANGE
;0.2
G1 Z0.6
M204 P1500
G1 X99.786 Y76.714
G1 Z0.2
G1 E0.8 F2100
;TYPE:Skirt
;WIDTH:0.42
G1 F1200
G1 X103.079 Y73.421 E0.146
G1 X107.237 Y71.699 E0.14111
G1 X143.192 Y71.699 E1.12735
G1 X147.35 Y73.421 E0.14111
G1 X150.642 Y76.714 E0.146
G1 X152.364 Y80.872 E0.1411
G1 X152.364 Y118.128 E1.16815
G1 X150.642 Y122.286 E0.14111
G1 X147.349 Y125.579 E0.146
G1 X143.192 Y127.301 E0.14111
G1 X140.472 Y127.301 E0.08528
G1 X140.472 Y129.128 E0.0573
G1 X138.75 Y133.286 E0.14111
G1 X135.457 Y136.579 E0.146
G1 X131.299 Y138.301 E0.14111
G1 X118.701 Y138.301 E0.39502
G1 X114.543 Y136.579 E0.1411
G1 X111.25 Y133.286 E0.146
G1 X109.528 Y129.128 E0.14111
G1 X109.528 Y127.301 E0.0573
G1 X107.237 Y127.301 E0.07185
G1 X103.079 Y125.579 E0.1411
G1 X99.786 Y122.286 E0.146
G1 X98.064 Y118.128 E0.14111
G1 X98.064 Y80.872 E1.16815
G1 X99.763 Y76.769 E0.13922
G1 X99.935 Y76.848 F10800
M204 P1000
G1 X100.106 Y76.928
G1 F1200
G1 X103.292 Y73.741 E0.1413
G1 X107.312 Y72.076 E0.1364
G1 X143.117 Y72.076 E1.12264
G1 X147.136 Y73.741 E0.1364
G1 X150.322 Y76.928 E0.1413
G1 X151.987 Y80.947 E0.1364
G1 X151.987 Y118.053 E1.16345
G1 X150.322 Y122.072 E0.1364
G1 X147.136 Y125.259 E0.1413
G1 X143.117 Y126.924 E0.1364
G1 X140.095 Y126.924 E0.09475
G1 X140.095 Y129.053 E0.06677
G1 X138.43 Y133.072 E0.1364
G1 X135.243 Y136.259 E0.1413
G1 X131.224 Y137.924 E0.1364
G1 X118.776 Y137.924 E0.39031
G1 X114.757 Y136.259 E0.1364
M73 P1 R41
M73 Q1 S42
G1 X111.57 Y133.072 E0.1413
G1 X109.905 Y129.053 E0.1364
G1 X109.905 Y126.924 E0.06677
G1 X107.312 Y126.924 E0.08132
G1 X103.292 Y125.259 E0.1364
G1 X100.106 Y122.072 E0.1413
G1 X98.441 Y118.053 E0.1364
G1 X98.441 Y80.947 E1.16345
G1 X100.083 Y76.983 E0.13452
M204 P1500
M73 Q1 S41
G1 X100.254 Y77.062 F10800
M204 P1000
G1 X100.425 Y77.141
G1 F1200
G1 X103.506 Y74.061 E0.1366
G1 X107.387 Y72.453 E0.1317
G1 X143.042 Y72.453 E1.11794
G1 X146.922 Y74.061 E0.1317
G1 X150.003 Y77.141 E0.1366
G1 X151.61 Y81.022 E0.1317
G1 X151.61 Y117.978 E1.15875
G1 X150.003 Y121.859 E0.1317
G1 X146.922 Y124.939 E0.1366
G1 X143.042 Y126.547 E0.1317
G1 X139.718 Y126.547 E0.10422
G1 X139.718 Y128.978 E0.07624
G1 X138.11 Y132.859 E0.1317
G1 X135.03 Y135.939 E0.1366
G1 X131.149 Y137.547 E0.1317
G1 X118.851 Y137.547 E0.38561
G1 X114.97 Y135.939 E0.1317
G1 X111.89 Y132.859 E0.1366
G1 X110.282 Y128.978 E0.1317
G1 X110.282 Y126.547 E0.07624
G1 X107.387 Y126.547 E0.09079
G1 X103.506 Y124.939 E0.1317
G1 X100.426 Y121.859 E0.1366
G1 X98.818 Y117.978 E0.1317
G1 X98.818 Y81.022 E1.15875
G1 X100.403 Y77.197 E0.12982
M204 P1500
G1 X100.574 Y77.276 F10800
M204 P1000
G1 X100.745 Y77.355
G1 F1200
G1 X103.72 Y74.38 E0.13189
G1 X107.462 Y72.83 E0.12699
G1 X142.967 Y72.83 E1.11324
G1 X146.709 Y74.38 E0.127
G1 X149.683 Y77.355 E0.13189
G1 X151.233 Y81.097 E0.12699
G1 X151.233 Y117.903 E1.15404
G1 X149.683 Y121.645 E0.12699
G1 X146.709 Y124.62 E0.13189
G1 X142.967 Y126.17 E0.12699
G1 X139.341 Y126.17 E0.11369
G1 X139.341 Y128.903 E0.08571
G1 X137.791 Y132.645 E0.12699
G1 X134.816 Y135.62 E0.13189
G1 X131.074 Y137.17 E0.12699
G1 X118.926 Y137.17 E0.38091
G1 X115.184 Y135.62 E0.12699
G1 X112.209 Y132.645 E0.13189
G1 X110.659 Y128.903 E0.127
G1 X110.659 Y126.17 E0.08571
G1 X107.462 Y126.17 E0.10026
G1 X103.72 Y124.62 E0.12699
G1 X100.745 Y121.645 E0.13189
G1 X99.195 Y117.903 E0.127
G1 X99.195 Y81.097 E1.15404
G1 X100.722 Y77.41 E0.12511
M204 P1500
G1 X100.894 Y77.489 F10800
M204 P1000
G1 X101.065 Y77.568
G1 F1200
G1 X103.933 Y74.7 E0.12719
G1 X107.537 Y73.207 E0.12229
G1 X142.892 Y73.207 E1.10853
M73 P2 R41
M73 Q2 S41
G1 X146.495 Y74.7 E0.12229
G1 X149.363 Y77.568 E0.12719
G1 X150.856 Y81.172 E0.12229
G1 X150.856 Y117.828 E1.14934
G1 X149.363 Y121.432 E0.12229
G1 X146.495 Y124.3 E0.12719
G1 X142.892 Y125.793 E0.12229
G1 X138.964 Y125.793 E0.12316
G1 X138.964 Y128.828 E0.09518
G1 X137.471 Y132.432 E0.12229
G1 X134.603 Y135.3 E0.12719
G1 X130.999 Y136.793 E0.12229
G1 X119.001 Y136.793 E0.3762
G1 X115.397 Y135.3 E0.12229
G1 X112.529 Y132.432 E0.12719
G1 X111.036 Y128.828 E0.12229
G1 X111.036 Y125.793 E0.09518
G1 X107.537 Y125.793 E0.10973
G1 X103.933 Y124.3 E0.12229
G1 X101.065 Y121.432 E0.12719
G1 X99.572 Y117.828 E0.12229
G1 X99.572 Y81.172 E1.14934
G1 X101.042 Y77.624 E0.12041
M204 P1500
G1 X101.213 Y77.703 F10800
M204 P1000
G1 X101.385 Y77.782
G1 F1200
G1 X104.147 Y75.02 E0.12248
G1 X107.612 Y73.584 E0.11759
G1 X142.817 Y73.584 E1.10383
G1 X146.282 Y75.02 E0.11759
G1 X149.044 Y77.782 E0.12248
G1 X150.479 Y81.247 E0.11759
G1 X150.479 Y117.753 E1.14463
M73 P2 R40
G1 X149.044 Y121.218 E0.11759
G1 X146.281 Y123.98 E0.12248
G1 X142.817 Y125.416 E0.11759
G1 X138.587 Y125.416 E0.13263
G1 X138.587 Y128.753 E0.10465
G1 X137.151 Y132.218 E0.11759
G1 X134.389 Y134.98 E0.12248
G1 X130.924 Y136.416 E0.11759
G1 X119.076 Y136.416 E0.3715
G1 X115.611 Y134.98 E0.11759
G1 X112.849 Y132.218 E0.12248
G1 X111.413 Y128.753 E0.11759
G1 X111.413 Y125.416 E0.10465
G1 X107.612 Y125.416 E0.1192
G1 X104.147 Y123.98 E0.11759
G1 X101.385 Y121.218 E0.12248
G1 X99.949 Y117.753 E0.11759
G1 X99.949 Y81.247 E1.14464
G1 X101.362 Y77.837 E0.11571
M204 P1500
G1 X101.533 Y77.916 F10800
M204 P1000
G1 X101.704 Y77.996
G1 F1200
G1 X104.36 Y75.339 E0.11778
G1 X107.687 Y73.962 E0.11288
G1 X142.742 Y73.962 E1.09913
G1 X146.068 Y75.339 E0.11288
G1 X148.724 Y77.996 E0.11778
G1 X150.102 Y81.322 E0.11288
G1 X150.102 Y117.678 E1.13993
G1 X148.724 Y121.004 E0.11288
G1 X146.068 Y123.661 E0.11778
G1 X142.742 Y125.038 E0.11288
M73 P3 R40
G1 X138.209 Y125.038 E0.14211
G1 X138.209 Y128.678 E0.11412
M73 Q3 S41
G1 X136.832 Y132.004 E0.11288
G1 X134.175 Y134.661 E0.11778
G1 X130.849 Y136.038 E0.11288
G1 X119.151 Y136.038 E0.3668
G1 X115.825 Y134.661 E0.11288
G1 X113.168 Y132.004 E0.11778
G1 X111.791 Y128.678 E0.11288
G1 X111.791 Y125.038 E0.11412
G1 X107.687 Y125.038 E0.12868
G1 X104.36 Y123.661 E0.11288
G1 X101.704 Y121.004 E0.11778
G1 X100.326 Y117.678 E0.11288
G1 X100.326 Y81.322 E1.13993
G1 X101.681 Y78.051 E0.111
M204 P1500
G1 X101.853 Y78.13 F10800
M204 P1000
G1 X102.024 Y78.209
G1 F1200
G1 X104.574 Y75.659 E0.11308
G1 X107.762 Y74.339 E0.10818
G1 X142.667 Y74.339 E1.09442
G1 X145.854 Y75.659 E0.10818
G1 X148.404 Y78.209 E0.11308
G1 X149.725 Y81.397 E0.10818
G1 X149.725 Y117.603 E1.13523
G1 X148.404 Y120.791 E0.10818
G1 X145.854 Y123.341 E0.11308
G1 X142.667 Y124.661 E0.10818
G1 X137.832 Y124.661 E0.15158
G1 X137.832 Y128.603 E0.12359
G1 X136.512 Y131.791 E0.10818
G1 X133.962 Y134.341 E0.11308
G1 X130.774 Y135.661 E0.10818
G1 X119.226 Y135.661 E0.36209
G1 X116.038 Y134.341 E0.10818
G1 X113.488 Y131.791 E0.11308
G1 X112.168 Y128.603 E0.10818
G1 X112.168 Y124.661 E0.12359
G1 X107.762 Y124.661 E0.13815
G1 X104.574 Y123.341 E0.10818
G1 X102.024 Y120.791 E0.11308
G1 X100.703 Y117.603 E0.10818
G1 X100.703 Y81.397 E1.13523
M73 Q3 S40
G1 X102.001 Y78.265 E0.1063
M204 P1500
G1 X102.172 Y78.344 F10800
M204 P1000
G1 X102.344 Y78.423
G1 F1200
G1 X104.788 Y75.979 E0.10837
G1 X107.837 Y74.716 E0.10348
G1 X142.592 Y74.716 E1.08972
G1 X145.641 Y75.979 E0.10348
G1 X148.085 Y78.423 E0.10837
G1 X149.348 Y81.472 E0.10348
G1 X149.348 Y117.528 E1.13052
G1 X148.085 Y120.577 E0.10348
G1 X145.641 Y123.021 E0.10837
G1 X142.592 Y124.284 E0.10348
G1 X137.455 Y124.284 E0.16105
G1 X137.455 Y128.528 E0.13307
G1 X136.192 Y131.577 E0.10348
G1 X133.748 Y134.021 E0.10837
G1 X130.699 Y135.284 E0.10348
G1 X119.301 Y135.284 E0.35739
G1 X116.252 Y134.021 E0.10348
G1 X113.808 Y131.577 E0.10837
G1 X112.545 Y128.528 E0.10348
G1 X112.545 Y124.284 E0.13307
G1 X107.837 Y124.284 E0.14762
G1 X104.788 Y123.021 E0.10348
G1 X102.344 Y120.577 E0.10837
G1 X101.081 Y117.528 E0.10348
G1 X101.081 Y81.472 E1.13052
G1 X102.321 Y78.478 E0.1016
M204 P1500
M73 P4 R40
G1 X102.492 Y78.557 F10800
M204 P1000
G1 X102.663 Y78.636
G1 F1200
G1 X105.001 Y76.298 E0.10367
G1 X107.912 Y75.093 E0.09877
G1 X142.517 Y75.093 E1.08502
M73 Q4 S40
G1 X145.427 Y76.298 E0.09877
G1 X147.765 Y78.636 E0.10367
G1 X148.971 Y81.547 E0.09877
G1 X148.971 Y117.453 E1.12582
G1 X147.765 Y120.364 E0.09877
G1 X145.427 Y122.702 E0.10367
G1 X142.517 Y123.907 E0.09877
G1 X137.078 Y123.907 E0.17052
G1 X137.078 Y128.453 E0.14254
G1 X135.873 Y131.364 E0.09877
G1 X133.535 Y133.702 E0.10367
G1 X130.624 Y134.907 E0.09877
G1 X119.376 Y134.907 E0.35269
G1 X116.465 Y133.702 E0.09877
G1 X114.127 Y131.364 E0.10367
G1 X112.922 Y128.453 E0.09877
G1 X112.922 Y123.907 E0.14254
G1 X107.912 Y123.907 E0.15709
G1 X105.001 Y122.702 E0.09877
G1 X102.663 Y120.364 E0.10367
G1 X101.458 Y117.453 E0.09877
G1 X101.458 Y81.547 E1.12582
G1 X102.64 Y78.692 E0.09689
M204 P1500
G1 X102.812 Y78.771 F10800
M204 P1000
G1 X102.983 Y78.85
G1 F1200
G1 X105.215 Y76.618 E0.09897
G1 X107.987 Y75.47 E0.09407
G1 X142.442 Y75.47 E1.08031
G1 X145.214 Y76.618 E0.09407
G1 X147.445 Y78.85 E0.09897
G1 X148.594 Y81.622 E0.09407
G1 X148.594 Y117.378 E1.12112
G1 X147.445 Y120.15 E0.09407
G1 X145.213 Y122.382 E0.09897
G1 X142.442 Y123.53 E0.09407
G1 X136.701 Y123.53 E0.17999
G1 X136.701 Y128.378 E0.15201
G1 X135.553 Y131.15 E0.09407
G1 X133.321 Y133.382 E0.09897
G1 X130.549 Y134.53 E0.09407
G1 X119.451 Y134.53 E0.34798
G1 X116.679 Y133.382 E0.09407
G1 X114.447 Y131.15 E0.09897
G1 X113.299 Y128.378 E0.09407
G1 X113.299 Y123.53 E0.15201
G1 X107.987 Y123.53 E0.16656
G1 X105.215 Y122.382 E0.09407
G1 X102.983 Y120.15 E0.09897
G1 X101.835 Y117.378 E0.09407
G1 X101.835 Y81.622 E1.12112
G1 X102.96 Y78.905 E0.09219
M204 P1500
G1 X103.131 Y78.984 F10800
M204 P1000
G1 X103.303 Y79.064
G1 F1200
G1 X105.428 Y76.938 E0.09426
G1 X108.062 Y75.847 E0.08937
G1 X142.367 Y75.847 E1.07561
G1 X145. Y76.938 E0.08937
G1 X147.126 Y79.064 E0.09426
G1 X148.216 Y81.697 E0.08937
G1 X148.216 Y117.303 E1.11641
G1 X147.126 Y119.936 E0.08937
G1 X145. Y122.062 E0.09426
M73 P4 R39
G1 X142.367 Y123.153 E0.08937
G1 X136.324 Y123.153 E0.18946
G1 X136.324 Y128.303 E0.16148
G1 X135.233 Y130.936 E0.08937
M73 P5 R39
G1 X133.107 Y133.062 E0.09426
G1 X130.474 Y134.153 E0.08937
G1 X119.526 Y134.153 E0.34328
G1 X116.893 Y133.062 E0.08937
M73 Q5 S40
G1 X114.767 Y130.936 E0.09426
G1 X113.676 Y128.303 E0.08937
G1 X113.676 Y123.153 E0.16148
G1 X108.062 Y123.153 E0.17603
G1 X105.428 Y122.062 E0.08937
G1 X103.303 Y119.936 E0.09426
G1 X102.212 Y117.303 E0.08937
G1 X102.212 Y81.697 E1.11641
G1 X103.28 Y79.119 E0.08749
M204 P1500
G1 X103.451 Y79.198 F10800
M204 P1000
G1 X103.622 Y79.277
G1 F1200
G1 X105.642 Y77.257 E0.08956
G1 X108.137 Y76.224 E0.08466
G1 X142.292 Y76.224 E1.07091
G1 X144.786 Y77.257 E0.08466
G1 X146.806 Y79.277 E0.08956
G1 X147.839 Y81.772 E0.08466
G1 X147.839 Y117.228 E1.11171
G1 X146.806 Y119.723 E0.08466
G1 X144.786 Y121.743 E0.08956
G1 X142.292 Y122.776 E0.08466
G1 X135.947 Y122.776 E0.19893
G1 X135.947 Y128.228 E0.17095
G1 X134.914 Y130.723 E0.08466
G1 X132.894 Y132.743 E0.08956
G1 X130.399 Y133.776 E0.08466
G1 X119.601 Y133.776 E0.33858
G1 X117.106 Y132.743 E0.08466
G1 X115.086 Y130.723 E0.08956
G1 X114.053 Y128.228 E0.08466
G1 X114.053 Y122.776 E0.17095
G1 X108.137 Y122.776 E0.1855
G1 X105.642 Y121.743 E0.08466
G1 X103.622 Y119.723 E0.08956
G1 X102.589 Y117.228 E0.08466
G1 X102.589 Y81.772 E1.11171
G1 X103.599 Y79.333 E0.08278
M204 P1500
G1 X103.771 Y79.412 F10800
M204 P1000
G1 X103.942 Y79.491
G1 F1200
G1 X105.856 Y77.577 E0.08486
G1 X108.212 Y76.601 E0.07996
G1 X142.217 Y76.601 E1.0662
G1 X144.573 Y77.577 E0.07996
G1 X146.486 Y79.491 E0.08486
G1 X147.462 Y81.847 E0.07996
G1 X147.462 Y117.153 E1.10701
G1 X146.486 Y119.509 E0.07996
G1 X144.573 Y121.423 E0.08486
G1 X142.217 Y122.399 E0.07996
G1 X135.384 Y122.399 E0.21422
G1 X135.57 Y122.847 E0.0152
G1 X135.57 Y128.153 E0.16638
G1 X134.594 Y130.509 E0.07996
G1 X132.68 Y132.423 E0.08486
G1 X130.324 Y133.399 E0.07996
G1 X119.676 Y133.399 E0.33387
G1 X117.32 Y132.423 E0.07996
G1 X115.406 Y130.509 E0.08486
G1 X114.43 Y128.153 E0.07996
G1 X114.43 Y122.847 E0.16638
G1 X114.616 Y122.399 E0.0152
G1 X108.212 Y122.399 E0.20079
G1 X105.856 Y121.423 E0.07996
G1 X103.942 Y119.509 E0.08486
G1 X102.966 Y117.153 E0.07996
G1 X102.966 Y81.847 E1.10701
G1 X103.919 Y79.546 E0.07808
M204 P1500
G1 X104.09 Y79.625 F10800
M204 P1000
G1 X104.262 Y79.704
G1 F1200
G1 X106.069 Y77.897 E0.08015
G1 X108.287 Y76.978 E0.07526
G1 X142.142 Y76.978 E1.0615
M73 P6 R39
M73 Q5 S39
G1 X144.359 Y77.897 E0.07526
G1 X146.167 Y79.704 E0.08015
G1 X147.085 Y81.922 E0.07526
G1 X147.085 Y117.078 E1.1023
M73 Q6 S39
G1 X146.167 Y119.296 E0.07526
G1 X144.359 Y121.103 E0.08015
G1 X142.142 Y122.022 E0.07526
G1 X135.009 Y122.022 E0.22364
G1 X134.915 Y122.25 E0.00774
G1 X135.193 Y122.922 E0.0228
G1 X135.193 Y128.078 E0.16167
G1 X134.274 Y130.296 E0.07526
G1 X132.467 Y132.103 E0.08015
G1 X130.249 Y133.022 E0.07526
G1 X119.751 Y133.022 E0.32917
G1 X117.533 Y132.103 E0.07526
G1 X115.726 Y130.296 E0.08015
G1 X114.807 Y128.078 E0.07526
G1 X114.807 Y122.922 E0.16168
G1 X115.085 Y122.25 E0.0228
G1 X114.991 Y122.022 E0.00774
G1 X108.287 Y122.022 E0.21021
G1 X106.069 Y121.103 E0.07526
G1 X104.262 Y119.296 E0.08015
G1 X103.343 Y117.078 E0.07526
G1 X103.343 Y81.922 E1.1023
G1 X104.239 Y79.76 E0.07337
M204 P1500
G1 X104.41 Y79.839 F10800
M204 P1000
G1 X104.581 Y79.918
G1 F1200
G1 X106.283 Y78.216 E0.07545
G1 X108.362 Y77.355 E0.07055
G1 X142.067 Y77.355 E1.0568
G1 X144.146 Y78.216 E0.07055
G1 X145.847 Y79.918 E0.07545
G1 X146.708 Y81.997 E0.07055
G1 X146.708 Y117.003 E1.0976
G1 X145.847 Y119.082 E0.07055
G1 X144.146 Y120.784 E0.07545
G1 X142.067 Y121.645 E0.07055
G1 X134.757 Y121.645 E0.22919
G1 X134.506 Y122.25 E0.02054
G1 X134.816 Y122.997 E0.02535
G1 X134.816 Y128.003 E0.15697
G1 X133.955 Y130.082 E0.07055
G1 X132.253 Y131.784 E0.07545
G1 X130.174 Y132.645 E0.07055
G1 X119.826 Y132.645 E0.32447
G1 X117.747 Y131.784 E0.07055
G1 X116.045 Y130.082 E0.07545
G1 X115.184 Y128.003 E0.07055
G1 X115.184 Y122.997 E0.15697
G1 X115.494 Y122.25 E0.02534
G1 X115.243 Y121.645 E0.02054
G1 X108.362 Y121.645 E0.21576
G1 X106.283 Y120.784 E0.07055
G1 X104.581 Y119.082 E0.07545
G1 X103.72 Y117.003 E0.07055
G1 X103.72 Y81.997 E1.0976
G1 X104.558 Y79.973 E0.06867
M204 P1500
G1 X104.73 Y80.052 F10800
M204 P1000
G1 X104.901 Y80.132
G1 F1200
G1 X106.496 Y78.536 E0.07075
G1 X108.437 Y77.732 E0.06585
G1 X141.992 Y77.732 E1.05209
G1 X143.932 Y78.536 E0.06585
G1 X145.527 Y80.132 E0.07075
G1 X146.331 Y82.072 E0.06585
G1 X146.331 Y116.928 E1.0929
G1 X145.527 Y118.868 E0.06585
G1 X143.932 Y120.464 E0.07075
G1 X141.992 Y121.268 E0.06585
