; generated by SuperSlicer 2.3.57 on 2022-03-16 at 09:10:01 UTC

; 

; external perimeters extrusion width = 0.45mm
; perimeters extrusion width = 0.45mm
; infill extrusion width = 0.45mm
; solid infill extrusion width = 0.45mm
; top infill extrusion width = 0.40mm
; first layer extrusion width = 0.42mm

; object:{"name":"Black - FS Lever","id":"Black - FS Lever.stl id:0 copy 0","object_center":[125.000000,105.000000,0.000000],"boundingbox_center":[125.000000,105.000000,4.400000],"boundingbox_size":[9.275774,24.108963,8.799999]}
; Total objects to print: 1
M486 T1
; plater:{"center":[125.000000,105.000000,0.000000],"boundingbox_center":[125.000000,105.000000,4.400000],"boundingbox_size":[9.275774,24.108963,8.799999]}

M73 P0 R10
M73 Q0 S10
;TYPE:Custom
M862.3 P "MK3S" ; printer model check
M862.1 P0.4 ; nozzle diameter check
M115 U3.10.0 ; tell printer latest fw version
G90 ; use absolute coordinates
M83 ; extruder relative mode
M104 S255 ; set extruder temp
M140 S100 ; set bed temp
M190 S100 ; wait for bed temp
M109 S255 ; wait for extruder temp
G28 W ; home all without mesh bed level
G80 ; mesh bed leveling
G1 Y-3.0 F1000.0 ; go outside print area
G92 E0.0
G1 X60.0 E9.0 F1000.0 ; intro line
G1 X100.0 E12.5 F1000.0 ; intro line
G92 E0.0
M221 S95

; Don't change E values below. Excessive value can damage the printer.
M907 E430 ; set extruder motor current
M107
G21 ; set units to millimeters
G90 ; use absolute coordinates
M83 ; use relative distances for extrusion
M900 K0.04 ; Filament gcode LA 1.5
M900 K20 ; Filament gcode LA 1.0
;LAYER_CHANGE
;Z:0.2
;HEIGHT:0.2
;BEFORE_LAYER_CHANGE
G92 E0.0
;0.2


M73 P1 R10
M73 Q1 S10
G1 E-0.8 F2100
G1 Z0.4 F10800
;AFTER_LAYER_CHANGE
;0.2
G1 Z0.6
M204 P1500
G1 X113.988 Y88.339
G1 Z0.2
G1 E0.8 F2100
;TYPE:Skirt
;WIDTH:0.42
G1 F1200
G1 X116.981 Y84.772 E0.146
G1 X120.973 Y82.694 E0.1411
G1 X128.6 Y82.026 E0.24007
G1 X132.892 Y83.38 E0.14111
G1 X136.46 Y86.373 E0.146
G1 X138.538 Y90.365 E0.14111
G1 X138.766 Y92.972 E0.08207
G1 X139.532 Y101.667 E0.27369
G1 X139.712 Y102.374 E0.02285
G1 X139.865 Y103.264 E0.02833
G1 X139.953 Y104.248 E0.03098
G1 X140.24 Y107.524 E0.10311
G1 X140.259 Y108.16 E0.01996
G1 X140.233 Y109.218 E0.03319
G1 X140.216 Y109.475 E0.00805
G1 X140.754 Y115.741 E0.1972
G1 X139.397 Y120.027 E0.14095
G1 X136.404 Y123.588 E0.14585
G1 X134.41 Y124.625 E0.07048
G1 X133.397 Y125.485 E0.04168
G1 X131.965 Y126.413 E0.05349
G1 X130.859 Y126.97 E0.03882
G1 X129.454 Y127.493 E0.047
G1 X128.284 Y127.792 E0.03787
G1 X126.522 Y128.046 E0.05581
G1 X125.025 Y128.063 E0.04694
G1 X123.321 Y127.856 E0.0538
G1 X122.138 Y127.581 E0.03808
G1 X121.385 Y127.318 E0.02502
G1 X121.232 Y127.262 E0.00511
G1 X120.333 Y126.919 E0.03015
G1 X119.208 Y126.339 E0.03971
G1 X117.839 Y125.427 E0.05157
G1 X116.837 Y124.575 E0.04123
G1 X115.698 Y123.354 E0.05235
M73 Q2 S10
G1 X114.918 Y122.295 E0.04125
G1 X114.051 Y120.774 E0.0549
G1 X113.493 Y119.409 E0.04623
G1 X113.01 Y117.577 E0.05939
M73 P2 R10
G1 X112.822 Y116.144 E0.04532
G1 X112.817 Y114.402 E0.05463
G1 X112.968 Y113.087 E0.04151
G1 X113.131 Y112.394 E0.02232
G1 X112.784 Y112.04 E0.01552
G1 X111.137 Y108.465 E0.12343
G1 X110.766 Y104.233 E0.1332
G1 X110.774 Y103.169 E0.03337
G1 X111.115 Y99.786 E0.1066
G1 X112.825 Y96.219 E0.12403
G1 X112.939 Y96.107 E0.00501
G1 X112.635 Y92.631 E0.10941
G1 X113.97 Y88.396 E0.13922
G1 X114.148 Y88.46 F10800
M204 P1000
G1 X114.325 Y88.524
G1 F1200
G1 X117.222 Y85.072 E0.1413
G1 X121.081 Y83.063 E0.1364
G1 X128.559 Y82.409 E0.23536
G1 X132.708 Y83.717 E0.1364
G1 X136.16 Y86.613 E0.1413
G1 X138.169 Y90.472 E0.1364
G1 X138.39 Y93.005 E0.07972
G1 X139.159 Y101.731 E0.27465
G1 X139.343 Y102.452 E0.02333
G1 X139.49 Y103.313 E0.02738
G1 X139.577 Y104.281 E0.03048
G1 X139.863 Y107.546 E0.10277
G1 X139.882 Y108.161 E0.01929
G1 X139.856 Y109.201 E0.03262
G1 X139.838 Y109.479 E0.00871
G1 X140.372 Y115.699 E0.19574
G1 X139.06 Y119.841 E0.13626
G1 X136.163 Y123.288 E0.14115
G1 X134.198 Y124.31 E0.06946
G1 X133.171 Y125.182 E0.04225
G1 X131.777 Y126.086 E0.05208
G1 X130.708 Y126.624 E0.03753
G1 X129.341 Y127.133 E0.04572
G1 X128.21 Y127.422 E0.03661
G1 X126.493 Y127.669 E0.0544
G1 X125.046 Y127.685 E0.04538
G1 X123.387 Y127.484 E0.05238
G1 X122.244 Y127.218 E0.03681
G1 X121.512 Y126.963 E0.0243
G1 X121.364 Y126.909 E0.00494
G1 X120.487 Y126.575 E0.02941
G1 X119.399 Y126.013 E0.03838
M73 Q3 S10
G1 X118.067 Y125.125 E0.05023
G1 X117.098 Y124.302 E0.03985
G1 X115.989 Y123.113 E0.05098
M73 P3 R10
G1 X115.235 Y122.089 E0.03988
G1 X114.391 Y120.608 E0.05344
G1 X113.851 Y119.289 E0.04469
G1 X113.381 Y117.505 E0.05787
G1 X113.199 Y116.119 E0.04381
G1 X113.194 Y114.423 E0.05318
G1 X113.34 Y113.151 E0.04013
G1 X113.546 Y112.278 E0.02815
G1 X113.099 Y111.823 E0.01998
G1 X111.507 Y108.367 E0.11932
G1 X111.144 Y104.218 E0.13058
G1 X111.15 Y103.189 E0.03225
G1 X111.484 Y99.89 E0.10397
G1 X113.137 Y96.442 E0.11989
G1 X113.33 Y96.251 E0.00851
G1 X113.017 Y92.673 E0.11263
G1 X114.307 Y88.581 E0.13452
M204 P1500
G1 X114.485 Y88.645 F10800
M204 P1000
G1 X114.662 Y88.709
G1 F1200
G1 X117.462 Y85.371 E0.1366
G1 X121.188 Y83.432 E0.1317
G1 X128.517 Y82.791 E0.23066
G1 X132.523 Y84.054 E0.1317
G1 X135.86 Y86.854 E0.1366
G1 X137.799 Y90.58 E0.1317
G1 X138.014 Y93.038 E0.07737
G1 X138.786 Y101.794 E0.27561
G1 X138.974 Y102.531 E0.02382
G1 X139.116 Y103.362 E0.02644
G1 X139.202 Y104.314 E0.02999
G1 X139.486 Y107.569 E0.10243
M73 P3 R9
G1 X139.505 Y108.162 E0.01863
G1 X139.479 Y109.184 E0.03205
G1 X139.46 Y109.483 E0.00937
G1 X139.99 Y115.656 E0.19428
G1 X138.723 Y119.656 E0.13156
G1 X135.923 Y122.988 E0.13645
G1 X133.985 Y123.996 E0.06849
G1 X132.945 Y124.879 E0.04277
G1 X131.589 Y125.758 E0.05067
G1 X130.557 Y126.278 E0.03623
G1 X129.229 Y126.772 E0.04445
G1 X128.136 Y127.051 E0.03535
G1 X126.464 Y127.293 E0.05299
G1 X125.066 Y127.308 E0.04382
G1 X123.453 Y127.112 E0.05097
G1 X122.349 Y126.855 E0.03554
M73 Q4 S10
G1 X121.638 Y126.608 E0.02358
G1 X121.496 Y126.556 E0.00477
G1 X120.641 Y126.23 E0.02866
G1 X119.591 Y125.688 E0.03706
G1 X118.294 Y124.823 E0.04888
M73 P4 R9
G1 X117.359 Y124.029 E0.03848
G1 X116.28 Y122.872 E0.0496
G1 X115.552 Y121.883 E0.0385
G1 X114.73 Y120.443 E0.05198
G1 X114.21 Y119.169 E0.04315
G1 X113.751 Y117.432 E0.05634
G1 X113.576 Y116.094 E0.0423
G1 X113.572 Y114.444 E0.05174
G1 X113.712 Y113.216 E0.03874
G1 X113.96 Y112.162 E0.03397
G1 X113.414 Y111.606 E0.02444
G1 X111.876 Y108.269 E0.1152
G1 X111.521 Y104.203 E0.12797
M73 Q4 S9
G1 X111.527 Y103.209 E0.03114
G1 X111.852 Y99.993 E0.10135
G1 X113.448 Y96.664 E0.11576
G1 X113.721 Y96.395 E0.01201
G1 X113.399 Y92.715 E0.11585
G1 X114.644 Y88.766 E0.12982
M204 P1500
G1 X114.822 Y88.83 F10800
M204 P1000
G1 X114.999 Y88.894
G1 F1200
G1 X117.703 Y85.671 E0.13189
G1 X121.296 Y83.801 E0.12699
G1 X128.475 Y83.173 E0.22595
G1 X132.338 Y84.391 E0.12699
G1 X135.56 Y87.095 E0.13189
G1 X137.43 Y90.687 E0.12699
G1 X137.639 Y93.071 E0.07502
G1 X138.414 Y101.858 E0.27657
G1 X138.605 Y102.609 E0.0243
G1 X138.742 Y103.41 E0.02549
G1 X138.826 Y104.347 E0.0295
G1 X139.11 Y107.591 E0.10209
G1 X139.128 Y108.164 E0.01796
G1 X139.102 Y109.167 E0.03149
G1 X139.082 Y109.486 E0.01002
G1 X139.608 Y115.614 E0.19282
G1 X138.386 Y119.471 E0.12686
G1 X135.683 Y122.688 E0.13175
G1 X133.751 Y123.692 E0.06826
G1 X133.721 Y123.726 E0.00143
G1 X132.72 Y124.576 E0.04117
G1 X131.402 Y125.431 E0.04926
G1 X130.406 Y125.931 E0.03494
G1 X129.116 Y126.412 E0.04317
G1 X128.063 Y126.681 E0.03409
G1 X126.435 Y126.916 E0.05157
G1 X125.087 Y126.931 E0.04225
G1 X123.518 Y126.74 E0.04955
M73 Q5 S9
G1 X122.454 Y126.493 E0.03427
G1 X121.765 Y126.253 E0.02286
G1 X121.627 Y126.202 E0.0046
G1 X120.796 Y125.885 E0.02791
G1 X119.783 Y125.363 E0.03574
M73 P5 R9
G1 X118.521 Y124.522 E0.04753
G1 X117.619 Y123.756 E0.0371
G1 X116.57 Y122.631 E0.04823
G1 X115.868 Y121.677 E0.03713
G1 X115.07 Y120.277 E0.05052
G1 X114.568 Y119.049 E0.0416
G1 X114.122 Y117.359 E0.05481
G1 X113.953 Y116.069 E0.04079
G1 X113.949 Y114.465 E0.05029
G1 X114.084 Y113.281 E0.03736
G1 X114.375 Y112.046 E0.03979
G1 X113.729 Y111.388 E0.0289
G1 X112.246 Y108.17 E0.11109
G1 X111.898 Y104.187 E0.12536
G1 X111.904 Y103.23 E0.03003
G1 X112.221 Y100.097 E0.09873
G1 X113.76 Y96.886 E0.11162
G1 X114.112 Y96.539 E0.01552
G1 X113.781 Y92.756 E0.11906
G1 X114.981 Y88.951 E0.12511
M204 P1500
G1 X115.159 Y89.015 F10800
M204 P1000
G1 X115.336 Y89.078
G1 F1200
G1 X117.944 Y85.971 E0.12719
G1 X121.403 Y84.17 E0.12229
G1 X128.433 Y83.555 E0.22125
G1 X132.153 Y84.728 E0.12229
G1 X135.26 Y87.335 E0.12719
G1 X137.061 Y90.795 E0.12229
G1 X137.263 Y93.104 E0.07268
G1 X138.041 Y101.921 E0.27753
G1 X138.236 Y102.687 E0.02478
G1 X138.368 Y103.459 E0.02455
G1 X138.451 Y104.381 E0.029
G1 X138.733 Y107.613 E0.10175
G1 X138.75 Y108.165 E0.01729
G1 X138.726 Y109.15 E0.03092
G1 X138.704 Y109.49 E0.01068
G1 X139.225 Y115.571 E0.19137
G1 X138.049 Y119.286 E0.12216
G1 X135.442 Y122.388 E0.12705
G1 X133.518 Y123.389 E0.06802
G1 X133.458 Y123.454 E0.00278
G1 X132.494 Y124.273 E0.03965
G1 X131.214 Y125.103 E0.04785
G1 X130.255 Y125.585 E0.03365
G1 X129.003 Y126.052 E0.04189
G1 X127.989 Y126.311 E0.03282
G1 X126.405 Y126.539 E0.05016
G1 X125.108 Y126.553 E0.04069
G1 X123.584 Y126.368 E0.04813
G1 X122.559 Y126.13 E0.033
G1 X121.892 Y125.897 E0.02214
M73 Q6 S9
G1 X121.759 Y125.849 E0.00443
G1 X120.95 Y125.54 E0.02717
G1 X119.974 Y125.037 E0.03441
G1 X118.749 Y124.22 E0.04618
M73 P6 R9
G1 X117.88 Y123.482 E0.03573
G1 X116.861 Y122.39 E0.04686
G1 X116.185 Y121.471 E0.03575
G1 X115.41 Y120.112 E0.04906
G1 X114.926 Y118.929 E0.04006
G1 X114.493 Y117.286 E0.05329
G1 X114.33 Y116.044 E0.03928
G1 X114.326 Y114.486 E0.04884
G1 X114.457 Y113.346 E0.03598
G1 X114.79 Y111.93 E0.04562
G1 X114.044 Y111.171 E0.03336
G1 X112.616 Y108.072 E0.10698
G1 X112.275 Y104.172 E0.12274
G1 X112.281 Y103.25 E0.02892
G1 X112.59 Y100.2 E0.0961
G1 X114.071 Y97.109 E0.10749
G1 X114.503 Y96.683 E0.01902
G1 X114.163 Y92.798 E0.12228
G1 X115.318 Y89.136 E0.12041
M204 P1500
G1 X115.496 Y89.2 F10800
M204 P1000
G1 X115.673 Y89.263
G1 F1200
G1 X118.184 Y86.271 E0.12248
G1 X121.511 Y84.539 E0.11759
G1 X128.391 Y83.937 E0.21655
G1 X131.968 Y85.065 E0.11759
G1 X134.96 Y87.576 E0.12249
G1 X136.692 Y90.903 E0.11759
G1 X136.888 Y93.137 E0.07033
G1 X137.668 Y101.985 E0.27849
G1 X137.867 Y102.766 E0.02527
G1 X137.993 Y103.508 E0.02361
G1 X138.075 Y104.414 E0.02851
G1 X138.357 Y107.636 E0.10141
G1 X138.373 Y108.166 E0.01663
G1 X138.349 Y109.134 E0.03035
G1 X138.325 Y109.494 E0.01134
G1 X138.843 Y115.529 E0.18991
G1 X137.712 Y119.1 E0.11746
G1 X135.202 Y122.088 E0.12235
G1 X133.284 Y123.085 E0.06778
G1 X133.195 Y123.182 E0.00412
G1 X132.269 Y123.969 E0.03812
G1 X131.026 Y124.775 E0.04645
G1 X130.104 Y125.239 E0.03235
G1 X128.89 Y125.691 E0.04061
G1 X127.915 Y125.94 E0.03156
G1 X126.376 Y126.162 E0.04875
G1 X125.129 Y126.176 E0.03912
G1 X123.65 Y125.996 E0.04672
G1 X122.664 Y125.767 E0.03173
G1 X122.019 Y125.542 E0.02142
G1 X121.891 Y125.496 E0.00426
G1 X121.104 Y125.195 E0.02642
G1 X120.166 Y124.712 E0.03309
G1 X118.976 Y123.919 E0.04483
G1 X118.141 Y123.209 E0.03436
M73 Q7 S9
G1 X117.152 Y122.148 E0.04548
G1 X116.502 Y121.265 E0.03438
M73 P7 R9
G1 X115.75 Y119.946 E0.04761
G1 X115.285 Y118.809 E0.03852
G1 X114.864 Y117.213 E0.05176
G1 X114.707 Y116.019 E0.03777
G1 X114.703 Y114.507 E0.04739
G1 X114.829 Y113.411 E0.03459
G1 X115.162 Y111.995 E0.04559
G1 X115.221 Y111.831 E0.00548
G1 X114.359 Y110.953 E0.03857
G1 X112.986 Y107.974 E0.10286
G1 X112.652 Y104.157 E0.12013
G1 X112.658 Y103.27 E0.0278
G1 X112.958 Y100.304 E0.09348
G1 X114.383 Y97.331 E0.10336
G1 X114.894 Y96.827 E0.02252
G1 X114.546 Y92.84 E0.1255
G1 X115.655 Y89.321 E0.11571
M204 P1500
G1 X115.833 Y89.384 F10800
M204 P1000
G1 X116.01 Y89.448
G1 F1200
G1 X118.425 Y86.571 E0.11778
G1 X121.619 Y84.908 E0.11288
G1 X128.349 Y84.319 E0.21184
G1 X131.783 Y85.402 E0.11288
G1 X134.661 Y87.817 E0.11778
G1 X136.323 Y91.01 E0.11288
G1 X136.512 Y93.17 E0.06798
G1 X137.295 Y102.048 E0.27945
G1 X137.497 Y102.844 E0.02575
G1 X137.619 Y103.557 E0.02266
G1 X137.699 Y104.447 E0.02802
G1 X137.98 Y107.658 E0.10107
G1 X137.996 Y108.167 E0.01596
G1 X137.972 Y109.117 E0.02979
G1 X137.949 Y109.475 E0.01125
G1 X137.947 Y109.493 E0.00059
G1 X138.461 Y115.487 E0.18861
G1 X137.376 Y118.915 E0.11276
G1 X134.961 Y121.788 E0.11765
G1 X133.05 Y122.782 E0.06754
G1 X132.933 Y122.911 E0.00547
G1 X132.043 Y123.666 E0.0366
G1 X130.838 Y124.448 E0.04504
G1 X129.953 Y124.893 E0.03106
G1 X128.778 Y125.331 E0.03933
G1 X127.841 Y125.57 E0.0303
G1 X126.347 Y125.785 E0.04733
G1 X125.149 Y125.799 E0.03756
G1 X123.715 Y125.624 E0.0453
G1 X122.769 Y125.404 E0.03046
G1 X122.145 Y125.187 E0.0207
G1 X122.023 Y125.142 E0.00408
G1 X121.258 Y124.851 E0.02567
G1 X120.357 Y124.386 E0.03177
G1 X119.204 Y123.617 E0.04348
G1 X118.402 Y122.936 E0.03298
G1 X117.442 Y121.907 E0.04411
G1 X116.818 Y121.06 E0.033
G1 X116.089 Y119.781 E0.04615
G1 X115.643 Y118.689 E0.03698
G1 X115.234 Y117.14 E0.05024
M73 Q8 S9
G1 X115.084 Y115.994 E0.03626
M73 P8 R9
G1 X115.08 Y114.528 E0.04595
G1 X115.201 Y113.476 E0.03321
G1 X115.524 Y112.103 E0.04422
G1 X115.657 Y111.736 E0.01224
G1 X114.674 Y110.736 E0.04395
G1 X113.356 Y107.876 E0.09875
G1 X113.029 Y104.142 E0.11752
G1 X113.035 Y103.291 E0.02669
G1 X113.327 Y100.407 E0.09086
G1 X114.694 Y97.554 E0.09922
G1 X115.286 Y96.971 E0.02602
G1 X114.928 Y92.882 E0.12871
G1 X115.992 Y89.506 E0.111
M204 P1500
G1 X116.17 Y89.569 F10800
M204 P1000
G1 X116.348 Y89.633
G1 F1200
G1 X118.666 Y86.871 E0.11308
G1 X121.726 Y85.277 E0.10818
G1 X128.307 Y84.702 E0.20714
G1 X131.598 Y85.739 E0.10818
G1 X134.361 Y88.057 E0.11308
G1 X135.954 Y91.118 E0.10818
G1 X136.136 Y93.203 E0.06563
G1 X136.922 Y102.112 E0.28041
G1 X137.128 Y102.923 E0.02624
G1 X137.245 Y103.606 E0.02172
G1 X137.324 Y104.48 E0.02752
G1 X137.604 Y107.68 E0.10073
G1 X137.619 Y108.168 E0.0153
G1 X137.595 Y109.1 E0.02922
G1 X137.573 Y109.443 E0.01078
G1 X137.568 Y109.49 E0.00148
G1 X138.079 Y115.444 E0.18738
G1 X137.039 Y118.73 E0.10806
G1 X134.721 Y121.488 E0.11296
G1 X132.816 Y122.478 E0.0673
G1 X132.67 Y122.639 E0.00682
G1 X131.818 Y123.363 E0.03507
G1 X130.65 Y124.12 E0.04363
G1 X129.802 Y124.547 E0.02976
G1 X128.665 Y124.971 E0.03805
G1 X127.767 Y125.2 E0.02904
G1 X126.318 Y125.409 E0.04592
G1 X125.17 Y125.421 E0.03599
G1 X123.781 Y125.253 E0.04388
G1 X122.874 Y125.042 E0.02919
G1 X122.272 Y124.832 E0.01998
G1 X122.155 Y124.789 E0.00391
G1 X121.412 Y124.506 E0.02493
G1 X120.549 Y124.061 E0.03044
G1 X119.431 Y123.315 E0.04213
G1 X118.663 Y122.663 E0.03161
G1 X117.733 Y121.666 E0.04273
G1 X117.135 Y120.854 E0.03163
G1 X116.429 Y119.616 E0.04469
G1 X116.001 Y118.569 E0.03544
G1 X115.605 Y117.067 E0.04871
G1 X115.461 Y115.968 E0.03474
G1 X115.457 Y114.549 E0.0445
G1 X115.573 Y113.541 E0.03183
G1 X115.886 Y112.211 E0.04284
G1 X116.092 Y111.641 E0.01899
G1 X114.989 Y110.519 E0.04934
G1 X113.726 Y107.777 E0.09463
M73 P9 R9
M73 Q9 S9
G1 X113.407 Y104.127 E0.1149
G1 X113.412 Y103.311 E0.02558
G1 X113.695 Y100.511 E0.08824
G1 X115.006 Y97.776 E0.09509
G1 X115.677 Y97.116 E0.02952
G1 X115.31 Y92.924 E0.13193
G1 X116.329 Y89.69 E0.1063
M204 P1500
G1 X116.507 Y89.754 F10800
M204 P1000
G1 X116.685 Y89.818
G1 F1200
G1 X118.906 Y87.17 E0.10837
G1 X121.834 Y85.647 E0.10348
G1 X128.266 Y85.084 E0.20244
G1 X131.413 Y86.076 E0.10348
G1 X134.061 Y88.298 E0.10837
G1 X135.585 Y91.225 E0.10348
G1 X135.761 Y93.236 E0.06329
G1 X136.549 Y102.175 E0.28137
G1 X136.759 Y103.001 E0.02672
G1 X136.871 Y103.654 E0.02077
G1 X136.948 Y104.513 E0.02703
G1 X137.227 Y107.703 E0.10039
G1 X137.242 Y108.169 E0.01463
G1 X137.219 Y109.083 E0.02865
G1 X137.197 Y109.411 E0.01031
G1 X137.189 Y109.486 E0.00238
G1 X137.697 Y115.402 E0.18616
G1 X136.702 Y118.545 E0.10337
G1 X134.48 Y121.188 E0.10826
G1 X132.583 Y122.175 E0.06706
G1 X132.407 Y122.367 E0.00817
G1 X131.592 Y123.06 E0.03355
G1 X130.462 Y123.793 E0.04222
G1 X129.651 Y124.201 E0.02847
G1 X128.552 Y124.61 E0.03678
G1 X127.694 Y124.829 E0.02777
G1 X126.289 Y125.032 E0.04451
G1 X125.191 Y125.044 E0.03443
G1 X123.846 Y124.881 E0.04246
