; generated by SuperSlicer 2.3.57 on 2022-03-16 at 09:11:45 UTC

; 

; external perimeters extrusion width = 0.45mm
; perimeters extrusion width = 0.45mm
; infill extrusion width = 0.45mm
; solid infill extrusion width = 0.45mm
; top infill extrusion width = 0.40mm
; first layer extrusion width = 0.42mm

; object:{"name":"Black - Heatsink Support Back","id":"Black - Heatsink Support Back.stl id:0 copy 0","object_center":[124.999551,105.000697,0.000000],"boundingbox_center":[124.999551,105.000697,10.835361],"boundingbox_size":[42.009535,44.104204,21.670737]}
; Total objects to print: 1
M486 T1
; plater:{"center":[124.999551,105.000697,0.000000],"boundingbox_center":[124.999551,105.000697,10.835361],"boundingbox_size":[42.009535,44.104204,21.670737]}

M73 P0 R105
M73 Q0 S106
;TYPE:Custom
M862.3 P "MK3S" ; printer model check
M862.1 P0.4 ; nozzle diameter check
M115 U3.10.0 ; tell printer latest fw version
G90 ; use absolute coordinates
M83 ; extruder relative mode
M104 S255 ; set extruder temp
M140 S100 ; set bed temp
M190 S100 ; wait for bed temp
M109 S255 ; wait for extruder temp
G28 W ; home all without mesh bed level
G80 ; mesh bed leveling
G1 Y-3.0 F1000.0 ; go outside print area
G92 E0.0
G1 X60.0 E9.0 F1000.0 ; intro line
G1 X100.0 E12.5 F1000.0 ; intro line
G92 E0.0
M221 S95

; Don't change E values below. Excessive value can damage the printer.
M907 E430 ; set extruder motor current
M107
G21 ; set units to millimeters
G90 ; use absolute coordinates
M83 ; use relative distances for extrusion
M900 K0.04 ; Filament gcode LA 1.5
M900 K20 ; Filament gcode LA 1.0
;LAYER_CHANGE
;Z:0.2
;HEIGHT:0.2
;BEFORE_LAYER_CHANGE
G92 E0.0
;0.2


G1 E-0.8 F2100
G1 Z0.4 F10800
;AFTER_LAYER_CHANGE
;0.2
G1 Z0.6
M204 P1500
G1 X95.247 Y78.72
G1 Z0.2
G1 E0.8 F2100
;TYPE:Skirt
;WIDTH:0.42
G1 F1200
G1 X98.758 Y75.208 E0.15571
G1 X100.61 Y73.97 E0.06987
G1 X102.738 Y73.088 E0.07222
G1 X104.924 Y72.653 E0.06987
G1 X112.404 Y72.651 E0.23455
G1 X114.818 Y71.651 E0.08193
G1 X135.187 Y71.647 E0.63863
G1 X137.593 Y72.647 E0.08169
G1 X145.061 Y72.646 E0.23417
G1 X147.247 Y73.08 E0.06987
G1 X149.375 Y73.961 E0.07222
G1 X151.228 Y75.199 E0.06987
G1 X154.74 Y78.71 E0.15571
G1 X155.979 Y80.562 E0.06987
G1 X156.86 Y82.69 E0.07222
G1 X157.296 Y84.876 E0.06987
G1 X157.297 Y94.973 E0.31659
G1 X157.298 Y99.216 E0.13306
G1 X157.299 Y104.973 E0.18049
G1 X157.3 Y109.973 E0.15677
G1 X156.334 Y112.306 E0.07919
G1 X156.866 Y113.59 E0.04357
G1 X157.301 Y115.776 E0.06987
G1 X157.303 Y125.32 E0.29926
G1 X156.584 Y128.104 E0.09015
G1 X155.144 Y130.705 E0.09321
G1 X153.167 Y132.793 E0.09016
G1 X145.729 Y137.452 E0.27519
G1 X142.671 Y138.332 E0.0998
G1 X107.403 Y138.355 E1.10578
G1 X104.352 Y137.484 E0.0995
G1 X96.855 Y132.817 E0.27687
G1 X94.864 Y130.722 E0.09061
G1 X93.42 Y128.115 E0.09344
G1 X92.701 Y125.331 E0.09015
G1 X92.699 Y115.787 E0.29926
G1 X93.133 Y113.601 E0.06987
G1 X93.665 Y112.317 E0.04357
G1 X92.698 Y109.984 E0.07919
G1 X92.697 Y104.984 E0.15677
G1 X92.696 Y99.984 E0.15677
G1 X92.695 Y94.984 E0.15677
G1 X92.694 Y84.887 E0.31659
G1 X93.128 Y82.701 E0.06987
G1 X94.009 Y80.573 E0.07222
G1 X95.213 Y78.77 E0.06799
G1 X95.37 Y78.875 F10800
M204 P1000
G1 X95.527 Y78.979
G1 F1200
G1 X95.54 Y78.96 E0.00072
G1 X98.998 Y75.501 E0.15338
G1 X100.789 Y74.304 E0.06754
G1 X102.848 Y73.45 E0.06989
G1 X104.961 Y73.03 E0.06754
G1 X112.479 Y73.028 E0.23574
G1 X114.894 Y72.028 E0.08193
G1 X135.112 Y72.024 E0.63392
G1 X137.518 Y73.024 E0.08169
G1 X145.024 Y73.023 E0.23536
G1 X147.137 Y73.443 E0.06754
G1 X149.197 Y74.295 E0.06989
G1 X150.988 Y75.492 E0.06754
G1 X154.447 Y78.95 E0.15338
G1 X155.644 Y80.741 E0.06754
G1 X156.498 Y82.8 E0.06989
G1 X156.918 Y84.913 E0.06754
G1 X156.92 Y94.898 E0.31307
G1 X156.921 Y99.291 E0.13776
G1 X156.922 Y104.898 E0.17579
G1 X156.923 Y109.898 E0.15677
G1 X155.926 Y112.306 E0.08174
G1 X156.503 Y113.7 E0.0473
G1 X156.924 Y115.813 E0.06754
G1 X156.926 Y125.272 E0.29659
G1 X156.231 Y127.963 E0.08715
G1 X154.838 Y130.481 E0.0902
G1 X152.926 Y132.499 E0.08715
G1 X145.574 Y137.105 E0.27202
G1 X142.617 Y137.955 E0.09647
G1 X107.456 Y137.978 E1.10246
G1 X104.506 Y137.135 E0.09619
G1 X97.095 Y132.522 E0.2737
G1 X95.171 Y130.497 E0.08759
G1 X93.774 Y127.974 E0.09042
G1 X93.078 Y125.283 E0.08715
G1 X93.076 Y115.824 E0.29659
G1 X93.496 Y113.711 E0.06754
G1 X94.073 Y112.317 E0.04731
G1 X93.075 Y109.909 E0.08174
G1 X93.074 Y104.909 E0.15677
G1 X93.073 Y99.909 E0.15677
G1 X93.073 Y94.909 E0.15677
G1 X93.071 Y84.924 E0.31307
G1 X93.491 Y82.811 E0.06754
G1 X94.343 Y80.752 E0.06989
G1 X95.494 Y79.029 E0.06494
M204 P1500
G1 X95.65 Y79.134 F10800
M204 P1000
G1 X95.807 Y79.239
G1 F1200
G1 X95.833 Y79.201 E0.00143
G1 X99.239 Y75.794 E0.15105
G1 X100.968 Y74.638 E0.06521
G1 X102.958 Y73.813 E0.06756
G1 X104.998 Y73.407 E0.06521
G1 X112.555 Y73.405 E0.23693
G1 X114.969 Y72.405 E0.08193
G1 X135.036 Y72.401 E0.62921
G1 X137.443 Y73.401 E0.08169
G1 X144.987 Y73.4 E0.23656
G1 X147.027 Y73.805 E0.06521
G1 X149.018 Y74.629 E0.06756
G1 X150.747 Y75.785 E0.06521
G1 X154.155 Y79.19 E0.15105
G1 X155.31 Y80.92 E0.06521
G1 X156.135 Y82.91 E0.06756
G1 X156.541 Y84.95 E0.06521
G1 X156.543 Y94.823 E0.30956
G1 X156.544 Y99.366 E0.14246
G1 X156.545 Y104.823 E0.17108
G1 X156.546 Y109.823 E0.15677
G1 X155.517 Y112.306 E0.08428
G1 X156.141 Y113.81 E0.05104
G1 X156.547 Y115.85 E0.06521
G1 X156.548 Y125.224 E0.29393
G1 X155.878 Y127.823 E0.08414
G1 X154.531 Y130.256 E0.0872
G1 X152.685 Y132.204 E0.08415
M73 P0 R104
G1 X146.051 Y136.361 E0.24548
G1 X144.7 Y136.964 E0.04638
G1 X143.227 Y137.387 E0.04805
G1 X141.763 Y137.594 E0.04638
G1 X108.245 Y137.6 E1.05091
G1 X106.78 Y137.394 E0.04638
G1 X105.307 Y136.971 E0.04805
G1 X103.956 Y136.368 E0.04638
G1 X97.32 Y132.214 E0.24548
G1 X95.474 Y130.266 E0.08414
G1 X94.127 Y127.834 E0.0872
G1 X93.455 Y125.235 E0.08414
G1 X93.453 Y115.861 E0.29393
G1 X93.859 Y113.821 E0.06521
G1 X94.481 Y112.317 E0.05104
G1 X93.452 Y109.834 E0.08428
G1 X93.451 Y104.834 E0.15677
G1 X93.45 Y99.834 E0.15677
G1 X93.45 Y94.834 E0.15677
G1 X93.448 Y84.961 E0.30956
G1 X93.853 Y82.921 E0.06521
G1 X94.677 Y80.93 E0.06756
G1 X95.774 Y79.289 E0.0619
M204 P1500
G1 X95.931 Y79.393 F10800
M204 P1000
G1 X96.088 Y79.498
G1 F1200
G1 X96.126 Y79.441 E0.00215
G1 X99.479 Y76.086 E0.14872
G1 X101.146 Y74.972 E0.06288
G1 X103.068 Y74.175 E0.06523
G1 X105.035 Y73.784 E0.06288
G1 X112.63 Y73.782 E0.23812
G1 X115.044 Y72.782 E0.08193
G1 X134.961 Y72.779 E0.6245
G1 X137.367 Y73.778 E0.08169
G1 X144.95 Y73.777 E0.23775
G1 X146.917 Y74.168 E0.06288
G1 X148.839 Y74.964 E0.06523
G1 X150.507 Y76.078 E0.06288
G1 X153.862 Y79.431 E0.14872
G1 X154.976 Y81.098 E0.06288
G1 X155.773 Y83.02 E0.06523
G1 X156.164 Y84.987 E0.06288
G1 X156.166 Y94.748 E0.30604
G1 X156.167 Y99.442 E0.14717
G1 X156.168 Y104.748 E0.16638
G1 X156.169 Y109.748 E0.15677
G1 X155.109 Y112.306 E0.08683
G1 X155.778 Y113.92 E0.05477
G1 X156.17 Y115.887 E0.06288
G1 X156.171 Y125.176 E0.29126
G1 X155.524 Y127.682 E0.08114
G1 X154.224 Y130.032 E0.08419
G1 X152.445 Y131.91 E0.08114
G1 X145.873 Y136.028 E0.24315
G1 X144.57 Y136.609 E0.04473
G1 X143.148 Y137.018 E0.04639
G1 X141.736 Y137.217 E0.04472
G1 X108.271 Y137.223 E1.04926
G1 X106.859 Y137.024 E0.04472
G1 X105.437 Y136.616 E0.04639
G1 X104.134 Y136.035 E0.04473
G1 X97.561 Y131.92 E0.24315
M73 Q0 S105
G1 X95.781 Y130.042 E0.08114
G1 X94.48 Y127.693 E0.08419
G1 X93.832 Y125.187 E0.08114
G1 X93.83 Y115.898 E0.29126
G1 X94.221 Y113.931 E0.06288
G1 X94.889 Y112.317 E0.05477
G1 X93.829 Y109.759 E0.08683
G1 X93.828 Y104.759 E0.15677
G1 X93.828 Y99.759 E0.15677
G1 X93.827 Y94.759 E0.15677
G1 X93.825 Y84.998 E0.30604
G1 X94.216 Y83.031 E0.06288
G1 X95.012 Y81.109 E0.06523
G1 X96.054 Y79.548 E0.05885
M204 P1500
G1 X96.211 Y79.653 F10800
M204 P1000
G1 X96.368 Y79.757
G1 F1200
G1 X96.419 Y79.681 E0.00287
G1 X99.719 Y76.379 E0.14639
G1 X101.325 Y75.306 E0.06055
G1 X103.178 Y74.538 E0.0629
G1 X105.072 Y74.161 E0.06055
G1 X112.705 Y74.16 E0.2393
G1 X115.119 Y73.159 E0.08193
G1 X134.886 Y73.156 E0.61979
G1 X137.292 Y74.155 E0.08169
G1 X144.913 Y74.154 E0.23895
G1 X146.807 Y74.53 E0.06055
G1 X148.661 Y75.298 E0.0629
G1 X150.267 Y76.37 E0.06055
G1 X153.569 Y79.671 E0.14639
G1 X154.642 Y81.277 E0.06055
G1 X155.41 Y83.13 E0.0629
G1 X155.787 Y85.024 E0.06055
G1 X155.789 Y94.673 E0.30252
G1 X155.79 Y99.517 E0.15187
G1 X155.791 Y104.673 E0.16167
G1 X155.792 Y109.673 E0.15677
G1 X154.701 Y112.307 E0.08937
G1 X155.416 Y114.03 E0.0585
G1 X155.793 Y115.924 E0.06055
G1 X155.794 Y125.129 E0.28859
G1 X155.171 Y127.541 E0.07813
G1 X153.918 Y129.807 E0.08119
G1 X152.204 Y131.616 E0.07813
G1 X145.695 Y135.694 E0.24082
G1 X144.441 Y136.254 E0.04307
G1 X143.07 Y136.648 E0.04473
G1 X141.71 Y136.84 E0.04307
G1 X108.298 Y136.846 E1.0476
G1 X106.938 Y136.654 E0.04307
G1 X105.566 Y136.261 E0.04473
G1 X104.312 Y135.701 E0.04307
G1 X97.802 Y131.626 E0.24082
G1 X96.087 Y129.817 E0.07813
G1 X94.833 Y127.552 E0.08119
G1 X94.209 Y125.139 E0.07813
G1 X94.207 Y115.935 E0.28859
M73 P1 R104
G1 X94.584 Y114.041 E0.06055
G1 X95.298 Y112.317 E0.05851
G1 X94.206 Y109.684 E0.08937
G1 X94.205 Y104.684 E0.15677
M73 Q1 S105
G1 X94.205 Y99.684 E0.15677
G1 X94.204 Y94.684 E0.15677
G1 X94.202 Y85.035 E0.30252
G1 X94.578 Y83.141 E0.06055
G1 X95.346 Y81.287 E0.0629
G1 X96.334 Y79.807 E0.0558
M204 P1500
G1 X96.491 Y79.912 F10800
M204 P1000
G1 X96.648 Y80.017
G1 F1200
G1 X96.711 Y79.922 E0.00358
G1 X99.96 Y76.672 E0.14406
G1 X101.504 Y75.64 E0.05822
G1 X103.288 Y74.901 E0.06058
G1 X105.11 Y74.538 E0.05822
G1 X112.78 Y74.537 E0.24049
G1 X115.194 Y73.536 E0.08193
G1 X134.811 Y73.533 E0.61508
G1 X137.217 Y74.532 E0.08169
G1 X144.876 Y74.531 E0.24014
G1 X146.697 Y74.893 E0.05822
G1 X148.482 Y75.632 E0.06058
G1 X150.026 Y76.663 E0.05822
G1 X153.276 Y79.912 E0.14406
G1 X154.308 Y81.456 E0.05822
G1 X155.048 Y83.24 E0.06058
G1 X155.41 Y85.062 E0.05822
G1 X155.412 Y94.598 E0.29901
G1 X155.413 Y99.592 E0.15657
G1 X155.414 Y104.598 E0.15697
G1 X155.414 Y109.598 E0.15677
G1 X154.288 Y112.318 E0.09231
G1 X154.313 Y112.356 E0.00141
G1 X155.053 Y114.14 E0.06058
G1 X155.416 Y115.962 E0.05822
G1 X155.417 Y125.081 E0.28593
G1 X154.818 Y127.401 E0.07513
G1 X153.611 Y129.583 E0.07818
G1 X151.963 Y131.322 E0.07513
G1 X145.517 Y135.36 E0.23849
G1 X144.311 Y135.899 E0.04141
G1 X142.991 Y136.278 E0.04308
G1 X141.683 Y136.463 E0.04141
G1 X108.324 Y136.468 E1.04595
G1 X107.016 Y136.285 E0.04141
G1 X105.696 Y135.905 E0.04308
G1 X104.489 Y135.368 E0.04141
G1 X98.042 Y131.332 E0.23848
G1 X96.394 Y129.593 E0.07513
G1 X95.186 Y127.411 E0.07818
G1 X94.586 Y125.091 E0.07513
G1 X94.585 Y115.972 E0.28593
G1 X94.946 Y114.151 E0.05822
G1 X95.685 Y112.366 E0.06058
G1 X95.711 Y112.328 E0.00141
G1 X94.583 Y109.609 E0.09231
G1 X94.583 Y104.609 E0.15677
G1 X94.582 Y99.609 E0.15677
G1 X94.581 Y94.609 E0.15677
G1 X94.579 Y85.072 E0.29901
G1 X94.941 Y83.251 E0.05822
G1 X95.68 Y81.466 E0.06058
G1 X96.615 Y80.067 E0.05276
M204 P1500
G1 X96.771 Y80.171 F10800
M204 P1000
G1 X96.928 Y80.276
G1 F1200
G1 X97.004 Y80.162 E0.0043
G1 X100.2 Y76.965 E0.14173
G1 X101.682 Y75.974 E0.05589
G1 X103.398 Y75.263 E0.05825
G1 X105.147 Y74.915 E0.0559
G1 X112.855 Y74.914 E0.24168
G1 X115.269 Y73.913 E0.08193
G1 X134.736 Y73.91 E0.61037
G1 X137.142 Y74.909 E0.08169
G1 X144.839 Y74.908 E0.24134
G1 X146.587 Y75.256 E0.05589
G1 X148.304 Y75.966 E0.05825
G1 X149.786 Y76.956 E0.05589
G1 X152.983 Y80.152 E0.14173
G1 X153.974 Y81.634 E0.05589
G1 X154.685 Y83.35 E0.05825
G1 X155.033 Y85.099 E0.0559
G1 X155.035 Y94.523 E0.29549
G1 X155.005 Y94.595 E0.00244
G1 X155.035 Y94.667 E0.00244
G1 X155.036 Y99.523 E0.15227
G1 X155.006 Y99.595 E0.00244
G1 X155.036 Y99.667 E0.00244
G1 X155.036 Y104.523 E0.15227
G1 X155.007 Y104.595 E0.00244
G1 X155.037 Y104.667 E0.00244
G1 X155.037 Y109.523 E0.15227
G1 X153.863 Y112.36 E0.09628
G1 X153.979 Y112.534 E0.00657
G1 X154.69 Y114.25 E0.05825
G1 X155.038 Y115.999 E0.0559
G1 X155.04 Y125.033 E0.28326
G1 X154.465 Y127.26 E0.07212
G1 X153.304 Y129.358 E0.07518
G1 X151.722 Y131.028 E0.07212
G1 X145.34 Y135.027 E0.23615
G1 X144.182 Y135.544 E0.03976
G1 X142.912 Y135.909 E0.04142
G1 X141.657 Y136.086 E0.03975
G1 X108.35 Y136.091 E1.04429
G1 X107.095 Y135.915 E0.03975
G1 X105.825 Y135.55 E0.04142
G1 X104.667 Y135.034 E0.03976
G1 X98.283 Y131.037 E0.23615
G1 X96.701 Y129.368 E0.07212
G1 X95.539 Y127.27 E0.07518
G1 X94.963 Y125.043 E0.07212
G1 X94.962 Y116.009 E0.28326
G1 X95.309 Y114.261 E0.05589
G1 X96.02 Y112.544 E0.05825
G1 X96.136 Y112.37 E0.00657
G1 X94.96 Y109.533 E0.09628
G1 X94.96 Y104.677 E0.15227
G1 X94.989 Y104.605 E0.00244
G1 X94.96 Y104.533 E0.00244
G1 X94.959 Y99.677 E0.15227
G1 X94.988 Y99.605 E0.00244
G1 X94.959 Y99.534 E0.00244
G1 X94.958 Y94.677 E0.15227
G1 X94.988 Y94.605 E0.00244
G1 X94.958 Y94.533 E0.00244
G1 X94.956 Y85.109 E0.29549
G1 X95.304 Y83.361 E0.05589
G1 X96.014 Y81.644 E0.05825
G1 X96.895 Y80.326 E0.04971
M204 P1500
G1 X97.052 Y80.431 F10800
M204 P1000
G1 X97.208 Y80.535
G1 F1200
G1 X97.297 Y80.402 E0.00502
G1 X100.441 Y77.258 E0.13941
G1 X101.861 Y76.308 E0.05356
G1 X103.509 Y75.626 E0.05592
G1 X105.184 Y75.292 E0.05357
G1 X112.93 Y75.291 E0.24287
G1 X115.344 Y74.29 E0.08193
G1 X134.66 Y74.287 E0.60566
G1 X137.067 Y75.287 E0.08169
G1 X144.802 Y75.285 E0.24253
G1 X146.477 Y75.618 E0.05357
G1 X148.125 Y76.3 E0.05592
G1 X149.546 Y77.249 E0.05357
G1 X152.69 Y80.393 E0.13941
G1 X153.64 Y81.813 E0.05356
G1 X154.322 Y83.46 E0.05592
G1 X154.656 Y85.136 E0.05357
G1 X154.658 Y94.448 E0.29197
G1 X154.597 Y94.595 E0.00499
G1 X154.658 Y94.742 E0.00498
G1 X154.659 Y99.448 E0.14756
G1 X154.598 Y99.595 E0.00498
G1 X154.659 Y99.742 E0.00498
G1 X154.659 Y104.448 E0.14756
G1 X154.599 Y104.595 E0.00498
G1 X154.659 Y104.742 E0.00498
G1 X154.66 Y109.448 E0.14756
G1 X153.437 Y112.402 E0.10024
G1 X153.645 Y112.713 E0.01172
G1 X154.328 Y114.36 E0.05592
G1 X154.661 Y116.036 E0.05357
G1 X154.663 Y124.985 E0.28059
G1 X154.112 Y127.119 E0.06912
G1 X152.997 Y129.133 E0.07217
G1 X151.481 Y130.734 E0.06912
G1 X145.162 Y134.693 E0.23382
G1 X144.052 Y135.188 E0.0381
G1 X142.833 Y135.539 E0.03976
G1 X141.63 Y135.708 E0.0381
G1 X108.377 Y135.714 E1.04263
G1 X107.174 Y135.545 E0.0381
G1 X105.955 Y135.195 E0.03976
G1 X104.845 Y134.7 E0.0381
G1 X98.524 Y130.743 E0.23382
G1 X97.007 Y129.143 E0.06912
G1 X95.892 Y127.13 E0.07217
G1 X95.34 Y124.995 E0.06912
G1 X95.339 Y116.046 E0.28059
G1 X95.672 Y114.371 E0.05357
M73 P1 R103
G1 X96.354 Y112.723 E0.05592
G1 X96.562 Y112.412 E0.01172
G1 X95.338 Y109.458 E0.10024
G1 X95.337 Y104.752 E0.14756
G1 X95.398 Y104.605 E0.00498
G1 X95.337 Y104.458 E0.00498
G1 X95.336 Y99.752 E0.14756
G1 X95.397 Y99.605 E0.00498
G1 X95.336 Y99.458 E0.00498
G1 X95.335 Y94.752 E0.14756
G1 X95.396 Y94.605 E0.00498
G1 X95.335 Y94.458 E0.00498
G1 X95.333 Y85.146 E0.29197
G1 X95.666 Y83.471 E0.05357
G1 X96.348 Y81.823 E0.05592
G1 X97.175 Y80.585 E0.04667
M204 P1500
G1 X97.332 Y80.69 F10800
M204 P1000
G1 X97.489 Y80.795
G1 F1200
G1 X97.59 Y80.643 E0.00573
G1 X100.681 Y77.551 E0.13708
G1 X102.04 Y76.643 E0.05124
G1 X103.619 Y75.988 E0.05359
G1 X105.221 Y75.669 E0.05124
G1 X113.005 Y75.668 E0.24405
G1 X115.419 Y74.667 E0.08193
G1 X134.585 Y74.664 E0.60094
G1 X136.991 Y75.664 E0.08169
G1 X144.765 Y75.662 E0.24373
G1 X146.367 Y75.981 E0.05124
G1 X147.947 Y76.635 E0.05359
G1 X149.306 Y77.542 E0.05124
G1 X152.397 Y80.633 E0.13708
G1 X153.306 Y81.992 E0.05124
G1 X153.96 Y83.57 E0.05359
G1 X154.279 Y85.173 E0.05124
G1 X154.281 Y94.373 E0.28846
G1 X154.189 Y94.595 E0.00753
G1 X154.281 Y94.817 E0.00753
G1 X154.281 Y99.373 E0.14286
G1 X154.19 Y99.595 E0.00753
G1 X154.282 Y99.817 E0.00753
G1 X154.282 Y104.373 E0.14286
G1 X154.19 Y104.595 E0.00753
G1 X154.282 Y104.817 E0.00753
G1 X154.283 Y109.373 E0.14286
G1 X153.021 Y112.422 E0.10348
G1 X153.007 Y112.436 E0.00062
G1 X153.311 Y112.892 E0.01716
G1 X153.965 Y114.47 E0.05359
G1 X154.284 Y116.073 E0.05124
G1 X154.286 Y124.937 E0.27793
G1 X153.759 Y126.979 E0.06611
G1 X152.691 Y128.909 E0.06917
G1 X151.241 Y130.44 E0.06611
G1 X144.984 Y134.36 E0.23149
G1 X143.923 Y134.833 E0.03644
G1 X142.754 Y135.169 E0.03811
