; generated by SuperSlicer 2.3.57 on 2022-03-16 at 09:10:30 UTC

; 

; external perimeters extrusion width = 0.45mm
; perimeters extrusion width = 0.45mm
; infill extrusion width = 0.45mm
; solid infill extrusion width = 0.45mm
; top infill extrusion width = 0.40mm
; first layer extrusion width = 0.42mm

; object:{"name":"Black - Heatbead Cable Cover Top","id":"Black - Heatbead Cable Cover Top.stl id:0 copy 0","object_center":[125.000000,105.000000,0.000000],"boundingbox_center":[125.000000,105.000000,1.500000],"boundingbox_size":[35.000002,31.999985,3.000000]}
; Total objects to print: 1
M486 T1
; plater:{"center":[125.000000,105.000000,0.000000],"boundingbox_center":[125.000000,105.000000,1.500000],"boundingbox_size":[35.000002,31.999985,3.000000]}

M73 P0 R17
M73 Q0 S17
;TYPE:Custom
M862.3 P "MK3S" ; printer model check
M862.1 P0.4 ; nozzle diameter check
M115 U3.10.0 ; tell printer latest fw version
G90 ; use absolute coordinates
M83 ; extruder relative mode
M104 S255 ; set extruder temp
M140 S100 ; set bed temp
M190 S100 ; wait for bed temp
M109 S255 ; wait for extruder temp
G28 W ; home all without mesh bed level
G80 ; mesh bed leveling
G1 Y-3.0 F1000.0 ; go outside print area
G92 E0.0
G1 X60.0 E9.0 F1000.0 ; intro line
G1 X100.0 E12.5 F1000.0 ; intro line
G92 E0.0
M221 S95

; Don't change E values below. Excessive value can damage the printer.
M907 E430 ; set extruder motor current
M107
G21 ; set units to millimeters
G90 ; use absolute coordinates
M83 ; use relative distances for extrusion
M900 K0.04 ; Filament gcode LA 1.5
M900 K20 ; Filament gcode LA 1.0
;LAYER_CHANGE
;Z:0.2
;HEIGHT:0.2
;BEFORE_LAYER_CHANGE
G92 E0.0
;0.2


G1 E-0.8 F2100
G1 Z0.4 F10800
;AFTER_LAYER_CHANGE
;0.2
G1 Z0.6
M204 P1500
G1 X98.807 Y93.714
G1 Z0.2
G1 E0.8 F2100
;TYPE:Skirt
;WIDTH:0.42
G1 F1200
G1 X102.1 Y90.421 E0.146
G1 X106.258 Y88.699 E0.14111
G1 X108.936 Y88.699 E0.08398
G1 X109.528 Y88.107 E0.02625
G1 X109.528 Y86.872 E0.03874
G1 X111.25 Y82.714 E0.14111
G1 X114.543 Y79.421 E0.146
G1 X118.701 Y77.699 E0.14111
G1 X131.299 Y77.699 E0.39502
G1 X135.457 Y79.421 E0.14111
G1 X138.75 Y82.714 E0.146
G1 X140.472 Y86.872 E0.1411
M73 Q1 S17
G1 X140.472 Y88.107 E0.03874
G1 X141.064 Y88.699 E0.02625
G1 X143.531 Y88.699 E0.07737
M73 P1 R17
G1 X147.689 Y90.421 E0.14111
G1 X150.982 Y93.714 E0.146
M73 P1 R16
G1 X152.704 Y97.872 E0.1411
G1 X152.704 Y123.128 E0.7919
G1 X150.982 Y127.286 E0.14111
G1 X147.689 Y130.579 E0.146
G1 X143.531 Y132.301 E0.14111
G1 X106.258 Y132.301 E1.16869
G1 X102.1 Y130.579 E0.1411
G1 X98.807 Y127.286 E0.146
M73 Q1 S16
G1 X97.085 Y123.128 E0.14111
G1 X97.085 Y97.872 E0.7919
G1 X98.784 Y93.769 E0.13922
G1 X98.956 Y93.848 F10800
M204 P1000
G1 X99.127 Y93.928
G1 F1200
G1 X102.314 Y90.741 E0.1413
G1 X106.333 Y89.076 E0.1364
G1 X109.092 Y89.076 E0.08653
G1 X109.905 Y88.263 E0.03604
G1 X109.905 Y86.947 E0.04128
G1 X111.57 Y82.928 E0.1364
G1 X114.757 Y79.741 E0.1413
G1 X118.776 Y78.076 E0.1364
G1 X131.224 Y78.076 E0.39031
G1 X135.243 Y79.741 E0.1364
G1 X138.43 Y82.928 E0.1413
G1 X140.095 Y86.947 E0.1364
G1 X140.095 Y88.263 E0.04128
G1 X140.908 Y89.076 E0.03604
G1 X143.456 Y89.076 E0.07991
G1 X147.476 Y90.741 E0.1364
M73 Q2 S16
G1 X150.662 Y93.928 E0.1413
M73 P2 R16
G1 X152.327 Y97.947 E0.1364
G1 X152.327 Y123.053 E0.7872
G1 X150.662 Y127.072 E0.1364
G1 X147.476 Y130.259 E0.1413
G1 X143.456 Y131.924 E0.1364
G1 X106.333 Y131.924 E1.16398
G1 X102.314 Y130.259 E0.1364
G1 X99.127 Y127.072 E0.1413
G1 X97.462 Y123.053 E0.1364
G1 X97.462 Y97.947 E0.7872
G1 X99.104 Y93.983 E0.13452
M204 P1500
G1 X99.275 Y94.062 F10800
M204 P1000
G1 X99.447 Y94.141
G1 F1200
G1 X102.527 Y91.061 E0.1366
G1 X106.408 Y89.453 E0.1317
G1 X109.249 Y89.453 E0.08907
G1 X110.282 Y88.42 E0.04584
G1 X110.282 Y87.022 E0.04383
G1 X111.89 Y83.141 E0.1317
G1 X114.97 Y80.061 E0.1366
G1 X118.851 Y78.453 E0.1317
G1 X131.149 Y78.453 E0.38561
G1 X135.03 Y80.061 E0.1317
G1 X138.11 Y83.141 E0.1366
G1 X139.718 Y87.022 E0.1317
G1 X139.718 Y88.42 E0.04383
G1 X140.751 Y89.453 E0.04584
G1 X143.381 Y89.453 E0.08246
G1 X147.262 Y91.061 E0.1317
G1 X150.342 Y94.141 E0.1366
G1 X151.95 Y98.022 E0.1317
M73 Q3 S16
G1 X151.95 Y122.978 E0.78249
M73 P3 R16
G1 X150.342 Y126.859 E0.1317
G1 X147.262 Y129.939 E0.1366
G1 X143.381 Y131.547 E0.1317
G1 X106.408 Y131.547 E1.15928
G1 X102.527 Y129.939 E0.1317
G1 X99.447 Y126.859 E0.1366
G1 X97.839 Y122.978 E0.1317
G1 X97.839 Y98.022 E0.78249
G1 X99.424 Y94.197 E0.12982
M204 P1500
G1 X99.595 Y94.276 F10800
M204 P1000
G1 X99.766 Y94.355
G1 F1200
G1 X102.741 Y91.38 E0.13189
G1 X106.483 Y89.83 E0.12699
G1 X109.405 Y89.83 E0.09162
G1 X110.659 Y88.576 E0.05563
G1 X110.659 Y87.097 E0.04637
G1 X112.209 Y83.355 E0.12699
G1 X115.184 Y80.38 E0.13189
G1 X118.926 Y78.83 E0.12699
G1 X131.074 Y78.83 E0.38091
G1 X134.816 Y80.38 E0.127
G1 X137.791 Y83.355 E0.13189
G1 X139.341 Y87.097 E0.12699
G1 X139.341 Y88.576 E0.04637
G1 X140.595 Y89.83 E0.05563
G1 X143.306 Y89.83 E0.085
G1 X147.048 Y91.38 E0.127
G1 X150.023 Y94.355 E0.13189
G1 X151.573 Y98.097 E0.12699
G1 X151.573 Y122.903 E0.77779
M73 P4 R16
M73 Q4 S16
G1 X150.023 Y126.645 E0.12699
G1 X147.048 Y129.62 E0.13189
G1 X143.306 Y131.17 E0.12699
G1 X106.483 Y131.17 E1.15458
G1 X102.741 Y129.62 E0.12699
G1 X99.766 Y126.645 E0.13189
G1 X98.216 Y122.903 E0.127
G1 X98.216 Y98.097 E0.77779
G1 X99.743 Y94.41 E0.12511
M204 P1500
G1 X99.915 Y94.489 F10800
M204 P1000
G1 X100.086 Y94.568
G1 F1200
G1 X102.954 Y91.7 E0.12719
G1 X106.558 Y90.207 E0.12229
G1 X109.642 Y90.207 E0.09672
G1 X109.7 Y90.068 E0.00472
G1 X111.036 Y88.732 E0.05926
G1 X111.036 Y87.172 E0.04892
G1 X112.529 Y83.568 E0.12229
G1 X115.397 Y80.7 E0.12719
G1 X119.001 Y79.207 E0.12229
G1 X130.999 Y79.207 E0.3762
G1 X134.603 Y80.7 E0.12229
G1 X137.471 Y83.568 E0.12719
G1 X138.964 Y87.172 E0.12229
G1 X138.964 Y88.732 E0.04892
G1 X140.3 Y90.068 E0.05926
G1 X140.358 Y90.207 E0.00472
G1 X143.231 Y90.207 E0.0901
G1 X146.835 Y91.7 E0.12229
G1 X149.703 Y94.568 E0.12719
G1 X151.196 Y98.172 E0.12229
G1 X151.196 Y122.828 E0.77309
G1 X149.703 Y126.432 E0.12229
G1 X146.835 Y129.3 E0.12719
M73 P5 R16
M73 Q5 S16
G1 X143.231 Y130.793 E0.12229
G1 X106.558 Y130.793 E1.14987
G1 X102.954 Y129.3 E0.12229
G1 X100.086 Y126.432 E0.12719
G1 X98.593 Y122.828 E0.12229
G1 X98.593 Y98.172 E0.77309
G1 X100.063 Y94.624 E0.12041
M204 P1500
G1 X100.234 Y94.703 F10800
M204 P1000
G1 X100.406 Y94.782
G1 F1200
G1 X103.168 Y92.02 E0.12248
G1 X106.633 Y90.584 E0.11759
G1 X109.894 Y90.584 E0.10226
G1 X110.02 Y90.282 E0.01027
G1 X111.413 Y88.888 E0.06181
G1 X111.413 Y87.247 E0.05146
G1 X112.849 Y83.782 E0.11759
G1 X115.611 Y81.02 E0.12248
G1 X119.076 Y79.584 E0.11759
G1 X130.924 Y79.584 E0.3715
G1 X134.389 Y81.02 E0.11759
G1 X137.151 Y83.782 E0.12248
G1 X138.587 Y87.247 E0.11759
G1 X138.587 Y88.888 E0.05146
G1 X139.98 Y90.282 E0.06181
G1 X140.106 Y90.584 E0.01027
G1 X143.156 Y90.584 E0.09565
G1 X146.621 Y92.02 E0.11759
G1 X149.383 Y94.782 E0.12248
G1 X150.819 Y98.247 E0.11759
G1 X150.819 Y122.753 E0.76838
G1 X149.383 Y126.218 E0.11759
G1 X146.621 Y128.98 E0.12248
G1 X143.156 Y130.416 E0.11759
G1 X106.633 Y130.416 E1.14517
M73 P6 R16
M73 Q6 S16
G1 X103.168 Y128.98 E0.11759
G1 X100.406 Y126.218 E0.12248
G1 X98.97 Y122.753 E0.11759
G1 X98.97 Y98.247 E0.76838
G1 X100.383 Y94.837 E0.11571
M204 P1500
G1 X100.554 Y94.916 F10800
M204 P1000
G1 X100.725 Y94.996
G1 F1200
G1 X103.382 Y92.339 E0.11778
G1 X106.708 Y90.962 E0.11288
G1 X110.146 Y90.962 E0.10781
G1 X110.339 Y90.496 E0.01582
G1 X111.791 Y89.044 E0.06435
G1 X111.791 Y87.322 E0.05401
G1 X113.168 Y83.996 E0.11288
G1 X115.825 Y81.339 E0.11778
G1 X119.151 Y79.962 E0.11288
G1 X130.849 Y79.962 E0.3668
G1 X134.175 Y81.339 E0.11288
G1 X136.832 Y83.996 E0.11778
G1 X138.209 Y87.322 E0.11288
G1 X138.209 Y89.044 E0.05401
G1 X139.661 Y90.496 E0.06435
G1 X139.854 Y90.962 E0.01581
G1 X143.081 Y90.962 E0.1012
G1 X146.408 Y92.339 E0.11288
G1 X149.064 Y94.996 E0.11778
G1 X150.442 Y98.322 E0.11288
G1 X150.442 Y122.678 E0.76368
G1 X149.064 Y126.004 E0.11288
G1 X146.408 Y128.661 E0.11778
G1 X143.081 Y130.038 E0.11288
G1 X106.708 Y130.038 E1.14047
M73 P7 R16
M73 Q7 S16
G1 X103.382 Y128.661 E0.11288
G1 X100.725 Y126.004 E0.11778
G1 X99.348 Y122.678 E0.11288
M73 P7 R15
G1 X99.348 Y98.322 E0.76368
G1 X100.702 Y95.051 E0.111
M204 P1500
G1 X100.874 Y95.13 F10800
M204 P1000
G1 X101.045 Y95.209
G1 F1200
G1 X103.595 Y92.659 E0.11308
G1 X106.783 Y91.339 E0.10818
G1 X110.398 Y91.339 E0.11336
G1 X110.659 Y90.709 E0.02136
G1 X112.168 Y89.2 E0.0669
G1 X112.168 Y87.397 E0.05655
G1 X113.488 Y84.209 E0.10818
G1 X116.038 Y81.659 E0.11308
G1 X119.226 Y80.339 E0.10818
G1 X130.774 Y80.339 E0.36209
G1 X133.962 Y81.659 E0.10818
G1 X136.512 Y84.209 E0.11308
G1 X137.832 Y87.397 E0.10818
G1 X137.832 Y89.2 E0.05655
G1 X139.341 Y90.709 E0.0669
G1 X139.602 Y91.339 E0.02136
G1 X143.006 Y91.339 E0.10675
G1 X146.194 Y92.659 E0.10818
M73 Q7 S15
G1 X148.744 Y95.209 E0.11308
G1 X150.064 Y98.397 E0.10818
G1 X150.064 Y122.603 E0.75898
G1 X148.744 Y125.791 E0.10818
G1 X146.194 Y128.341 E0.11308
G1 X143.006 Y129.661 E0.10818
G1 X106.783 Y129.661 E1.13576
G1 X103.595 Y128.341 E0.10818
G1 X101.045 Y125.791 E0.11308
G1 X99.725 Y122.603 E0.10818
G1 X99.725 Y98.397 E0.75898
M73 P8 R15
M73 Q8 S15
G1 X101.022 Y95.265 E0.1063
M204 P1500
G1 X101.193 Y95.344 F10800
M204 P1000
G1 X101.365 Y95.423
G1 F1200
G1 X103.809 Y92.979 E0.10837
G1 X106.858 Y91.716 E0.10348
G1 X110.65 Y91.716 E0.11891
G1 X110.979 Y90.923 E0.02691
G1 X112.545 Y89.357 E0.06944
G1 X112.545 Y87.472 E0.0591
G1 X113.808 Y84.423 E0.10348
G1 X116.252 Y81.979 E0.10837
G1 X119.301 Y80.716 E0.10348
G1 X130.699 Y80.716 E0.35739
G1 X133.748 Y81.979 E0.10348
G1 X136.192 Y84.423 E0.10837
G1 X137.455 Y87.472 E0.10348
G1 X137.455 Y89.357 E0.0591
G1 X139.021 Y90.923 E0.06944
G1 X139.35 Y91.716 E0.02691
G1 X142.931 Y91.716 E0.1123
G1 X145.98 Y92.979 E0.10348
G1 X148.424 Y95.423 E0.10837
G1 X149.687 Y98.472 E0.10348
G1 X149.687 Y122.528 E0.75427
G1 X148.424 Y125.577 E0.10348
G1 X145.98 Y128.021 E0.10837
G1 X142.931 Y129.284 E0.10348
G1 X106.858 Y129.284 E1.13106
G1 X103.809 Y128.021 E0.10348
G1 X101.365 Y125.577 E0.10837
G1 X100.102 Y122.528 E0.10348
G1 X100.102 Y98.472 E0.75427
G1 X101.342 Y95.478 E0.1016
M204 P1500
G1 X101.513 Y95.557 F10800
M204 P1000
G1 X101.684 Y95.636
G1 F1200
G1 X104.022 Y93.298 E0.10367
G1 X106.933 Y92.093 E0.09877
G1 X110.902 Y92.093 E0.12446
M73 P9 R15
M73 Q9 S15
G1 X111.298 Y91.136 E0.03246
G1 X112.922 Y89.513 E0.07199
G1 X112.922 Y87.547 E0.06165
G1 X114.127 Y84.636 E0.09877
G1 X116.465 Y82.298 E0.10367
G1 X119.376 Y81.093 E0.09877
G1 X130.624 Y81.093 E0.35269
G1 X133.535 Y82.298 E0.09877
G1 X135.873 Y84.636 E0.10367
G1 X137.078 Y87.547 E0.09877
G1 X137.078 Y89.513 E0.06164
G1 X138.702 Y91.136 E0.07199
G1 X139.098 Y92.093 E0.03246
G1 X142.856 Y92.093 E0.11784
G1 X145.767 Y93.298 E0.09877
G1 X148.105 Y95.636 E0.10367
G1 X149.31 Y98.547 E0.09877
G1 X149.31 Y122.453 E0.74957
G1 X148.105 Y125.364 E0.09877
G1 X145.767 Y127.702 E0.10367
G1 X142.856 Y128.907 E0.09877
G1 X106.933 Y128.907 E1.12636
G1 X104.022 Y127.702 E0.09877
G1 X101.684 Y125.364 E0.10367
G1 X100.479 Y122.453 E0.09877
G1 X100.479 Y98.547 E0.74957
G1 X101.661 Y95.692 E0.09689
M204 P1500
G1 X101.833 Y95.771 F10800
M204 P1000
G1 X102.004 Y95.85
G1 F1200
G1 X104.236 Y93.618 E0.09897
G1 X107.008 Y92.47 E0.09407
G1 X111.154 Y92.47 E0.13001
G1 X111.618 Y91.35 E0.03801
G1 X113.299 Y89.669 E0.07453
G1 X113.299 Y87.622 E0.06419
G1 X114.447 Y84.85 E0.09407
G1 X116.679 Y82.618 E0.09897
G1 X119.451 Y81.47 E0.09407
G1 X130.549 Y81.47 E0.34798
M73 P10 R15
G1 X133.321 Y82.618 E0.09407
M73 Q10 S15
G1 X135.553 Y84.85 E0.09897
G1 X136.701 Y87.622 E0.09407
G1 X136.701 Y89.669 E0.06419
G1 X138.382 Y91.35 E0.07453
G1 X138.846 Y92.47 E0.03801
G1 X142.781 Y92.47 E0.12339
G1 X145.553 Y93.618 E0.09407
G1 X147.785 Y95.85 E0.09897
G1 X148.933 Y98.622 E0.09407
G1 X148.933 Y122.378 E0.74487
G1 X147.785 Y125.15 E0.09407
G1 X145.553 Y127.382 E0.09897
G1 X142.781 Y128.53 E0.09407
G1 X107.008 Y128.53 E1.12165
G1 X104.236 Y127.382 E0.09407
G1 X102.004 Y125.15 E0.09897
G1 X100.856 Y122.378 E0.09407
G1 X100.856 Y98.622 E0.74487
G1 X101.981 Y95.905 E0.09219
M204 P1500
G1 X102.152 Y95.984 F10800
M204 P1000
G1 X102.324 Y96.064
G1 F1200
G1 X104.45 Y93.938 E0.09426
G1 X107.083 Y92.847 E0.08937
G1 X111.406 Y92.847 E0.13555
G1 X111.938 Y91.564 E0.04356
G1 X113.676 Y89.825 E0.07708
G1 X113.676 Y87.697 E0.06674
G1 X114.767 Y85.064 E0.08937
G1 X116.893 Y82.938 E0.09426
G1 X119.526 Y81.847 E0.08937
G1 X130.474 Y81.847 E0.34328
G1 X133.107 Y82.938 E0.08937
G1 X135.233 Y85.064 E0.09426
G1 X136.324 Y87.697 E0.08937
G1 X136.324 Y89.825 E0.06674
G1 X138.062 Y91.564 E0.07708
G1 X138.594 Y92.847 E0.04356
G1 X142.706 Y92.847 E0.12894
G1 X145.34 Y93.938 E0.08937
G1 X147.465 Y96.064 E0.09426
G1 X148.556 Y98.697 E0.08937
G1 X148.556 Y122.303 E0.74016
M73 P11 R15
M73 Q11 S15
G1 X147.465 Y124.936 E0.08937
G1 X145.34 Y127.062 E0.09426
G1 X142.706 Y128.153 E0.08937
G1 X107.083 Y128.153 E1.11695
G1 X104.45 Y127.062 E0.08937
G1 X102.324 Y124.936 E0.09426
G1 X101.233 Y122.303 E0.08937
G1 X101.233 Y98.697 E0.74016
G1 X102.301 Y96.119 E0.08749
M204 P1500
G1 X102.472 Y96.198 F10800
M204 P1000
G1 X102.643 Y96.277
G1 F1200
G1 X104.663 Y94.257 E0.08956
G1 X107.158 Y93.224 E0.08466
G1 X111.658 Y93.224 E0.1411
G1 X112.257 Y91.777 E0.0491
G1 X114.053 Y89.981 E0.07962
G1 X114.053 Y87.772 E0.06928
G1 X115.086 Y85.277 E0.08466
G1 X117.106 Y83.257 E0.08956
G1 X119.601 Y82.224 E0.08466
G1 X130.399 Y82.224 E0.33858
G1 X132.894 Y83.257 E0.08466
G1 X134.914 Y85.277 E0.08956
G1 X135.947 Y87.772 E0.08466
G1 X135.947 Y89.981 E0.06928
G1 X137.743 Y91.777 E0.07962
G1 X138.342 Y93.224 E0.0491
G1 X142.631 Y93.224 E0.13449
G1 X145.126 Y94.257 E0.08466
G1 X147.146 Y96.277 E0.08956
G1 X148.179 Y98.772 E0.08466
G1 X148.179 Y122.228 E0.73546
G1 X147.146 Y124.723 E0.08466
G1 X145.126 Y126.743 E0.08956
G1 X142.631 Y127.776 E0.08466
G1 X107.158 Y127.776 E1.11225
M73 P12 R15
M73 Q12 S15
G1 X104.663 Y126.743 E0.08466
G1 X102.643 Y124.723 E0.08956
G1 X101.61 Y122.228 E0.08466
G1 X101.61 Y98.772 E0.73546
G1 X102.62 Y96.333 E0.08278
M204 P1500
G1 X102.792 Y96.412 F10800
M204 P1000
G1 X102.963 Y96.491
G1 F1200
G1 X104.877 Y94.577 E0.08486
G1 X107.233 Y93.601 E0.07996
G1 X111.91 Y93.601 E0.14665
G1 X112.577 Y91.991 E0.05465
G1 X114.43 Y90.138 E0.08217
G1 X114.43 Y87.847 E0.07183
G1 X115.406 Y85.491 E0.07996
G1 X117.32 Y83.577 E0.08486
G1 X119.676 Y82.601 E0.07996
G1 X130.324 Y82.601 E0.33387
G1 X132.68 Y83.577 E0.07996
G1 X134.594 Y85.491 E0.08486
G1 X135.57 Y87.847 E0.07996
G1 X135.57 Y90.138 E0.07183
G1 X137.423 Y91.991 E0.08217
G1 X138.09 Y93.601 E0.05465
G1 X142.556 Y93.601 E0.14004
G1 X144.912 Y94.577 E0.07996
G1 X146.826 Y96.491 E0.08486
G1 X147.802 Y98.847 E0.07996
G1 X147.802 Y122.153 E0.73076
G1 X146.826 Y124.509 E0.07996
G1 X144.912 Y126.423 E0.08486
G1 X142.556 Y127.399 E0.07996
G1 X107.233 Y127.399 E1.10754
G1 X104.877 Y126.423 E0.07996
G1 X102.963 Y124.509 E0.08486
G1 X101.987 Y122.153 E0.07996
M73 P13 R15
G1 X101.987 Y98.847 E0.73076
M73 P13 R14
M73 Q13 S15
G1 X102.94 Y96.546 E0.07808
M204 P1500
G1 X103.111 Y96.625 F10800
M204 P1000
G1 X103.283 Y96.704
G1 F1200
G1 X105.09 Y94.897 E0.08015
G1 X107.308 Y93.978 E0.07526
G1 X112.162 Y93.978 E0.1522
G1 X112.897 Y92.204 E0.0602
G1 X114.704 Y90.397 E0.08015
G1 X114.807 Y90.354 E0.00349
G1 X114.807 Y87.922 E0.07626
G1 X115.726 Y85.704 E0.07526
G1 X117.533 Y83.897 E0.08015
G1 X119.751 Y82.978 E0.07526
G1 X130.249 Y82.978 E0.32917
G1 X132.467 Y83.897 E0.07526
G1 X134.274 Y85.704 E0.08015
G1 X135.193 Y87.922 E0.07526
G1 X135.193 Y90.354 E0.07626
G1 X135.296 Y90.397 E0.00349
G1 X137.103 Y92.204 E0.08015
G1 X137.838 Y93.978 E0.0602
G1 X142.481 Y93.978 E0.14558
G1 X144.699 Y94.897 E0.07526
G1 X146.506 Y96.704 E0.08015
G1 X147.425 Y98.922 E0.07526
G1 X147.425 Y122.078 E0.72605
M73 Q13 S14
G1 X146.506 Y124.296 E0.07526
G1 X144.699 Y126.103 E0.08015
G1 X142.481 Y127.022 E0.07526
G1 X107.308 Y127.022 E1.10284
G1 X105.09 Y126.103 E0.07526
G1 X103.283 Y124.296 E0.08015
G1 X102.364 Y122.078 E0.07526
